; generated by Slic3r 1.0.0RC2 on 2014-04-09 at 00:37:38

; removing support 
; do each object first, then proceed to next one
; 
; set resolution to 0.01 to improve rendering speed on large meshes.
; 
; removed skirt

; layer_height = 0.2
; perimeters = 3
; top_solid_layers = 4
; bottom_solid_layers = 4
; fill_density = 1
; perimeter_speed = 30
; infill_speed = 60
; travel_speed = 130
; nozzle_diameter = 0.5
; filament_diameter = 1.75
; extrusion_multiplier = 1
; perimeters extrusion width = 0.50mm
; infill extrusion width = 1.02mm
; solid infill extrusion width = 0.85mm
; top infill extrusion width = 0.85mm
; first layer extrusion width = 0.70mm

G21 ; set units to millimeters
G28
;M140 S110;
;M104 S180;
;M190 S110;
;M109 S215;
G90;
G92 E0;
G1 E5 S15;
G92 E0;
;G4 P5000;
G90 ; use absolute coordinates
G92 E0
M82 ; use absolute distances for extrusion
G1 F1800.000 E-3.00000
G92 E0
G1 Z0.350 F7800.000
G1 X9.240 Y27.270 F7800.000
G1 E3.00000 F1800.000
G1 X8.560 Y27.500 E3.06864 F540.000
G1 X6.390 Y28.090 E3.28365
G1 X5.600 Y28.260 E3.36091
G1 X3.370 Y28.610 E3.57674
G1 X2.630 Y28.680 E3.64781
G1 X0.390 Y28.800 E3.86229
G1 X-0.390 Y28.800 E3.93687
G1 X-2.640 Y28.680 E4.15231
G1 X-3.380 Y28.610 E4.22338
G1 X-5.610 Y28.260 E4.43921
G1 X-6.400 Y28.090 E4.51647
G1 X-8.570 Y27.500 E4.73149
G1 X-9.250 Y27.270 E4.80012
G1 X-11.350 Y26.470 E5.01499
G1 X-12.090 Y26.150 E5.09207
G1 X-14.100 Y25.120 E5.30802
G1 X-14.740 Y24.750 E5.37870
G1 X-16.620 Y23.530 E5.59299
G1 X-17.250 Y23.070 E5.66757
G1 X-19.000 Y21.650 E5.88305
G1 X-19.560 Y21.140 E5.95547
G1 X-21.150 Y19.550 E6.17047
G1 X-21.660 Y18.990 E6.24289
G1 X-23.080 Y17.240 E6.45837
G1 X-23.550 Y16.600 E6.53429
G1 X-24.770 Y14.710 E6.74938
G1 X-25.120 Y14.090 E6.81745
G1 X-26.150 Y12.090 E7.03255
G1 X-26.480 Y11.340 E7.11089
G1 X-27.280 Y9.240 E7.32576
G1 X-27.510 Y8.560 E7.39440
G1 X-28.100 Y6.390 E7.60941
G1 X-28.270 Y5.600 E7.68667
G1 X-28.620 Y3.370 E7.90250
G1 X-28.700 Y2.600 E7.97652
G1 X-28.810 Y0.360 E8.19095
G1 X-28.810 Y-0.370 E8.26075
G1 X-28.700 Y-2.610 E8.47518
G1 X-28.610 Y-3.400 E8.55121
G1 X-28.290 Y-5.450 E8.74959
G1 X-28.100 Y-6.400 E8.84222
G1 X-27.510 Y-8.570 E9.05724
G1 X-27.280 Y-9.250 E9.12587
G1 X-26.480 Y-11.350 E9.34074
G1 X-26.160 Y-12.090 E9.41782
G1 X-25.130 Y-14.100 E9.63377
G1 X-24.760 Y-14.740 E9.70445
G1 X-23.540 Y-16.620 E9.91874
G1 X-23.080 Y-17.250 E9.99332
G1 X-21.660 Y-19.000 E10.20880
G1 X-21.150 Y-19.560 E10.28122
G1 X-19.560 Y-21.150 E10.49622
G1 X-19.000 Y-21.660 E10.56864
G1 X-17.250 Y-23.080 E10.78412
G1 X-16.620 Y-23.540 E10.85870
G1 X-14.740 Y-24.760 E11.07299
G1 X-14.100 Y-25.130 E11.14367
G1 X-12.090 Y-26.160 E11.35962
G1 X-11.350 Y-26.480 E11.43671
G1 X-9.250 Y-27.280 E11.65157
G1 X-8.570 Y-27.510 E11.72021
G1 X-6.400 Y-28.100 E11.93522
G1 X-5.610 Y-28.270 E12.01248
G1 X-3.380 Y-28.620 E12.22831
G1 X-2.630 Y-28.690 E12.30034
G1 X-0.490 Y-28.800 E12.50522
G1 X0.360 Y-28.810 E12.58650
G1 X2.600 Y-28.700 E12.80093
G1 X3.370 Y-28.620 E12.87495
G1 X5.600 Y-28.270 E13.09078
G1 X6.390 Y-28.100 E13.16804
G1 X8.560 Y-27.510 E13.38305
G1 X9.240 Y-27.280 E13.45169
G1 X11.340 Y-26.480 E13.66655
G1 X12.090 Y-26.150 E13.74490
G1 X14.090 Y-25.120 E13.96000
G1 X14.710 Y-24.770 E14.02807
G1 X16.600 Y-23.550 E14.24316
G1 X17.240 Y-23.080 E14.31908
G1 X18.990 Y-21.660 E14.53456
G1 X19.550 Y-21.150 E14.60698
G1 X21.140 Y-19.560 E14.82198
G1 X21.650 Y-19.000 E14.89440
G1 X23.070 Y-17.250 E15.10988
G1 X23.530 Y-16.620 E15.18446
G1 X24.750 Y-14.740 E15.39875
G1 X25.120 Y-14.100 E15.46943
G1 X26.150 Y-12.090 E15.68538
G1 X26.470 Y-11.350 E15.76246
G1 X27.270 Y-9.250 E15.97733
G1 X27.500 Y-8.570 E16.04596
G1 X28.090 Y-6.400 E16.26098
G1 X28.260 Y-5.610 E16.33824
G1 X28.610 Y-3.380 E16.55407
G1 X28.680 Y-2.640 E16.62514
G1 X28.800 Y-0.400 E16.83962
G1 X28.800 Y0.380 E16.91420
G1 X28.680 Y2.630 E17.12964
G1 X28.610 Y3.370 E17.20071
G1 X28.260 Y5.600 E17.41654
G1 X28.090 Y6.390 E17.49380
G1 X27.500 Y8.560 E17.70881
G1 X27.270 Y9.240 E17.77745
G1 X26.470 Y11.340 E17.99231
G1 X26.150 Y12.080 E18.06940
G1 X25.120 Y14.090 E18.28535
G1 X24.750 Y14.730 E18.35603
G1 X23.530 Y16.610 E18.57032
G1 X23.070 Y17.240 E18.64490
G1 X21.650 Y18.990 E18.86038
G1 X21.140 Y19.550 E18.93280
G1 X19.550 Y21.140 E19.14780
G1 X18.990 Y21.650 E19.22022
G1 X17.240 Y23.070 E19.43570
G1 X16.600 Y23.540 E19.51162
G1 X14.710 Y24.760 E19.72671
G1 X14.090 Y25.110 E19.79478
G1 X12.090 Y26.140 E20.00988
G1 X11.340 Y26.470 E20.08822
G1 X9.332 Y27.235 E20.29366
G1 X9.010 Y26.660 F7800.000
G1 X8.390 Y26.860 E20.35595 F540.000
G1 X6.220 Y27.450 E20.57097
G1 X5.500 Y27.610 E20.64149
G1 X3.270 Y27.960 E20.85732
G1 X2.600 Y28.030 E20.92173
G1 X0.360 Y28.150 E21.13621
G1 X-0.350 Y28.150 E21.20409
G1 X-2.600 Y28.030 E21.41953
G1 X-3.280 Y27.960 E21.48489
G1 X-5.510 Y27.610 E21.70072
G1 X-6.230 Y27.450 E21.77124
G1 X-8.400 Y26.860 E21.98625
G1 X-9.020 Y26.660 E22.04854
G1 X-11.120 Y25.860 E22.26341
G1 X-11.790 Y25.560 E22.33360
G1 X-13.800 Y24.530 E22.54955
G1 X-14.380 Y24.190 E22.61383
G1 X-16.260 Y22.970 E22.82811
G1 X-16.830 Y22.560 E22.89525
G1 X-18.580 Y21.140 E23.11073
G1 X-19.100 Y20.680 E23.17711
G1 X-20.690 Y19.090 E23.39210
G1 X-21.150 Y18.570 E23.45848
G1 X-22.570 Y16.820 E23.67396
G1 X-22.990 Y16.240 E23.74243
G1 X-24.210 Y14.350 E23.95752
G1 X-24.540 Y13.790 E24.01967
G1 X-25.570 Y11.790 E24.23477
G1 X-25.870 Y11.110 E24.30583
G1 X-26.670 Y9.010 E24.52070
G1 X-26.870 Y8.390 E24.58298
G1 X-27.460 Y6.220 E24.79800
G1 X-27.620 Y5.500 E24.86852
G1 X-27.970 Y3.270 E25.08435
G1 X-28.040 Y2.570 E25.15161
G1 X-28.160 Y0.000 E25.39761
G1 X-28.040 Y-2.580 E25.64456
G1 X-27.960 Y-3.300 E25.71382
G1 X-27.640 Y-5.360 E25.91315
G1 X-27.460 Y-6.230 E25.99809
G1 X-26.870 Y-8.400 E26.21311
G1 X-26.670 Y-9.020 E26.27540
G1 X-25.870 Y-11.120 E26.49026
G1 X-25.570 Y-11.790 E26.56045
G1 X-24.540 Y-13.800 E26.77640
G1 X-24.200 Y-14.380 E26.84068
G1 X-22.980 Y-16.260 E27.05497
G1 X-22.570 Y-16.830 E27.12210
G1 X-21.150 Y-18.580 E27.33758
G1 X-20.690 Y-19.100 E27.40396
G1 X-19.100 Y-20.690 E27.61896
G1 X-18.580 Y-21.150 E27.68534
G1 X-16.830 Y-22.570 E27.90082
G1 X-16.260 Y-22.980 E27.96795
G1 X-14.380 Y-24.200 E28.18224
G1 X-13.800 Y-24.540 E28.24652
G1 X-11.790 Y-25.570 E28.46247
G1 X-11.120 Y-25.870 E28.53266
G1 X-9.020 Y-26.670 E28.74752
G1 X-8.400 Y-26.870 E28.80981
G1 X-6.230 Y-27.460 E29.02482
G1 X-5.510 Y-27.620 E29.09534
G1 X-3.280 Y-27.970 E29.31117
G1 X-2.590 Y-28.040 E29.37749
G1 X-0.110 Y-28.160 E29.61488
G1 X2.570 Y-28.040 E29.87139
G1 X3.270 Y-27.970 E29.93865
G1 X5.500 Y-27.620 E30.15448
G1 X6.220 Y-27.460 E30.22500
G1 X8.390 Y-26.870 E30.44001
G1 X9.010 Y-26.670 E30.50230
G1 X11.110 Y-25.870 E30.71717
G1 X11.790 Y-25.570 E30.78823
G1 X13.790 Y-24.540 E31.00333
G1 X14.350 Y-24.210 E31.06548
G1 X16.240 Y-22.990 E31.28056
G1 X16.820 Y-22.570 E31.34903
G1 X18.570 Y-21.150 E31.56451
G1 X19.090 Y-20.690 E31.63089
G1 X20.680 Y-19.100 E31.84589
G1 X21.140 Y-18.580 E31.91227
G1 X22.560 Y-16.830 E32.12775
G1 X22.970 Y-16.260 E32.19488
G1 X24.190 Y-14.380 E32.40917
G1 X24.530 Y-13.800 E32.47345
G1 X25.560 Y-11.790 E32.68940
G1 X25.860 Y-11.120 E32.75959
G1 X26.660 Y-9.020 E32.97445
G1 X26.860 Y-8.400 E33.03674
G1 X27.450 Y-6.230 E33.25176
G1 X27.610 Y-5.510 E33.32228
G1 X27.960 Y-3.280 E33.53811
G1 X28.030 Y-2.610 E33.60252
G1 X28.150 Y-0.370 E33.81700
G1 X28.150 Y0.340 E33.88488
G1 X28.030 Y2.590 E34.10032
G1 X27.960 Y3.270 E34.16568
G1 X27.610 Y5.500 E34.38151
G1 X27.450 Y6.220 E34.45203
G1 X26.860 Y8.390 E34.66704
G1 X26.660 Y9.010 E34.72933
G1 X25.860 Y11.110 E34.94420
G1 X25.560 Y11.780 E35.01439
G1 X24.530 Y13.790 E35.23034
G1 X24.190 Y14.370 E35.29462
G1 X22.970 Y16.250 E35.50890
G1 X22.560 Y16.820 E35.57604
G1 X21.140 Y18.570 E35.79152
G1 X20.680 Y19.090 E35.85790
G1 X19.090 Y20.680 E36.07289
G1 X18.570 Y21.140 E36.13927
G1 X16.820 Y22.560 E36.35475
G1 X16.240 Y22.980 E36.42322
G1 X14.350 Y24.200 E36.63831
G1 X13.790 Y24.530 E36.70046
G1 X11.790 Y25.560 E36.91556
G1 X11.110 Y25.860 E36.98662
G1 X9.102 Y26.625 E37.19206
G1 F1800.000 E34.19206
G92 E0
G1 X5.874 Y18.078 F7800.000
G1 E3.00000 F1800.000
G1 X3.993 Y18.582 E3.18620 F540.000
G1 X3.993 Y15.481 E3.48276
G1 X3.328 Y15.659 E3.54855
G1 X1.673 Y15.921 E3.70876
G1 X0.000 Y16.008 E3.86898
G1 X-1.673 Y15.921 E4.02919
G1 X-3.328 Y15.659 E4.18940
G1 X-3.993 Y15.481 E4.25519
G1 X-3.993 Y18.582 E4.55175
G1 X-5.874 Y18.078 E4.73795
G1 X-7.731 Y17.365 E4.92818
G1 X-9.504 Y16.462 E5.11842
G1 X-11.173 Y15.378 E5.30866
G1 X-12.719 Y14.126 E5.49890
G1 X-14.126 Y12.719 E5.68913
G1 X-15.378 Y11.173 E5.87938
G1 X-16.462 Y9.504 E6.06962
G1 X-17.365 Y7.731 E6.25985
G1 X-18.078 Y5.873 E6.45017
G1 X-18.598 Y3.919 E6.64355
G1 X-18.904 Y1.987 E6.83055
G1 X-19.008 Y-0.000 E7.02079
G1 X-18.904 Y-1.987 E7.21102
G1 X-18.593 Y-3.952 E7.40126
G1 X-18.078 Y-5.874 E7.59150
G1 X-17.365 Y-7.733 E7.78187
G1 X-16.462 Y-9.504 E7.97198
G1 X-15.378 Y-11.173 E8.16221
G1 X-14.126 Y-12.719 E8.35246
G1 X-12.719 Y-14.126 E8.54269
G1 X-11.173 Y-15.378 E8.73293
G1 X-9.504 Y-16.462 E8.92317
G1 X-7.731 Y-17.365 E9.11341
G1 X-5.874 Y-18.078 E9.30364
G1 X-2.743 Y-18.917 E9.61357
G1 X-2.743 Y-15.751 E9.91626
G1 X-1.673 Y-15.921 E10.01980
G1 X0.000 Y-16.008 E10.18001
G1 X1.673 Y-15.921 E10.34023
G1 X2.243 Y-15.831 E10.39536
G1 X2.243 Y-18.864 E10.68536
G1 X3.939 Y-18.595 E10.84958
G1 X5.874 Y-18.078 E11.04101
G1 X7.731 Y-17.365 E11.23128
G1 X9.504 Y-16.462 E11.42152
G1 X11.173 Y-15.378 E11.61176
G1 X12.719 Y-14.126 E11.80200
G1 X14.126 Y-12.719 E11.99223
G1 X15.378 Y-11.173 E12.18247
G1 X16.462 Y-9.504 E12.37271
G1 X17.365 Y-7.731 E12.56295
G1 X18.078 Y-5.874 E12.75318
G1 X18.593 Y-3.952 E12.94342
G1 X18.904 Y-1.987 E13.13366
G1 X19.008 Y0.000 E13.32390
G1 X18.904 Y1.987 E13.51414
G1 X18.593 Y3.952 E13.70438
G1 X18.078 Y5.874 E13.89462
G1 X17.365 Y7.731 E14.08485
G1 X16.462 Y9.504 E14.27509
G1 X15.378 Y11.173 E14.46533
G1 X14.126 Y12.719 E14.65557
G1 X12.719 Y14.126 E14.84580
G1 X11.173 Y15.378 E15.03605
G1 X9.504 Y16.462 E15.22628
G1 X7.731 Y17.365 E15.41652
G1 X5.966 Y18.043 E15.59733
G1 X5.671 Y17.452 F7800.000
G1 X4.650 Y17.726 E15.69836 F378.000
G1 X4.650 Y14.624 E15.99492
G1 X3.192 Y15.015 E16.13929
G1 X1.605 Y15.266 E16.29292
G1 X0.000 Y15.350 E16.44655
G1 X-1.605 Y15.266 E16.60017
G1 X-3.192 Y15.015 E16.75380
G1 X-4.650 Y14.624 E16.89817
G1 X-4.650 Y17.726 E17.19473
G1 X-5.671 Y17.452 E17.29576
G1 X-7.464 Y16.764 E17.47941
G1 X-9.175 Y15.892 E17.66306
G1 X-10.786 Y14.846 E17.84672
G1 X-12.279 Y13.637 E18.03037
G1 X-13.637 Y12.279 E18.21402
G1 X-14.846 Y10.786 E18.39768
G1 X-15.892 Y9.175 E18.58133
G1 X-16.764 Y7.464 E18.76498
G1 X-17.452 Y5.670 E18.94866
G1 X-17.955 Y3.782 E19.13545
G1 X-18.250 Y1.918 E19.31592
G1 X-18.350 Y-0.000 E19.49958
G1 X-18.250 Y-1.918 E19.68323
G1 X-17.950 Y-3.815 E19.86688
G1 X-17.452 Y-5.671 E20.05054
G1 X-16.764 Y-7.465 E20.23432
G1 X-15.892 Y-9.175 E20.41784
G1 X-14.846 Y-10.786 E20.60149
G1 X-13.637 Y-12.279 E20.78515
G1 X-12.279 Y-13.637 E20.96880
G1 X-10.786 Y-14.846 E21.15246
G1 X-9.175 Y-15.892 E21.33611
G1 X-7.464 Y-16.764 E21.51976
G1 X-5.671 Y-17.452 E21.70341
G1 X-3.400 Y-18.061 E21.92817
G1 X-3.400 Y-14.982 E22.22254
G1 X-1.605 Y-15.266 E22.39635
G1 X0.000 Y-15.350 E22.54998
G1 X1.605 Y-15.266 E22.70361
G1 X2.900 Y-15.061 E22.82901
G1 X2.900 Y-18.094 E23.11902
G1 X3.803 Y-17.951 E23.20642
G1 X5.671 Y-17.452 E23.39126
G1 X7.464 Y-16.764 E23.57492
G1 X9.175 Y-15.892 E23.75857
G1 X10.786 Y-14.846 E23.94223
G1 X12.279 Y-13.637 E24.12588
G1 X13.637 Y-12.279 E24.30953
G1 X14.846 Y-10.786 E24.49319
G1 X15.892 Y-9.175 E24.67684
G1 X16.764 Y-7.464 E24.86049
G1 X17.452 Y-5.671 E25.04414
G1 X17.950 Y-3.815 E25.22780
G1 X18.250 Y-1.918 E25.41145
G1 X18.350 Y0.000 E25.59510
G1 X18.250 Y1.918 E25.77876
G1 X17.950 Y3.815 E25.96241
G1 X17.452 Y5.671 E26.14606
G1 X16.764 Y7.464 E26.32972
G1 X15.892 Y9.175 E26.51337
G1 X14.846 Y10.786 E26.69702
G1 X13.637 Y12.279 E26.88068
G1 X12.279 Y13.637 E27.06432
G1 X10.786 Y14.846 E27.24798
G1 X9.175 Y15.892 E27.43163
G1 X7.464 Y16.764 E27.61529
G1 X5.763 Y17.417 E27.78951
G1 X5.523 Y18.093 F7800.000
G1 X3.336 Y19.525 F7800.000
G1 X2.073 Y19.725 E27.91175 F540.000
G1 X-0.000 Y19.834 E28.11024
G1 X-2.073 Y19.725 E28.30874
G1 X-3.336 Y19.525 E28.43097
G1 X-3.336 Y16.323 E28.73715
G1 X-1.742 Y16.575 E28.89143
G1 X0.000 Y16.666 E29.05823
G1 X1.742 Y16.575 E29.22503
G1 X3.336 Y16.323 E29.37931
G1 X3.336 Y19.426 E29.67606
G1 F1800.000 E26.67606
G92 E0
G1 X1.586 Y-16.583 F7800.000
G1 E3.00000 F1800.000
G1 X0.000 Y-16.666 E3.15184 F540.000
G1 X-2.086 Y-16.557 E3.35155
G1 X-2.086 Y-19.724 E3.65437
G1 X-0.000 Y-19.834 E3.85407
G1 X1.586 Y-19.750 E4.00591
G1 X1.586 Y-16.682 E4.29931
G1 X2.142 Y-20.379 F7800.000
G1 X4.260 Y-20.044 E4.50439 F540.000
G1 X6.332 Y-19.489 E4.70947
G1 X8.335 Y-18.720 E4.91455
G1 X10.246 Y-17.746 E5.11963
G1 X12.045 Y-16.578 E5.32471
G1 X13.711 Y-15.228 E5.52979
G1 X15.228 Y-13.712 E5.73487
G1 X16.578 Y-12.045 E5.93995
G1 X17.746 Y-10.246 E6.14503
G1 X18.720 Y-8.335 E6.35011
G1 X19.489 Y-6.332 E6.55520
G1 X20.044 Y-4.260 E6.76028
G1 X20.379 Y-2.142 E6.96536
G1 X20.492 Y-0.000 E7.17044
G1 X20.379 Y2.142 E7.37552
G1 X20.044 Y4.260 E7.58060
G1 X19.489 Y6.332 E7.78568
G1 X18.720 Y8.335 E7.99076
G1 X17.746 Y10.246 E8.19584
G1 X16.578 Y12.045 E8.40092
G1 X15.228 Y13.711 E8.60600
G1 X13.711 Y15.228 E8.81108
G1 X12.045 Y16.578 E9.01616
G1 X10.246 Y17.746 E9.22124
G1 X8.335 Y18.720 E9.42632
G1 X6.332 Y19.489 E9.63140
G1 X4.260 Y20.044 E9.83648
G1 X2.142 Y20.379 E10.04156
G1 X-0.000 Y20.492 E10.24665
G1 X-2.142 Y20.379 E10.45173
G1 X-4.260 Y20.044 E10.65672
G1 X-6.368 Y19.475 E10.86555
G1 X-8.335 Y18.720 E11.06695
G1 X-10.246 Y17.746 E11.27203
G1 X-12.045 Y16.578 E11.47711
G1 X-13.712 Y15.228 E11.68219
G1 X-15.228 Y13.711 E11.88727
G1 X-16.578 Y12.045 E12.09235
G1 X-17.746 Y10.246 E12.29743
G1 X-18.720 Y8.335 E12.50251
G1 X-19.489 Y6.332 E12.70759
G1 X-20.044 Y4.260 E12.91267
G1 X-20.379 Y2.142 E13.11775
G1 X-20.492 Y-0.000 E13.32283
G1 X-20.379 Y-2.142 E13.52792
G1 X-20.050 Y-4.222 E13.72932
G1 X-19.488 Y-6.333 E13.93814
G1 X-18.720 Y-8.335 E14.14314
G1 X-17.746 Y-10.246 E14.34822
G1 X-16.578 Y-12.045 E14.55330
G1 X-15.228 Y-13.711 E14.75838
G1 X-13.712 Y-15.228 E14.96346
G1 X-12.045 Y-16.578 E15.16854
G1 X-10.246 Y-17.746 E15.37362
G1 X-8.335 Y-18.720 E15.57870
G1 X-6.332 Y-19.489 E15.78378
G1 X-4.260 Y-20.044 E15.98886
G1 X-2.142 Y-20.379 E16.19394
G1 X-0.000 Y-20.492 E16.39902
G1 X2.044 Y-20.384 E16.59468
G1 X2.211 Y-21.034 F7800.000
G1 X4.397 Y-20.687 E16.80635 F378.000
G1 X6.536 Y-20.114 E17.01801
G1 X8.602 Y-19.321 E17.22968
G1 X10.575 Y-18.316 E17.44135
G1 X12.431 Y-17.110 E17.65301
G1 X14.152 Y-15.717 E17.86468
G1 X15.717 Y-14.152 E18.07634
G1 X17.110 Y-12.431 E18.28801
G1 X18.316 Y-10.575 E18.49967
G1 X19.321 Y-8.602 E18.71134
G1 X20.114 Y-6.536 E18.92300
G1 X20.687 Y-4.397 E19.13467
G1 X21.034 Y-2.211 E19.34634
G1 X21.150 Y-0.000 E19.55800
G1 X21.034 Y2.211 E19.76967
G1 X20.687 Y4.397 E19.98133
G1 X20.114 Y6.536 E20.19300
G1 X19.321 Y8.602 E20.40467
G1 X18.316 Y10.575 E20.61633
G1 X17.110 Y12.431 E20.82800
G1 X15.717 Y14.152 E21.03966
G1 X14.152 Y15.717 E21.25133
G1 X12.431 Y17.110 E21.46299
G1 X10.575 Y18.316 E21.67466
G1 X8.602 Y19.321 E21.88632
G1 X6.536 Y20.114 E22.09799
G1 X4.397 Y20.687 E22.30966
G1 X2.211 Y21.034 E22.52132
G1 X-0.000 Y21.150 E22.73299
G1 X-2.211 Y21.034 E22.94465
G1 X-4.397 Y20.687 E23.15629
G1 X-6.572 Y20.100 E23.37170
G1 X-8.602 Y19.321 E23.57963
G1 X-10.575 Y18.316 E23.79130
G1 X-12.431 Y17.110 E24.00296
G1 X-14.152 Y15.717 E24.21463
G1 X-15.717 Y14.152 E24.42629
G1 X-17.110 Y12.431 E24.63796
G1 X-18.316 Y10.575 E24.84962
G1 X-19.321 Y8.602 E25.06129
G1 X-20.114 Y6.536 E25.27296
G1 X-20.687 Y4.397 E25.48462
G1 X-21.034 Y2.211 E25.69629
G1 X-21.150 Y-0.000 E25.90795
G1 X-21.034 Y-2.211 E26.11962
G1 X-20.693 Y-4.359 E26.32755
G1 X-20.114 Y-6.536 E26.54296
G1 X-19.321 Y-8.602 E26.75460
G1 X-18.316 Y-10.575 E26.96626
G1 X-17.110 Y-12.431 E27.17793
G1 X-15.717 Y-14.152 E27.38959
G1 X-14.152 Y-15.717 E27.60126
G1 X-12.431 Y-17.110 E27.81293
