; generated by Slic3r 1.0.0RC2 on 2014-07-30 at 00:34:51

; removing support 
; do each object first, then proceed to next one
; 
; set resolution to 0.01 to improve rendering speed on large meshes.
; 
; removed skirt

; layer_height = 0.2
; perimeters = 6
; top_solid_layers = 4
; bottom_solid_layers = 4
; fill_density = 1
; perimeter_speed = 30
; infill_speed = 60
; travel_speed = 130
; nozzle_diameter = 0.5
; filament_diameter = 1.75
; extrusion_multiplier = 1
; perimeters extrusion width = 0.50mm
; infill extrusion width = 1.02mm
; solid infill extrusion width = 0.85mm
; top infill extrusion width = 0.10mm
; first layer extrusion width = 0.17mm

G21 ; set units to millimeters
G28
;M140 S110;
;M104 S180;
;M190 S110;
;M109 S215;
G90;
G92 E0;
G1 E5 S15;
G92 E0;
;G4 P5000;
G90 ; use absolute coordinates
G92 E0
M82 ; use absolute distances for extrusion
G1 F1800.000 E-3.00000
G1 Z1.350 F7800.000
G92 E0
G1 X6.250 Y9.642 F7800.000
G1 Z0.350 F7800.000
G1 E3.00000 F1800.000
G1 X6.090 Y11.062 E3.05089 F540.000
G1 X5.630 Y12.412 E3.10168
G1 X4.880 Y13.632 E3.15269
G1 X3.890 Y14.652 E3.20331
G1 X2.690 Y15.432 E3.25428
G1 X1.900 Y15.832 E3.28582
G1 X1.320 Y16.092 E3.30845
G1 X0.290 Y16.492 E3.34780
G1 X-0.490 Y16.742 E3.37697
G1 X-1.310 Y16.892 E3.40666
G1 X-2.100 Y16.942 E3.43485
G1 X-5.500 Y16.942 E3.55594
G1 X-6.770 Y16.812 E3.60141
G1 X-7.980 Y16.452 E3.64636
G1 X-9.110 Y15.852 E3.69193
G1 X-10.090 Y15.042 E3.73721
G1 X-10.900 Y14.062 E3.78249
G1 X-11.500 Y12.932 E3.82805
G1 X-11.860 Y11.722 E3.87301
G1 X-11.990 Y10.452 E3.91848
G1 X-11.990 Y-10.468 E4.66352
G1 X-11.860 Y-11.738 E4.70898
G1 X-11.500 Y-12.948 E4.75394
G1 X-10.900 Y-14.078 E4.79951
G1 X-10.090 Y-15.058 E4.84479
G1 X-9.110 Y-15.868 E4.89007
G1 X-7.980 Y-16.468 E4.93563
G1 X-6.770 Y-16.828 E4.98059
G1 X-5.500 Y-16.958 E5.02606
G1 X-2.100 Y-16.958 E5.14714
G1 X-0.610 Y-16.788 E5.20055
G1 X0.250 Y-16.468 E5.23323
G1 X0.260 Y-16.508 E5.23470
G1 X1.230 Y-16.138 E5.27167
G1 X1.960 Y-15.818 E5.30006
G1 X2.750 Y-15.408 E5.33176
G1 X3.930 Y-14.628 E5.38213
G1 X4.910 Y-13.598 E5.43277
G1 X5.640 Y-12.398 E5.48279
G1 X6.100 Y-11.058 E5.53324
G1 X6.250 Y-9.648 E5.58374
G1 X6.250 Y9.605 E6.26942
G1 X6.000 Y9.642 F7800.000
G1 X5.850 Y11.012 E6.31851 F540.000
G1 X5.410 Y12.302 E6.36705
G1 X4.690 Y13.472 E6.41597
G1 X3.730 Y14.462 E6.46508
G1 X2.580 Y15.212 E6.51398
G1 X1.790 Y15.612 E6.54552
G1 X1.230 Y15.862 E6.56736
G1 X0.200 Y16.262 E6.60671
G1 X-0.550 Y16.502 E6.63475
G1 X-1.340 Y16.652 E6.66339
G1 X-2.100 Y16.692 E6.69049
G1 X-5.500 Y16.692 E6.81158
G1 X-6.720 Y16.572 E6.85524
G1 X-7.890 Y16.222 E6.89873
G1 X-8.970 Y15.642 E6.94239
G1 X-9.920 Y14.872 E6.98594
G1 X-10.690 Y13.922 E7.02949
G1 X-11.270 Y12.842 E7.07315
G1 X-11.620 Y11.672 E7.11664
G1 X-11.740 Y10.452 E7.16030
G1 X-11.740 Y-10.468 E7.90534
G1 X-11.620 Y-11.688 E7.94900
G1 X-11.270 Y-12.858 E7.99249
G1 X-10.690 Y-13.938 E8.03615
G1 X-9.920 Y-14.888 E8.07970
G1 X-8.970 Y-15.658 E8.12325
G1 X-7.890 Y-16.238 E8.16691
G1 X-6.720 Y-16.588 E8.21040
G1 X-5.500 Y-16.708 E8.25406
G1 X-2.100 Y-16.708 E8.37514
G1 X-0.670 Y-16.548 E8.42639
G1 X0.160 Y-16.248 E8.45782
G1 X0.170 Y-16.278 E8.45895
G1 X1.140 Y-15.908 E8.49592
G1 X1.850 Y-15.598 E8.52351
G1 X2.640 Y-15.188 E8.55521
G1 X3.770 Y-14.438 E8.60351
G1 X4.710 Y-13.458 E8.65187
G1 X5.420 Y-12.288 E8.70061
G1 X5.860 Y-10.998 E8.74915
G1 X6.000 Y-9.648 E8.79749
G1 X6.000 Y9.605 E9.48317
G1 F1800.000 E6.48317
G1 Z1.350 F7800.000
G92 E0
G1 X-5.439 Y10.199 F7800.000
G1 Z0.350 F7800.000
G1 E3.00000 F1800.000
G1 X-5.336 Y10.325 E3.00579 F378.000
G1 X-2.155 Y10.325 E3.11910
G1 X-1.645 Y10.215 E3.13765
G1 X-1.554 Y10.239 E3.14101
G1 X-5.360 Y10.323 F7800.000
G1 X-5.449 Y10.398 E3.14512 F378.000
G1 F1800.000 E0.14512
G1 Z1.350 F7800.000
G92 E0
G1 X-5.458 Y-10.245 F7800.000
G1 Z0.350 F7800.000
G1 E3.00000 F1800.000
G1 X-5.355 Y-10.316 E3.00443 F378.000
G1 X-5.439 Y-10.444 F7800.000
G1 X-5.355 Y-10.316 E3.00988 F378.000
G1 X-2.257 Y-10.327 E3.12023
G1 X-1.591 Y-10.241 E3.14413
G1 X-1.562 Y-10.191 E3.14622
G1 F1800.000 E0.14622
G1 Z1.550 F7800.000
G92 E0
G1 X0.250 Y-16.468 F7800.000
G1 Z0.550 F7800.000
G1 E3.00000 F1800.000
G1 X0.260 Y-16.508 E3.00084 F1800
G1 X1.230 Y-16.138 E3.02197
G1 X1.960 Y-15.818 E3.03819
G1 X2.750 Y-15.408 E3.05630
G1 X3.930 Y-14.628 E3.08509
G1 X4.910 Y-13.598 E3.11402
G1 X5.640 Y-12.398 E3.14260
G1 X6.100 Y-11.058 E3.17144
G1 X6.250 Y-9.648 E3.20029
G1 X6.250 Y9.642 E3.59286
G1 X6.090 Y11.062 E3.62194
G1 X5.630 Y12.412 E3.65096
G1 X4.880 Y13.632 E3.68011
G1 X3.890 Y14.652 E3.70903
G1 X2.690 Y15.432 E3.73816
G1 X1.900 Y15.832 E3.75618
G1 X1.320 Y16.092 E3.76912
G1 X0.290 Y16.492 E3.79160
G1 X-0.490 Y16.742 E3.80827
G1 X-1.310 Y16.892 E3.82524
G1 X-2.100 Y16.942 E3.84134
G1 X-5.500 Y16.942 E3.91054
G1 X-6.770 Y16.812 E3.93652
G1 X-7.980 Y16.452 E3.96221
G1 X-9.110 Y15.852 E3.98825
G1 X-10.090 Y15.042 E4.01412
G1 X-10.900 Y14.062 E4.03999
G1 X-11.500 Y12.932 E4.06603
G1 X-11.860 Y11.722 E4.09172
G1 X-11.990 Y10.452 E4.11770
G1 X-11.990 Y-10.468 E4.54344
G1 X-11.860 Y-11.738 E4.56942
G1 X-11.500 Y-12.948 E4.59511
G1 X-10.900 Y-14.078 E4.62115
G1 X-10.090 Y-15.058 E4.64702
G1 X-9.110 Y-15.868 E4.67290
G1 X-7.980 Y-16.468 E4.69893
G1 X-6.770 Y-16.828 E4.72462
G1 X-5.500 Y-16.958 E4.75060
G1 X-2.100 Y-16.958 E4.81980
G1 X-0.610 Y-16.788 E4.85032
G1 X0.216 Y-16.481 E4.86824
G1 X0.170 Y-16.278 F7800.000
G1 X1.140 Y-15.908 E4.88937 F1800
G1 X1.850 Y-15.598 E4.90514
G1 X2.640 Y-15.188 E4.92325
G1 X3.770 Y-14.438 E4.95085
G1 X4.710 Y-13.458 E4.97848
G1 X5.420 Y-12.288 E5.00634
G1 X5.860 Y-10.998 E5.03407
G1 X6.000 Y-9.648 E5.06169
G1 X6.000 Y9.642 E5.45426
G1 X5.850 Y11.012 E5.48231
G1 X5.410 Y12.302 E5.51004
G1 X4.690 Y13.472 E5.53800
G1 X3.730 Y14.462 E5.56606
G1 X2.580 Y15.212 E5.59401
G1 X1.790 Y15.612 E5.61203
G1 X1.230 Y15.862 E5.62451
G1 X0.200 Y16.262 E5.64699
G1 X-0.550 Y16.502 E5.66302
G1 X-1.340 Y16.652 E5.67938
G1 X-2.100 Y16.692 E5.69487
G1 X-5.500 Y16.692 E5.76406
G1 X-6.720 Y16.572 E5.78901
G1 X-7.890 Y16.222 E5.81386
G1 X-8.970 Y15.642 E5.83881
G1 X-9.920 Y14.872 E5.86370
G1 X-10.690 Y13.922 E5.88858
G1 X-11.270 Y12.842 E5.91353
G1 X-11.620 Y11.672 E5.93838
G1 X-11.740 Y10.452 E5.96333
G1 X-11.740 Y-10.468 E6.38907
G1 X-11.620 Y-11.688 E6.41401
G1 X-11.270 Y-12.858 E6.43887
G1 X-10.690 Y-13.938 E6.46382
G1 X-9.920 Y-14.888 E6.48870
G1 X-8.970 Y-15.658 E6.51359
G1 X-7.890 Y-16.238 E6.53854
G1 X-6.720 Y-16.588 E6.56339
G1 X-5.500 Y-16.708 E6.58834
G1 X-2.100 Y-16.708 E6.65753
G1 X-0.670 Y-16.548 E6.68681
G1 X0.155 Y-16.250 E6.70467
G1 F1800.000 E3.70467
G1 Z1.550 F7800.000
G92 E0
G1 X-5.370 Y10.097 F7800.000
G1 Z0.550 F7800.000
G1 E3.00000 F1800.000
G1 X-5.181 Y10.227 E3.00954 F1260
G1 X-2.181 Y10.054 E3.13448
G1 X-0.592 Y9.764 E3.20161
G1 X-0.535 Y9.661 E3.20652
G1 X-5.271 Y10.217 F7800.000
G1 X-5.403 Y10.319 E3.21349 F1260
G1 F1800.000 E0.21349
G1 Z1.550 F7800.000
G92 E0
G1 X-5.470 Y-10.125 F7800.000
G1 Z0.550 F7800.000
G1 E3.00000 F1800.000
G1 X-5.269 Y-10.210 E3.00910 F1260
G1 X-5.375 Y-10.347 F7800.000
G1 X-5.269 Y-10.210 E3.01631 F1260
G1 X-2.078 Y-10.039 E3.14915
G1 X-0.733 Y-9.799 E3.20597
G1 X-0.607 Y-9.691 E3.21283
G1 F1800.000 E0.21283
G1 Z1.750 F7800.000
G92 E0
G1 X-5.370 Y10.083 F7800.000
G1 Z0.750 F7800.000
G1 E3.00000 F1800.000
G1 X-5.284 Y10.203 E3.00615 F1260
G1 X-4.358 Y10.188 E3.04466
G1 X-2.358 Y9.973 E3.12828
G1 X0.065 Y9.391 E3.23191
G1 X0.142 Y9.281 E3.23750
G1 X-2.112 Y9.924 F7800.000
G1 X-2.108 Y10.056 E3.24298 F1260
G1 X-5.284 Y10.203 F7800.000
G1 X-5.492 Y10.291 E3.25235 F1260
G1 F1800.000 E0.25235
G1 Z1.750 F7800.000
G92 E0
G1 X-5.470 Y-10.125 F7800.000
G1 Z0.750 F7800.000
G1 E3.00000 F1800.000
G1 X-5.283 Y-10.194 E3.00831 F1260
G1 X-5.375 Y-10.333 F7800.000
G1 X-5.283 Y-10.194 E3.01524 F1260
G1 X-2.285 Y-9.963 E3.14025
G1 X0.295 Y-9.293 E3.25109
G1 F1800.000 E0.25109
G1 Z1.950 F7800.000
G92 E0
G1 X-0.766 Y9.224 F7800.000
G1 Z0.950 F7800.000
G1 E3.00000 F1800.000
G1 X-0.748 Y9.351 E3.00536 F1260
G1 X0.656 Y8.997 E3.06558
G1 X0.724 Y8.895 E3.07067
G1 X-0.748 Y9.351 F7800.000
G1 X-2.026 Y9.899 E3.12846 F1260
G1 X-5.450 Y10.260 E3.27163
G1 X-5.294 Y10.198 F7800.000
G1 X-5.371 Y10.067 E3.27792 F1260
G1 F1800.000 E0.27792
G1 Z1.950 F7800.000
G92 E0
G1 X-0.813 Y-9.288 F7800.000
G1 Z0.950 F7800.000
G1 E3.00000 F1800.000
G1 X-0.791 Y-9.362 E3.00323 F1260
G1 X-1.955 Y-9.878 F7800.000
G1 X-0.791 Y-9.362 E3.05618 F1260
G1 X0.890 Y-8.864 E3.12905
G1 X-1.921 Y-9.982 F7800.000
G1 X-1.955 Y-9.878 E3.13360 F1260
G1 X-3.317 Y-10.087 E3.19087
G1 X-5.299 Y-10.176 E3.27337
G1 X-5.375 Y-10.317 E3.28003
G1 X-5.299 Y-10.176 F7800.000
G1 X-5.470 Y-10.125 E3.28746 F1260
G1 F1800.000 E0.28746
G1 Z2.150 F7800.000
G92 E0
G1 X-0.077 Y8.756 F7800.000
G1 Z1.150 F7800.000
G1 E3.00000 F1800.000
G1 X-0.035 Y8.965 E3.00889 F1260
G1 X1.336 Y8.499 E3.06910
G1 X-0.042 Y8.966 F7800.000
G1 X-1.945 Y9.866 E3.15665 F1260
G1 X-4.443 Y10.168 E3.26124
G1 X-5.193 Y10.187 E3.29243
G1 X-5.372 Y10.052 E3.30176
G1 X-5.320 Y10.163 F7800.000
G1 X-5.409 Y10.228 E3.30634 F1260
G1 X-1.945 Y9.866 F7800.000
G1 X-1.943 Y9.890 E3.30732 F1260
G1 F1800.000 E0.30732
G1 Z2.150 F7800.000
G92 E0
G1 X1.211 Y-8.607 F7800.000
G1 Z1.150 F7800.000
G1 E3.00000 F1800.000
G1 X-0.064 Y-8.967 E3.05507 F1260
G1 X-1.896 Y-9.852 E3.13968
G1 X-3.349 Y-10.076 E3.20080
G1 X-5.316 Y-10.158 E3.28264
G1 X-5.375 Y-10.302 E3.28912
G1 X-5.316 Y-10.158 F7800.000
G1 X-5.470 Y-10.125 E3.29568 F1260
G1 F1800.000 E0.29568
G1 Z2.150 F7800.000
G92 E0
G1 X-0.102 Y-8.852 F7800.000
G1 Z1.150 F7800.000
G1 E3.00000 F1800.000
G1 X-0.064 Y-8.967 E3.00504 F1260
G1 F1800.000 E0.00504
G1 Z2.350 F7800.000
G92 E0
G1 X0.629 Y8.271 F7800.000
G1 Z1.350 F7800.000
G1 E3.00000 F1800.000
G1 X0.686 Y8.484 E3.00916 F1260
G1 X1.879 Y8.033 E3.06216
G1 X0.686 Y8.484 F7800.000
G1 X-0.335 Y9.145 E3.11273 F1260
G1 X-1.786 Y9.814 E3.17916
G1 X-4.361 Y10.142 E3.28708
G1 X-5.332 Y10.158 E3.32746
G1 X-5.373 Y10.036 E3.33283
G1 X-5.332 Y10.158 F7800.000
G1 X-5.493 Y10.196 E3.33972 F1260
G1 X-1.861 Y9.982 F7800.000
G1 X-1.863 Y9.831 E3.34599 F1260
G1 F1800.000 E0.34599
G1 Z2.350 F7800.000
G92 E0
G1 X0.525 Y-8.245 F7800.000
G1 Z1.350 F7800.000
G1 E3.00000 F1800.000
G1 X0.627 Y-8.517 E3.01206 F1260
G1 X-0.470 Y-9.214 E3.06607
G1 X-1.793 Y-9.813 E3.12647
G1 X-1.746 Y-9.946 F7800.000
G1 X-1.793 Y-9.813 E3.13235 F1260
G1 X-3.375 Y-10.064 E3.19895
G1 X-5.336 Y-10.150 E3.28057
G1 X-5.470 Y-10.125 F7800.000
G1 X-5.336 Y-10.150 E3.28623 F1260
G1 X-5.375 Y-10.286 E3.29210
G1 F1800.000 E0.29210
G1 Z2.350 F7800.000
G92 E0
G1 X0.660 Y-8.488 F7800.000
G1 Z1.350 F7800.000
G1 E3.00000 F1800.000
G1 X1.915 Y-8.052 E3.05522 F1260
G1 F1800.000 E0.05522
G1 Z2.550 F7800.000
G92 E0
G1 X1.272 Y7.812 F7800.000
G1 Z1.550 F7800.000
G1 E3.00000 F1800.000
G1 X1.325 Y7.964 E3.00668 F1260
G1 X2.272 Y7.551 E3.04964
G1 X1.325 Y7.964 F7800.000
G1 X-0.335 Y9.145 E3.13431 F1260
G1 X-1.750 Y9.796 E3.19911
G1 X-4.528 Y10.141 E3.31547
G1 X-5.278 Y10.163 E3.34666
G1 X-5.374 Y10.020 E3.35382
G1 X-5.351 Y10.126 F7800.000
G1 X-5.452 Y10.165 E3.35829 F1260
G1 F1800.000 E0.35829
G1 Z2.550 F7800.000
G92 E0
G1 X1.233 Y-7.771 F7800.000
G1 Z1.550 F7800.000
G1 E3.00000 F1800.000
G1 X1.320 Y-7.974 E3.00920 F1260
G1 X2.443 Y-7.519 F7800.000
G1 X1.320 Y-7.974 E3.05956 F1260
G1 X-0.163 Y-9.046 E3.13562
G1 X-1.713 Y-9.786 E3.20702
G1 X-3.375 Y-10.049 E3.27700
G1 X-5.355 Y-10.146 E3.35943
G1 X-5.470 Y-10.125 F7800.000
G1 X-5.355 Y-10.146 E3.36428 F1260
G1 X-5.375 Y-10.270 E3.36948
G1 F1800.000 E0.36948
G1 Z2.750 F7800.000
G92 E0
G1 X1.802 Y7.203 F7800.000
G1 Z1.750 F7800.000
G1 E3.00000 F1800.000
G1 X1.887 Y7.452 E3.01093 F1260
G1 X2.802 Y7.013 E3.05310
G1 X1.887 Y7.452 F7800.000
G1 X0.593 Y8.555 E3.12381 F1260
G1 X-1.319 Y9.635 E3.21509
G1 X-3.423 Y10.034 E3.30414
G1 X-5.136 Y10.159 E3.37553
G1 X-1.673 Y9.841 F7800.000
G1 X-1.679 Y9.760 E3.37890 F1260
G1 F1800.000 E0.37890
G1 Z2.750 F7800.000
G92 E0
G1 X1.718 Y-7.165 F7800.000
G1 Z1.750 F7800.000
G1 E3.00000 F1800.000
G1 X1.894 Y-7.435 E3.01338 F1260
G1 X2.866 Y-7.033 F7800.000
G1 X1.894 Y-7.435 E3.05713 F1260
G1 X0.466 Y-8.637 E3.13473
G1 X-1.608 Y-9.738 E3.23235
G1 X-1.603 Y-9.758 F7800.000
G1 X-3.375 Y-10.030 E3.30689 F1260
G1 X-5.470 Y-10.125 E3.39409
G1 F1800.000 E0.39409
G1 Z2.950 F7800.000
G92 E0
G1 X2.272 Y6.586 F7800.000
G1 Z1.950 F7800.000
G1 E3.00000 F1800.000
G1 X2.376 Y6.929 E3.01493 F1260
G1 X3.272 Y6.483 E3.05654
G1 X2.376 Y6.929 F7800.000
G1 X1.454 Y7.871 E3.11135 F1260
G1 X0.593 Y8.555 E3.15705
G1 X-1.319 Y9.635 E3.24834
G1 X-3.283 Y9.985 E3.33130
G1 X-4.634 Y10.056 E3.38752
G1 X-4.783 Y10.153 E3.39492
G1 X-4.887 Y10.071 E3.40042
G1 F1800.000 E0.40042
G1 Z2.950 F7800.000
G92 E0
G1 X2.161 Y-6.598 F7800.000
G1 Z1.950 F7800.000
G1 E3.00000 F1800.000
G1 X2.388 Y-6.927 E3.01663 F1260
G1 X3.300 Y-6.453 F7800.000
G1 X2.388 Y-6.927 E3.05938 F1260
G1 X1.601 Y-7.738 E3.10638
G1 X0.466 Y-8.637 E3.16657
G1 X-1.464 Y-9.690 E3.25799
G1 X-1.419 Y-9.819 F7800.000
G1 X-1.464 Y-9.690 E3.26369 F1260
G1 X-3.375 Y-10.005 E3.34419
G1 X-5.471 Y-10.098 E3.43144
G1 F1800.000 E0.43144
G1 Z3.150 F7800.000
G92 E0
G1 X2.819 Y5.913 F7800.000
G1 Z2.150 F7800.000
G1 E3.00000 F1800.000
G1 X2.960 Y6.221 E3.01407 F1260
G1 X3.789 Y5.805 E3.05266
G1 X2.960 Y6.221 F7800.000
G1 X2.238 Y7.101 E3.09998 F1260
G1 X0.871 Y8.343 E3.17678
G1 X-1.184 Y9.572 E3.27633
G1 X-3.394 Y9.982 E3.36977
G1 X-5.130 Y10.083 E3.44206
G1 X-1.394 Y9.802 F7800.000
G1 X-1.396 Y9.652 E3.44833 F1260
G1 F1800.000 E0.44833
G1 Z3.150 F7800.000
G92 E0
G1 X2.789 Y-5.951 F7800.000
G1 Z2.150 F7800.000
G1 E3.00000 F1800.000
G1 X2.945 Y-6.223 E3.01301 F1260
G1 X3.760 Y-5.721 F7800.000
G1 X3.649 Y-5.883 E3.02116 F1260
G1 X2.945 Y-6.223 E3.05368
G1 X2.131 Y-7.208 E3.10678
G1 X0.753 Y-8.438 E3.18359
G1 X-1.138 Y-9.554 E3.27487
G1 X-3.326 Y-9.974 E3.36752
G1 X-5.473 Y-10.071 E3.45685
G1 F1800.000 E0.45685
G1 Z3.350 F7800.000
G92 E0
G1 X2.631 Y6.275 F7800.000
G1 Z2.350 F7800.000
G1 E3.00000 F1800.000
G1 X2.991 Y5.718 E3.02757 F1800
G1 X3.311 Y5.221 E3.07579 F1800
G1 X3.909 Y5.221 E3.12461
G1 X3.587 Y5.718 E3.17293
G1 X3.049 Y6.545 E3.21396 F1800
G1 X2.694 Y6.316 E3.23153
G1 X3.076 Y6.047 F7800.000
G1 X2.934 Y6.906 F7800.000
G1 X2.347 Y6.971 E3.25608 F1260
G1 X2.174 Y6.405 E3.28070
G1 X2.283 Y6.311 E3.28670
G1 X2.347 Y6.971 F7800.000
G1 X0.593 Y8.555 E3.38495 F1260
G1 X-1.167 Y9.561 E3.46925
G1 X-3.402 Y9.952 E3.56356
G1 X-4.880 Y10.012 E3.62505
G1 X-1.167 Y9.561 F7800.000
G1 X-1.155 Y9.630 E3.62794 F1260
G1 F1800.000 E0.62794
G1 Z3.350 F7800.000
G92 E0
G1 X2.632 Y-6.275 F7800.000
G1 Z2.350 F7800.000
G1 E3.00000 F1800.000
G1 X3.049 Y-6.545 E3.02069 F1800
G1 X3.587 Y-5.718 E3.06171
G1 X3.909 Y-5.221 E3.11003 F1800
G1 X3.311 Y-5.221 E3.15885
G1 X2.991 Y-5.718 E3.20707
G1 X2.672 Y-6.212 E3.23151 F1800
G1 X3.129 Y-6.300 F7800.000
G1 X2.285 Y-6.529 F7800.000
G1 X2.343 Y-6.982 E3.25048 F1260
G1 X2.942 Y-6.842 F7800.000
G1 X2.343 Y-6.982 E3.27605 F1260
G1 X0.753 Y-8.438 E3.36569
G1 X-1.220 Y-9.588 E3.46065
G1 X-1.176 Y-9.714 F7800.000
G1 X-1.220 Y-9.588 E3.46617 F1260
G1 X-3.348 Y-9.952 E3.55593
G1 X-4.279 Y-9.960 E3.59460
G1 X-4.375 Y-10.061 E3.60043
G1 X-5.078 Y-9.990 E3.62981
G1 X-5.125 Y-10.082 E3.63408
G1 X-5.328 Y-9.991 E3.64334
G1 F1800.000 E0.64334
G1 Z3.550 F7800.000
G92 E0
G1 X3.693 Y4.346 F7800.000
G1 Z2.550 F7800.000
G1 E3.00000 F1800.000
G1 X3.869 Y4.700 E3.01642 F1260
G1 X4.434 Y4.319 E3.04474
G1 X4.607 Y4.315 E3.05192
G1 X3.869 Y4.700 F7800.000
G1 X3.137 Y5.966 E3.11272 F1260
G1 X2.238 Y7.101 E3.17291
G1 X1.454 Y7.871 E3.21862
G1 X-0.036 Y8.963 E3.29542
G1 X-1.141 Y9.544 E3.34732
G1 X-3.374 Y9.935 E3.44155
G1 X-4.329 Y9.939 E3.48128
G1 X-4.475 Y9.991 F7800.000
G1 X-5.126 Y10.010 E3.50833 F1260
G1 F1800.000 E0.50833
G1 Z3.550 F7800.000
G92 E0
G1 X-1.141 Y9.544 F7800.000
G1 Z2.550 F7800.000
G1 E3.00000 F1800.000
G1 X-1.123 Y9.657 E3.00473 F1260
G1 F1800.000 E0.00473
G1 Z3.550 F7800.000
G92 E0
G1 X3.611 Y-4.362 F7800.000
G1 Z2.550 F7800.000
G1 E3.00000 F1800.000
G1 X3.875 Y-4.706 E3.01803 F1260
G1 X4.503 Y-4.323 F7800.000
G1 X3.875 Y-4.706 E3.04862 F1260
G1 X3.055 Y-6.093 E3.11563
