; generated by Slic3r 1.0.0RC2 on 2014-07-30 at 00:21:57

; removing support 
; do each object first, then proceed to next one
; 
; set resolution to 0.01 to improve rendering speed on large meshes.
; 
; removed skirt

; layer_height = 0.2
; perimeters = 6
; top_solid_layers = 4
; bottom_solid_layers = 4
; fill_density = 1
; perimeter_speed = 30
; infill_speed = 60
; travel_speed = 130
; nozzle_diameter = 0.5
; filament_diameter = 1.75
; extrusion_multiplier = 1
; perimeters extrusion width = 0.50mm
; infill extrusion width = 1.02mm
; solid infill extrusion width = 0.85mm
; top infill extrusion width = 0.10mm
; first layer extrusion width = 0.17mm

G21 ; set units to millimeters
G28
;M140 S110;
;M104 S180;
;M190 S110;
;M109 S215;
G90;
G92 E0;
G1 E5 S15;
G92 E0;
;G4 P5000;
G90 ; use absolute coordinates
G92 E0
M82 ; use absolute distances for extrusion
G1 F1800.000 E-3.00000
G1 Z1.350 F7800.000
G92 E0
G1 X0.098 Y-18.363 F7800.000
G1 Z0.350 F7800.000
G1 E3.00000 F1800.000
G1 X1.418 Y-19.313 E3.05792 F540.000
G1 X2.928 Y-19.913 E3.11579
G1 X4.538 Y-20.113 E3.17356
G1 X21.128 Y-20.113 E3.76440
G1 X22.398 Y-19.983 E3.80986
G1 X23.608 Y-19.623 E3.85482
G1 X24.738 Y-19.023 E3.90039
G1 X25.718 Y-18.213 E3.94566
G1 X26.528 Y-17.233 E3.99094
G1 X27.128 Y-16.103 E4.03651
G1 X27.488 Y-14.893 E4.08147
G1 X27.618 Y-13.623 E4.12693
G1 X27.618 Y13.607 E5.09670
G1 X27.488 Y14.877 E5.14216
G1 X27.128 Y16.087 E5.18712
G1 X26.528 Y17.217 E5.23269
G1 X25.718 Y18.197 E5.27796
G1 X24.738 Y19.007 E5.32324
G1 X23.608 Y19.607 E5.36881
G1 X22.398 Y19.967 E5.41377
G1 X21.128 Y20.097 E5.45923
G1 X4.538 Y20.097 E6.05007
G1 X3.748 Y20.047 E6.07826
G1 X-21.972 Y16.897 E7.00108
G1 X-23.272 Y16.597 E7.04860
G1 X-24.482 Y16.047 E7.09593
G1 X-25.562 Y15.247 E7.14380
G1 X-26.442 Y14.247 E7.19124
G1 X-27.112 Y13.097 E7.23864
G1 X-27.522 Y11.827 E7.28617
G1 X-27.672 Y10.497 E7.33383
G1 X-27.542 Y9.167 E7.38143
G1 X-27.142 Y7.897 E7.42885
G1 X-26.492 Y6.727 E7.47651
G1 X-25.622 Y5.717 E7.52399
G1 X0.071 Y-18.338 E8.77746
G1 X0.268 Y-18.183 F7800.000
G1 X1.538 Y-19.103 E8.83331 F540.000
G1 X2.988 Y-19.673 E8.88879
G1 X4.538 Y-19.863 E8.94441
G1 X21.128 Y-19.863 E9.53524
G1 X22.348 Y-19.743 E9.57890
G1 X23.518 Y-19.393 E9.62239
G1 X24.598 Y-18.813 E9.66605
G1 X25.548 Y-18.043 E9.70960
G1 X26.318 Y-17.093 E9.75315
G1 X26.898 Y-16.013 E9.79681
G1 X27.248 Y-14.843 E9.84030
G1 X27.368 Y-13.623 E9.88396
G1 X27.368 Y13.607 E10.85372
G1 X27.248 Y14.827 E10.89738
G1 X26.898 Y15.997 E10.94087
G1 X26.318 Y17.077 E10.98453
G1 X25.548 Y18.027 E11.02808
G1 X24.598 Y18.797 E11.07163
G1 X23.518 Y19.377 E11.11529
G1 X22.348 Y19.727 E11.15878
G1 X21.128 Y19.847 E11.20244
G1 X4.538 Y19.847 E11.79327
G1 X3.778 Y19.807 E11.82037
G1 X-21.942 Y16.657 E12.74320
G1 X-23.192 Y16.367 E12.78890
G1 X-24.362 Y15.837 E12.83465
G1 X-25.392 Y15.067 E12.88045
G1 X-26.252 Y14.107 E12.92635
G1 X-26.892 Y12.997 E12.97198
G1 X-27.282 Y11.777 E13.01759
G1 X-27.422 Y10.497 E13.06345
G1 X-27.302 Y9.217 E13.10924
G1 X-26.922 Y7.987 E13.15508
G1 X-26.292 Y6.867 E13.20085
G1 X-25.452 Y5.897 E13.24655
G1 X0.241 Y-18.158 E14.50002
G1 F1800.000 E11.50002
G1 Z1.350 F7800.000
G92 E0
G1 X5.363 Y11.710 F7800.000
G1 Z0.350 F7800.000
G1 E3.00000 F1800.000
G1 X5.966 Y11.710 E3.02148 F540.000
G1 X5.966 Y12.793 E3.06003
G1 X5.363 Y12.793 E3.08151
G1 X5.363 Y11.747 E3.11876
G1 X5.118 Y11.465 F7800.000
G1 X6.211 Y11.465 E3.15767 F540.000
G1 X6.211 Y13.037 E3.21366
G1 X5.118 Y13.037 E3.25257
G1 X5.118 Y11.502 E3.30726
G1 X4.874 Y11.221 F7800.000
G1 X6.456 Y11.221 E3.36360 F540.000
G1 X6.456 Y13.282 E3.43702
G1 X4.874 Y13.282 E3.49336
G1 X4.874 Y11.257 E3.56548
G1 X4.629 Y10.976 F7800.000
G1 X6.700 Y10.976 E3.63926 F540.000
G1 X6.700 Y13.527 E3.73011
G1 X4.629 Y13.527 E3.80389
G1 X4.629 Y11.013 E3.89343
G1 X4.841 Y11.098 F7800.000
G1 X5.741 Y11.905 F7800.000
G1 X5.771 Y11.935 E3.89527 F360.000
G1 X5.558 Y12.145 E3.90830 F360.000
G1 X5.771 Y12.358 E3.92143 F360.000
G1 X5.558 Y12.568 E3.93446 F360.000
G1 X5.588 Y12.598 E3.93630 F360.000
G1 F1800.000 E0.93630
G1 Z1.350 F7800.000
G92 E0
G1 X5.588 Y-11.905 F7800.000
G1 Z0.350 F7800.000
G1 E3.00000 F1800.000
G1 X5.558 Y-11.935 E3.00184 F360.000
G1 X5.771 Y-12.145 E3.01487 F360.000
G1 X5.558 Y-12.358 E3.02800 F360.000
G1 X5.771 Y-12.568 E3.04103 F360.000
G1 X5.741 Y-12.598 E3.04287 F360.000
G1 F1800.000 E0.04287
G1 Z1.350 F7800.000
G92 E0
G1 X20.006 Y11.710 F7800.000
G1 Z0.350 F7800.000
G1 E3.00000 F1800.000
G1 X20.311 Y11.710 E3.01086 F540.000
G1 X20.311 Y12.793 E3.04942
G1 X20.006 Y12.793 E3.06028
G1 X20.006 Y11.747 E3.09753
G1 X19.761 Y11.465 F7800.000
G1 X20.555 Y11.465 E3.12583 F540.000
G1 X20.555 Y13.037 E3.18182
G1 X19.761 Y13.037 E3.21011
G1 X19.761 Y11.502 E3.26479
G1 X19.516 Y11.221 F7800.000
G1 X20.800 Y11.221 E3.31052 F540.000
G1 X20.800 Y13.282 E3.38394
G1 X19.516 Y13.282 E3.42967
G1 X19.516 Y11.257 E3.50178
G1 X19.271 Y11.230 F7800.000
G1 X19.271 Y10.976 E3.51083 F540.000
G1 X21.045 Y10.976 E3.57399
G1 X21.045 Y13.527 E3.66485
G1 X19.271 Y13.527 E3.72801
G1 X19.271 Y11.267 E3.80851
G1 X19.483 Y11.107 F7800.000
G1 F1800.000 E0.80851
G1 Z1.350 F7800.000
G92 E0
G1 X20.006 Y-11.710 F7800.000
G1 Z0.350 F7800.000
G1 E3.00000 F1800.000
G1 X20.006 Y-12.793 E3.03856 F540.000
G1 X20.311 Y-12.793 E3.04942
G1 X20.311 Y-11.710 E3.08797
G1 X20.042 Y-11.710 E3.09753
G1 X19.761 Y-11.465 F7800.000
G1 X19.761 Y-13.037 E3.15352 F540.000
G1 X20.555 Y-13.037 E3.18182
G1 X20.555 Y-11.465 E3.23780
G1 X19.798 Y-11.465 E3.26479
G1 X19.516 Y-11.221 F7800.000
G1 X19.516 Y-13.282 E3.33821 F540.000
G1 X20.800 Y-13.282 E3.38394
G1 X20.800 Y-11.221 E3.45736
G1 X19.553 Y-11.221 E3.50178
G1 X19.271 Y-10.976 F7800.000
G1 X19.271 Y-13.527 E3.59264 F540.000
G1 X21.045 Y-13.527 E3.65580
G1 X21.045 Y-10.976 E3.74665
G1 X19.308 Y-10.976 E3.80851
G1 X19.394 Y-11.188 F7800.000
G1 F1800.000 E0.80851
G1 Z1.350 F7800.000
G92 E0
G1 X5.966 Y-11.710 F7800.000
G1 Z0.350 F7800.000
G1 E3.00000 F1800.000
G1 X5.363 Y-11.710 E3.02148 F540.000
G1 X5.363 Y-12.793 E3.06003
G1 X5.966 Y-12.793 E3.08151
G1 X5.966 Y-11.747 E3.11876
G1 X6.211 Y-11.465 F7800.000
G1 X5.118 Y-11.465 E3.15767 F540.000
G1 X5.118 Y-13.037 E3.21366
G1 X6.211 Y-13.037 E3.25257
G1 X6.211 Y-11.502 E3.30726
G1 X6.456 Y-11.221 F7800.000
G1 X4.874 Y-11.221 E3.36360 F540.000
G1 X4.874 Y-13.282 E3.43702
G1 X6.456 Y-13.282 E3.49336
G1 X6.456 Y-11.257 E3.56548
G1 X6.700 Y-10.976 F7800.000
G1 X4.629 Y-10.976 E3.63926 F540.000
G1 X4.629 Y-13.527 E3.73011
G1 X6.700 Y-13.527 E3.80389
G1 X6.700 Y-11.013 E3.89343
G1 X6.488 Y-11.098 F7800.000
G1 F1800.000 E0.89343
G1 Z1.550 F7800.000
G92 E0
G1 X5.786 Y-12.586 F7800.000
G1 X6.722 Y-15.586 F7800.000
G1 X4.538 Y-20.113 F7800.000
G1 Z0.550 F7800.000
G1 E3.00000 F1800.000
G1 X21.128 Y-20.113 E3.33762 F1800
G1 X22.398 Y-19.983 E3.36360
G1 X23.608 Y-19.623 E3.38929
G1 X24.738 Y-19.023 E3.41533
G1 X25.718 Y-18.213 E3.44120
G1 X26.528 Y-17.233 E3.46707
G1 X27.128 Y-16.103 E3.49311
G1 X27.488 Y-14.893 E3.51880
G1 X27.618 Y-13.623 E3.54478
G1 X27.618 Y13.607 E4.09893
G1 X27.488 Y14.877 E4.12491
G1 X27.128 Y16.087 E4.15060
G1 X26.528 Y17.217 E4.17664
G1 X25.718 Y18.197 E4.20251
G1 X24.738 Y19.007 E4.22839
G1 X23.608 Y19.607 E4.25443
G1 X22.398 Y19.967 E4.28012
G1 X21.128 Y20.097 E4.30610
G1 X4.538 Y20.097 E4.64371
G1 X3.748 Y20.047 E4.65982
G1 X-21.972 Y16.897 E5.18715
G1 X-23.272 Y16.597 E5.21431
G1 X-24.482 Y16.047 E5.24135
G1 X-25.562 Y15.247 E5.26871
G1 X-26.442 Y14.247 E5.29581
G1 X-27.112 Y13.097 E5.32290
G1 X-27.522 Y11.827 E5.35006
G1 X-27.672 Y10.497 E5.37730
G1 X-27.542 Y9.167 E5.40449
G1 X-27.142 Y7.897 E5.43159
G1 X-26.492 Y6.727 E5.45883
G1 X-25.622 Y5.717 E5.48596
G1 X0.098 Y-18.363 E6.20297
G1 X1.418 Y-19.313 E6.23607
G1 X2.928 Y-19.913 E6.26913
G1 X4.501 Y-20.108 E6.30140
G1 X4.538 Y-19.863 F7800.000
G1 X21.128 Y-19.863 E6.63902 F1800
G1 X22.348 Y-19.743 E6.66397
G1 X23.518 Y-19.393 E6.68882
G1 X24.598 Y-18.813 E6.71377
G1 X25.548 Y-18.043 E6.73866
G1 X26.318 Y-17.093 E6.76354
G1 X26.898 Y-16.013 E6.78849
G1 X27.248 Y-14.843 E6.81334
G1 X27.368 Y-13.623 E6.83829
G1 X27.368 Y13.607 E7.39244
G1 X27.248 Y14.827 E7.41739
G1 X26.898 Y15.997 E7.44224
G1 X26.318 Y17.077 E7.46719
G1 X25.548 Y18.027 E7.49207
G1 X24.598 Y18.797 E7.51696
G1 X23.518 Y19.377 E7.54191
G1 X22.348 Y19.727 E7.56676
G1 X21.128 Y19.847 E7.59171
G1 X4.538 Y19.847 E7.92933
G1 X3.778 Y19.807 E7.94481
G1 X-21.942 Y16.657 E8.47214
G1 X-23.192 Y16.367 E8.49826
G1 X-24.362 Y15.837 E8.52440
G1 X-25.392 Y15.067 E8.55057
G1 X-26.252 Y14.107 E8.57680
G1 X-26.892 Y12.997 E8.60287
G1 X-27.282 Y11.777 E8.62894
G1 X-27.422 Y10.497 E8.65514
G1 X-27.302 Y9.217 E8.68131
G1 X-26.922 Y7.987 E8.70750
G1 X-26.292 Y6.867 E8.73366
G1 X-25.452 Y5.897 E8.75977
G1 X0.268 Y-18.183 E9.47678
G1 X1.538 Y-19.103 E9.50870
G1 X2.988 Y-19.673 E9.54041
G1 X4.501 Y-19.858 E9.57144
G1 F1800.000 E6.57144
G1 Z1.550 F7800.000
G92 E0
G1 X5.293 Y11.215 F7800.000
G1 Z0.550 F7800.000
G1 E3.00000 F1800.000
G1 X6.036 Y11.215 E3.03088 F1800
G1 X6.036 Y12.836 E3.09826
G1 X5.293 Y12.836 E3.12914
G1 X5.293 Y11.290 E3.19340
G1 X4.793 Y13.336 F7800.000
G1 X4.793 Y10.888 E3.29515 F1800
G1 X4.793 Y10.715 E3.30931 F1800
G1 X6.536 Y10.715 E3.45157
G1 X6.536 Y10.888 E3.46574
G1 X6.536 Y13.336 E3.56748 F1800
G1 X4.868 Y13.336 E3.63682
G1 X5.043 Y12.902 F7800.000
G1 F1800.000 E0.63682
G1 Z1.550 F7800.000
G92 E0
G1 X19.439 Y13.335 F7800.000
G1 Z0.550 F7800.000
G1 E3.00000 F1800.000
G1 X19.439 Y10.888 E3.10174 F1800
G1 X19.439 Y10.715 E3.11590 F1800
G1 X20.885 Y10.715 E3.23393
G1 X20.885 Y10.888 E3.24810
G1 X20.885 Y13.335 E3.34984 F1800
G1 X19.514 Y13.335 E3.40683
G1 X19.689 Y12.902 F7800.000
G1 X19.903 Y12.285 F7800.000
G1 X20.422 Y11.766 E3.45142 F1200
G1 X19.903 Y11.251 E3.49581 F1200
G1 X19.976 Y11.178 E3.50209 F1200
G1 X19.903 Y12.285 F7800.000
G1 X20.349 Y12.872 E3.54689 F1200
G1 X20.422 Y12.799 E3.55317 F1200
G1 F1800.000 E0.55317
G1 Z1.550 F7800.000
G92 E0
G1 X5.703 Y12.468 F7800.000
G1 Z0.550 F7800.000
G1 E3.00000 F1800.000
G1 X5.668 Y12.503 E3.00136 F1200
G1 X5.626 Y12.064 E3.01386 F1200
G1 X5.703 Y11.987 E3.01693 F1200
G1 X5.626 Y11.582 E3.02861 F1200
G1 X5.660 Y11.548 E3.02997 F1200
G1 F1800.000 E0.02997
G1 Z1.550 F7800.000
G92 E0
G1 X5.668 Y-11.548 F7800.000
G1 Z0.550 F7800.000
G1 E3.00000 F1800.000
G1 X5.626 Y-11.987 E3.01249 F1200
G1 X5.703 Y-12.064 E3.01557 F1200
G1 X5.626 Y-12.468 E3.02724 F1200
G1 X5.660 Y-12.503 E3.02861 F1200
G1 X5.703 Y-11.582 F7800.000
G1 X5.668 Y-11.548 E3.02997 F1200
G1 F1800.000 E0.02997
G1 Z1.550 F7800.000
G92 E0
G1 X19.903 Y-11.766 F7800.000
G1 Z0.550 F7800.000
G1 E3.00000 F1800.000
G1 X20.422 Y-12.285 E3.04459 F1200
G1 X19.903 Y-12.799 E3.08898 F1200
G1 X19.976 Y-12.872 E3.09526 F1200
G1 X19.903 Y-11.766 F7800.000
G1 X20.349 Y-11.178 E3.14006 F1200
G1 X20.422 Y-11.251 E3.14633 F1200
G1 X20.885 Y-13.335 F7800.000
G1 X20.885 Y-10.888 E3.24808 F1800
G1 X20.885 Y-10.715 E3.26224 F1800
G1 X19.439 Y-10.715 E3.38027
G1 X19.439 Y-10.888 E3.39443
G1 X19.439 Y-13.335 E3.49617 F1800
G1 X20.810 Y-13.335 E3.55317
G1 X20.635 Y-12.902 F7800.000
G1 F1800.000 E0.55317
G1 Z1.550 F7800.000
G92 E0
G1 X6.036 Y-12.836 F7800.000
G1 Z0.550 F7800.000
G1 E3.00000 F1800.000
G1 X6.036 Y-11.215 E3.06738 F1800
G1 X5.293 Y-11.215 E3.09826
G1 X5.293 Y-12.836 E3.16564
G1 X5.961 Y-12.836 E3.19340
G1 X6.536 Y-13.336 F7800.000
G1 X6.536 Y-10.888 E3.29515 F1800
G1 X6.536 Y-10.715 E3.30931 F1800
G1 X4.793 Y-10.715 E3.45157
G1 X4.793 Y-10.888 E3.46574
G1 X4.793 Y-13.336 E3.56748 F1800
G1 X6.461 Y-13.336 E3.63682
G1 X6.286 Y-12.902 F7800.000
G1 F1800.000 E0.63682
G1 Z1.750 F7800.000
G92 E0
G1 X6.034 Y10.881 F7800.000
G1 Z0.750 F7800.000
G1 E3.00000 F1800.000
G1 X6.034 Y12.814 E3.08037 F1800
G1 X5.294 Y12.814 E3.11114
G1 X5.294 Y10.881 E3.19151
G1 X5.959 Y10.881 E3.21916
G1 X6.534 Y13.314 F7800.000
G1 X4.794 Y13.314 E3.29150 F1800
G1 X4.794 Y10.465 E3.40998
G1 X4.794 Y10.381 E3.41680 F1800
G1 X6.534 Y10.381 E3.55884
G1 X6.534 Y10.465 E3.56566
G1 X6.534 Y13.239 E3.68102 F1800
G1 X6.101 Y13.064 F7800.000
G1 F1800.000 E0.68102
G1 Z1.750 F7800.000
G92 E0
G1 X19.443 Y13.314 F7800.000
G1 Z0.750 F7800.000
G1 E3.00000 F1800.000
G1 X19.443 Y10.465 E3.11847 F1800
G1 X19.443 Y10.381 E3.12529 F1800
G1 X20.887 Y10.381 E3.24317
G1 X20.887 Y10.465 E3.24999
G1 X20.887 Y13.314 E3.36846 F1800
G1 X19.518 Y13.314 E3.42538
G1 X19.693 Y12.881 F7800.000
G1 X19.915 Y12.786 F7800.000
G1 X20.415 Y12.494 E3.45237 F1200
G1 X19.915 Y11.994 E3.48532 F1200
G1 X20.415 Y11.702 E3.51230 F1200
G1 X19.915 Y11.202 E3.54525 F1200
G1 X20.359 Y10.853 E3.57154 F1200
G1 X20.415 Y10.909 E3.57523 F1200
G1 X19.915 Y12.786 F7800.000
G1 X19.971 Y12.842 E3.57893 F1200
G1 F1800.000 E0.57893
G1 Z1.750 F7800.000
G92 E0
G1 X5.699 Y12.095 F7800.000
G1 Z0.750 F7800.000
G1 E3.00000 F1800.000
G1 X5.629 Y12.025 E3.00247 F1200
G1 X5.699 Y11.671 E3.01149 F1200
G1 X5.629 Y11.601 E3.01396 F1200
G1 X5.699 Y11.246 E3.02297 F1200
G1 X5.669 Y11.216 E3.02403 F1200
G1 X5.699 Y12.095 F7800.000
G1 X5.629 Y12.449 E3.03304 F1200
G1 X5.659 Y12.479 E3.03410 F1200
G1 F1800.000 E0.03410
G1 Z1.750 F7800.000
G92 E0
G1 X5.659 Y-11.216 F7800.000
G1 Z0.750 F7800.000
G1 E3.00000 F1800.000
G1 X5.629 Y-11.246 E3.00106 F1200
G1 X5.699 Y-11.601 E3.01007 F1200
G1 X5.629 Y-11.671 E3.01254 F1200
G1 X5.699 Y-12.025 E3.02156 F1200
G1 X5.629 Y-12.095 E3.02403 F1200
G1 X5.699 Y-12.449 E3.03304 F1200
G1 X5.669 Y-12.479 E3.03410 F1200
G1 F1800.000 E0.03410
G1 Z1.750 F7800.000
G92 E0
G1 X19.915 Y-12.494 F7800.000
G1 Z0.750 F7800.000
G1 E3.00000 F1800.000
G1 X20.359 Y-12.842 E3.02629 F1200
G1 X20.415 Y-12.786 E3.02999 F1200
G1 X19.915 Y-12.494 F7800.000
G1 X20.415 Y-11.994 E3.06293 F1200
G1 X19.915 Y-11.702 E3.08992 F1200
G1 X20.415 Y-11.202 E3.12287 F1200
G1 X19.915 Y-10.909 E3.14986 F1200
G1 X19.971 Y-10.853 E3.15355 F1200
G1 F1800.000 E0.15355
G1 Z1.750 F7800.000
G92 E0
G1 X-11.102 Y10.332 F7800.000
G1 Z0.750 F7800.000
G1 E3.00000 F1800.000
G1 X-11.023 Y10.282 E3.00390 F1260
G1 X-11.057 Y10.169 F7800.000
G1 X-10.897 Y10.316 E3.01295 F1260
G1 X-7.897 Y10.316 E3.13767
G1 X-7.057 Y10.143 E3.17331
G1 F1800.000 E0.17331
G1 Z1.750 F7800.000
G92 E0
G1 X-21.057 Y10.169 F7800.000
G1 Z0.750 F7800.000
G1 E3.00000 F1800.000
G1 X-20.897 Y10.316 E3.00905 F1260
G1 X-17.897 Y10.316 E3.13377
G1 X-17.057 Y10.143 E3.16941
G1 X-21.023 Y10.282 F7800.000
G1 X-21.102 Y10.332 E3.17331 F1260
G1 F1800.000 E0.17331
G1 Z1.750 F7800.000
G92 E0
G1 X19.443 Y-13.314 F7800.000
G1 Z0.750 F7800.000
G1 E3.00000 F1800.000
G1 X20.887 Y-13.314 E3.06004 F1800
G1 X20.887 Y-10.465 E3.17851
G1 X20.887 Y-10.381 E3.18533 F1800
G1 X19.443 Y-10.381 E3.30321
G1 X19.443 Y-10.465 E3.31003
G1 X19.443 Y-13.239 E3.42538 F1800
G1 X19.876 Y-13.064 F7800.000
G1 F1800.000 E0.42538
G1 Z1.750 F7800.000
G92 E0
G1 X6.034 Y-12.814 F7800.000
G1 Z0.750 F7800.000
G1 E3.00000 F1800.000
G1 X6.034 Y-10.881 E3.08037 F1800
G1 X5.294 Y-10.881 E3.11114
G1 X5.294 Y-12.814 E3.19151
G1 X5.959 Y-12.814 E3.21916
G1 X6.534 Y-13.314 F7800.000
G1 X6.534 Y-10.465 E3.33763 F1800
G1 X6.534 Y-10.381 E3.34445 F1800
G1 X4.794 Y-10.381 E3.48650
G1 X4.794 Y-10.465 E3.49332
G1 X4.794 Y-13.314 E3.61179 F1800
G1 X6.459 Y-13.314 E3.68102
G1 X6.284 Y-12.881 F7800.000
G1 F1800.000 E0.68102
G1 Z1.750 F7800.000
G92 E0
G1 X-7.298 Y-10.153 F7800.000
G1 Z0.750 F7800.000
G1 E3.00000 F1800.000
G1 X-7.702 Y-10.301 E3.01791 F1260
G1 X-11.019 Y-10.292 E3.15580
G1 X-11.057 Y-10.419 E3.16135
G1 X-11.019 Y-10.292 F7800.000
G1 X-11.178 Y-10.256 E3.16812 F1260
G1 F1800.000 E0.16812
G1 Z1.750 F7800.000
G92 E0
G1 X-17.298 Y-10.153 F7800.000
G1 Z0.750 F7800.000
G1 E3.00000 F1800.000
G1 X-17.702 Y-10.301 E3.01791 F1260
G1 X-21.019 Y-10.292 E3.15580
G1 X-21.057 Y-10.419 E3.16135
G1 X-21.019 Y-10.292 F7800.000
G1 X-21.178 Y-10.256 E3.16812 F1260
G1 F1800.000 E0.16812
G1 Z1.950 F7800.000
G92 E0
G1 X5.295 Y10.489 F7800.000
G1 Z0.950 F7800.000
G1 E3.00000 F1800.000
G1 X6.032 Y10.489 E3.03065 F1800
G1 X6.032 Y12.793 E3.12647
G1 X5.295 Y12.793 E3.15712
G1 X5.295 Y10.564 E3.24982
G1 X4.795 Y13.293 F7800.000
G1 X4.795 Y10.131 E3.38129 F1800
G1 X4.795 Y9.989 E3.39292 F1800
