; generated by Slic3r 1.0.0RC2 on 2014-07-30 at 00:47:38

; removing support 
; do each object first, then proceed to next one
; 
; set resolution to 0.01 to improve rendering speed on large meshes.
; 
; removed skirt

; layer_height = 0.2
; perimeters = 6
; top_solid_layers = 4
; bottom_solid_layers = 4
; fill_density = 1
; perimeter_speed = 30
; infill_speed = 60
; travel_speed = 130
; nozzle_diameter = 0.5
; filament_diameter = 1.75
; extrusion_multiplier = 1
; perimeters extrusion width = 0.50mm
; infill extrusion width = 1.02mm
; solid infill extrusion width = 0.85mm
; top infill extrusion width = 0.10mm
; support material extrusion width = 0.50mm
; first layer extrusion width = 0.17mm

G21 ; set units to millimeters
G28
;M140 S110;
;M104 S180;
;M190 S110;
;M109 S215;
G90;
G92 E0;
G1 E5 S15;
G92 E0;
;G4 P5000;
G90 ; use absolute coordinates
G92 E0
M82 ; use absolute distances for extrusion
G1 F1800.000 E-3.00000
G1 Z1.350 F7800.000
G92 E0
G1 X18.790 Y10.312 F7800.000
G1 Z0.350 F7800.000
G1 E3.00000 F1800.000
G1 X18.480 Y11.092 E3.02989 F540.000
G1 X18.060 Y11.832 E3.06020
G1 X15.830 Y15.262 E3.20590
G1 X14.840 Y16.442 E3.26075
G1 X13.590 Y17.362 E3.31603
G1 X-9.430 Y30.352 E4.25738
G1 X-10.970 Y30.982 E4.31663
G1 X-12.620 Y31.192 E4.37587
G1 X-17.830 Y31.192 E4.56142
G1 X-19.100 Y31.062 E4.60688
G1 X-20.310 Y30.702 E4.65184
G1 X-21.430 Y30.102 E4.69709
G1 X-22.420 Y29.292 E4.74265
G1 X-23.220 Y28.312 E4.78770
G1 X-23.820 Y27.192 E4.83295
G1 X-24.190 Y25.972 E4.87835
G1 X-30.340 Y-4.868 E5.99831
G1 X-30.460 Y-5.658 E6.02676
G1 X-30.500 Y-6.398 E6.05316
G1 X-30.500 Y-21.088 E6.57632
G1 X-30.460 Y-21.968 E6.60769
G1 X-30.390 Y-22.548 E6.62850
G1 X-30.280 Y-23.118 E6.64917
G1 X-28.800 Y-29.038 E6.86649
G1 X-28.300 Y-30.378 E6.91743
G1 X-27.530 Y-31.568 E6.96791
G1 X-26.520 Y-32.568 E7.01853
G1 X-25.310 Y-33.318 E7.06923
G1 X-23.970 Y-33.788 E7.11980
G1 X-22.560 Y-33.958 E7.17038
G1 X-1.070 Y-34.158 E7.93575
G1 X8.110 Y-34.158 E8.26268
G1 X20.110 Y-33.958 E8.69011
G1 X21.570 Y-33.768 E8.74254
G1 X22.950 Y-33.248 E8.79506
G1 X24.180 Y-32.428 E8.84771
G1 X25.200 Y-31.358 E8.90036
G1 X26.740 Y-29.298 E8.99195
G1 X27.250 Y-28.538 E9.02455
G1 X27.630 Y-27.868 E9.05198
G1 X28.110 Y-26.858 E9.09181
G1 X28.300 Y-26.368 E9.11052
G1 X28.510 Y-25.738 E9.13417
G1 X28.650 Y-25.228 E9.15301
G1 X28.800 Y-24.518 E9.17885
G1 X28.880 Y-24.008 E9.19724
G1 X28.950 Y-23.368 E9.22017
G1 X28.980 Y-22.848 E9.23872
G1 X28.980 Y-22.108 E9.26507
G1 X28.950 Y-21.578 E9.28398
G1 X28.880 Y-20.938 E9.30690
G1 X28.800 Y-20.428 E9.32529
G1 X28.650 Y-19.718 E9.35113
G1 X28.410 Y-18.898 E9.38156
G1 X18.801 Y10.277 E10.47549
G1 X18.560 Y10.232 F7800.000
G1 X18.260 Y10.992 E10.50459 F540.000
G1 X17.860 Y11.692 E10.53331
G1 X15.630 Y15.122 E10.67901
G1 X14.670 Y16.272 E10.73236
G1 X13.470 Y17.152 E10.78535
G1 X-9.550 Y30.142 E11.72670
G1 X-11.030 Y30.742 E11.78358
G1 X-12.620 Y30.942 E11.84065
G1 X-17.830 Y30.942 E12.02620
G1 X-19.050 Y30.822 E12.06986
G1 X-20.220 Y30.472 E12.11335
G1 X-21.300 Y29.892 E12.15701
G1 X-22.240 Y29.122 E12.20028
G1 X-23.020 Y28.172 E12.24406
G1 X-23.600 Y27.092 E12.28771
G1 X-23.950 Y25.922 E12.33121
G1 X-30.100 Y-4.918 E13.45116
G1 X-30.210 Y-5.678 E13.47851
G1 X-30.250 Y-6.398 E13.50419
G1 X-30.250 Y-21.088 E14.02735
G1 X-30.210 Y-21.958 E14.05837
G1 X-30.150 Y-22.508 E14.07807
G1 X-30.040 Y-23.058 E14.09805
G1 X-28.560 Y-28.978 E14.31537
G1 X-28.080 Y-30.268 E14.36439
G1 X-27.340 Y-31.418 E14.41309
G1 X-26.370 Y-32.368 E14.46145
G1 X-25.210 Y-33.098 E14.51026
G1 X-23.920 Y-33.548 E14.55891
G1 X-22.560 Y-33.708 E14.60768
G1 X-1.070 Y-33.908 E15.37305
G1 X8.100 Y-33.908 E15.69963
G1 X20.100 Y-33.708 E16.12706
G1 X21.510 Y-33.528 E16.17768
G1 X22.840 Y-33.028 E16.22828
G1 X24.030 Y-32.238 E16.27915
G1 X25.000 Y-31.208 E16.32954
G1 X26.540 Y-29.148 E16.42114
G1 X27.040 Y-28.408 E16.45294
G1 X27.420 Y-27.758 E16.47976
G1 X27.650 Y-27.298 E16.49807
G1 X27.880 Y-26.768 E16.51865
G1 X28.070 Y-26.278 E16.53737
G1 X28.270 Y-25.668 E16.56023
G1 X28.410 Y-25.158 E16.57906
G1 X28.560 Y-24.478 E16.60386
G1 X28.640 Y-23.968 E16.62225
G1 X28.730 Y-22.838 E16.66262
G1 X28.730 Y-22.128 E16.68790
G1 X28.640 Y-20.978 E16.72899
G1 X28.560 Y-20.468 E16.74737
G1 X28.410 Y-19.788 E16.77217
G1 X28.180 Y-18.978 E16.80216
G1 X18.571 Y10.197 E17.89609
G1 F1800.000 E14.89609
G1 Z1.350 F7800.000
G92 E0
G1 X-6.732 Y-1.025 F7800.000
G1 Z0.350 F7800.000
G1 E3.00000 F1800.000
G1 X-7.038 Y-1.025 E3.01092 F540.000
G1 X-7.038 Y-1.873 E3.04109
G1 X-6.732 Y-1.873 E3.05201
G1 X-6.732 Y-1.062 E3.08088
G1 X-6.487 Y-0.780 F7800.000
G1 X-7.283 Y-0.780 E3.10923 F540.000
G1 X-7.283 Y-2.117 E3.15684
G1 X-6.487 Y-2.117 E3.18519
G1 X-6.487 Y-0.817 E3.23149
G1 X-6.242 Y-0.536 F7800.000
G1 X-7.528 Y-0.536 E3.27728 F540.000
G1 X-7.528 Y-2.362 E3.34232
G1 X-6.242 Y-2.362 E3.38810
G1 X-6.242 Y-0.572 E3.45184
G1 X-5.997 Y-0.291 F7800.000
G1 X-7.772 Y-0.291 E3.51505 F540.000
G1 X-7.772 Y-2.607 E3.59753
G1 X-5.997 Y-2.607 E3.66074
G1 X-5.997 Y-0.328 E3.74191
G1 X-6.209 Y-0.413 F7800.000
G1 F1800.000 E0.74191
G1 Z1.350 F7800.000
G92 E0
G1 X-21.073 Y-1.025 F7800.000
G1 Z0.350 F7800.000
G1 E3.00000 F1800.000
G1 X-21.678 Y-1.025 E3.02156 F540.000
G1 X-21.678 Y-1.873 E3.05174
G1 X-21.073 Y-1.873 E3.07330
G1 X-21.073 Y-1.062 E3.10216
G1 X-20.828 Y-0.780 F7800.000
G1 X-21.923 Y-0.780 E3.14116 F540.000
G1 X-21.923 Y-2.117 E3.18876
G1 X-20.828 Y-2.117 E3.22776
G1 X-20.828 Y-0.817 E3.27406
G1 X-20.583 Y-0.536 F7800.000
G1 X-22.168 Y-0.536 E3.33048 F540.000
G1 X-22.168 Y-2.362 E3.39552
G1 X-20.583 Y-2.362 E3.45195
G1 X-20.583 Y-0.572 E3.51568
G1 X-20.339 Y-0.291 F7800.000
G1 X-22.412 Y-0.291 E3.58954 F540.000
G1 X-22.412 Y-2.607 E3.67201
G1 X-20.339 Y-2.607 E3.74587
G1 X-20.339 Y-0.328 E3.82704
G1 X-20.551 Y-0.413 F7800.000
G1 X-21.447 Y-1.213 F7800.000
G1 X-21.490 Y-1.257 E3.83090 F360.000
G1 X-21.261 Y-1.641 E3.85912 F360.000
G1 X-21.304 Y-1.684 E3.86299 F360.000
G1 F1800.000 E0.86299
G1 Z1.350 F7800.000
G92 E0
G1 X-21.447 Y-25.986 F7800.000
G1 Z0.350 F7800.000
G1 E3.00000 F1800.000
G1 X-21.490 Y-26.029 E3.00387 F360.000
G1 X-21.261 Y-26.413 E3.03209 F360.000
G1 X-21.304 Y-26.457 E3.03596 F360.000
G1 F1800.000 E0.03596
G1 Z1.350 F7800.000
G92 E0
G1 X13.833 Y-22.853 F7800.000
G1 Z0.350 F7800.000
G1 E3.00000 F1800.000
G1 X13.894 Y-23.235 E3.01375 F540.000
G1 X13.993 Y-23.607 E3.02749
G1 X14.132 Y-23.967 E3.04123
G1 X14.307 Y-24.311 E3.05498
G1 X14.517 Y-24.635 E3.06872
G1 X14.760 Y-24.935 E3.08247
G1 X15.033 Y-25.208 E3.09621
G1 X15.333 Y-25.451 E3.10995
G1 X16.311 Y-26.086 E3.15150
G1 X16.311 Y-26.157 E3.15402
G1 X18.689 Y-26.157 E3.23869
G1 X18.689 Y-26.086 E3.24121
G1 X19.667 Y-25.451 E3.28275
G1 X19.967 Y-25.208 E3.29650
G1 X20.240 Y-24.935 E3.31024
G1 X20.483 Y-24.635 E3.32398
G1 X20.693 Y-24.311 E3.33773
G1 X20.868 Y-23.968 E3.35147
G1 X21.007 Y-23.607 E3.36522
G1 X21.106 Y-23.235 E3.37896
G1 X21.167 Y-22.853 E3.39270
G1 X21.187 Y-22.468 E3.40645
G1 X21.167 Y-22.083 E3.42019
G1 X21.106 Y-21.701 E3.43394
G1 X21.007 Y-21.329 E3.44768
G1 X20.868 Y-20.968 E3.46142
G1 X20.693 Y-20.624 E3.47517
G1 X20.483 Y-20.301 E3.48891
G1 X20.240 Y-20.001 E3.50266
G1 X19.967 Y-19.728 E3.51640
G1 X19.667 Y-19.485 E3.53015
G1 X18.689 Y-18.850 E3.57169
G1 X18.689 Y-18.779 E3.57421
G1 X16.311 Y-18.779 E3.65888
G1 X16.311 Y-18.850 E3.66140
G1 X15.333 Y-19.485 E3.70294
G1 X15.033 Y-19.728 E3.71669
G1 X14.760 Y-20.001 E3.73043
G1 X14.517 Y-20.301 E3.74417
G1 X14.307 Y-20.624 E3.75792
G1 X14.132 Y-20.968 E3.77166
G1 X13.993 Y-21.329 E3.78540
G1 X13.894 Y-21.701 E3.79915
G1 X13.833 Y-22.083 E3.81290
G1 X13.813 Y-22.468 E3.82664
G1 X13.831 Y-22.817 E3.83907
G1 X13.589 Y-22.879 F7800.000
G1 X13.654 Y-23.285 E3.85373 F540.000
G1 X13.760 Y-23.683 E3.86839
G1 X13.908 Y-24.067 E3.88305
G1 X14.095 Y-24.434 E3.89771
G1 X14.319 Y-24.779 E3.91236
G1 X14.578 Y-25.099 E3.92702
G1 X14.869 Y-25.390 E3.94168
G1 X15.189 Y-25.649 E3.95634
G1 X16.066 Y-26.219 E3.99361
G1 X16.066 Y-26.401 E4.00010
G1 X18.934 Y-26.401 E4.10221
G1 X18.934 Y-26.219 E4.10871
G1 X19.811 Y-25.649 E4.14598
G1 X20.131 Y-25.390 E4.16064
G1 X20.422 Y-25.099 E4.17529
G1 X20.681 Y-24.779 E4.18995
G1 X20.905 Y-24.434 E4.20461
G1 X21.092 Y-24.067 E4.21927
G1 X21.240 Y-23.683 E4.23393
G1 X21.346 Y-23.285 E4.24858
G1 X21.411 Y-22.879 E4.26324
G1 X21.432 Y-22.468 E4.27790
G1 X21.411 Y-22.057 E4.29256
G1 X21.346 Y-21.650 E4.30722
G1 X21.240 Y-21.253 E4.32187
G1 X21.092 Y-20.869 E4.33653
G1 X20.905 Y-20.502 E4.35119
G1 X20.681 Y-20.157 E4.36585
G1 X20.422 Y-19.837 E4.38050
G1 X20.131 Y-19.546 E4.39516
G1 X19.811 Y-19.287 E4.40982
G1 X18.934 Y-18.717 E4.44709
G1 X18.934 Y-18.534 E4.45359
G1 X16.066 Y-18.534 E4.55569
G1 X16.066 Y-18.717 E4.56219
G1 X15.189 Y-19.287 E4.59946
G1 X14.869 Y-19.546 E4.61412
G1 X14.578 Y-19.837 E4.62878
G1 X14.319 Y-20.157 E4.64344
G1 X14.095 Y-20.502 E4.65809
G1 X13.908 Y-20.869 E4.67275
G1 X13.760 Y-21.253 E4.68741
G1 X13.654 Y-21.650 E4.70206
G1 X13.589 Y-22.057 E4.71673
G1 X13.568 Y-22.468 E4.73138
G1 X13.588 Y-22.842 E4.74473
G1 X13.346 Y-22.904 F7800.000
G1 X13.414 Y-23.336 E4.76031 F540.000
G1 X13.527 Y-23.759 E4.77588
G1 X13.684 Y-24.167 E4.79145
G1 X13.883 Y-24.556 E4.80702
G1 X14.121 Y-24.923 E4.82259
G1 X14.396 Y-25.263 E4.83816
G1 X14.705 Y-25.572 E4.85373
G1 X15.045 Y-25.847 E4.86930
G1 X15.822 Y-26.352 E4.90230
G1 X15.822 Y-26.646 E4.91278
G1 X19.178 Y-26.646 E5.03232
G1 X19.178 Y-26.352 E5.04280
G1 X19.955 Y-25.847 E5.07579
G1 X20.295 Y-25.572 E5.09137
G1 X20.604 Y-25.263 E5.10694
G1 X20.879 Y-24.923 E5.12251
G1 X21.118 Y-24.556 E5.13808
G1 X21.316 Y-24.167 E5.15365
G1 X21.473 Y-23.759 E5.16922
G1 X21.586 Y-23.336 E5.18479
G1 X21.654 Y-22.905 E5.20037
G1 X21.677 Y-22.468 E5.21594
G1 X21.654 Y-22.031 E5.23151
G1 X21.586 Y-21.599 E5.24708
G1 X21.473 Y-21.177 E5.26265
G1 X21.316 Y-20.769 E5.27822
G1 X21.118 Y-20.379 E5.29379
G1 X20.879 Y-20.013 E5.30936
G1 X20.604 Y-19.673 E5.32494
G1 X20.295 Y-19.364 E5.34051
G1 X19.955 Y-19.089 E5.35608
G1 X19.178 Y-18.584 E5.38907
G1 X19.178 Y-18.290 E5.39956
G1 X15.822 Y-18.290 E5.51909
G1 X15.822 Y-18.584 E5.52958
G1 X15.045 Y-19.089 E5.56257
G1 X14.705 Y-19.364 E5.57814
G1 X14.396 Y-19.673 E5.59371
G1 X14.121 Y-20.013 E5.60928
G1 X13.883 Y-20.379 E5.62486
G1 X13.684 Y-20.769 E5.64043
G1 X13.527 Y-21.177 E5.65600
G1 X13.414 Y-21.599 E5.67157
G1 X13.346 Y-22.031 E5.68714
G1 X13.323 Y-22.468 E5.70271
G1 X13.344 Y-22.868 E5.71697
G1 X13.102 Y-22.930 F7800.000
G1 X13.174 Y-23.387 E5.73346 F540.000
G1 X13.294 Y-23.834 E5.74995
G1 X13.460 Y-24.267 E5.76643
G1 X13.670 Y-24.679 E5.78292
G1 X13.922 Y-25.067 E5.79940
G1 X14.214 Y-25.427 E5.81589
G1 X14.541 Y-25.754 E5.83237
G1 X14.901 Y-26.046 E5.84886
G1 X15.577 Y-26.485 E5.87757
G1 X15.577 Y-26.891 E5.89204
G1 X19.423 Y-26.891 E6.02901
G1 X19.423 Y-26.485 E6.04348
G1 X20.099 Y-26.046 E6.07220
G1 X20.459 Y-25.754 E6.08868
G1 X20.786 Y-25.427 E6.10516
G1 X21.078 Y-25.067 E6.12165
G1 X21.330 Y-24.679 E6.13814
G1 X21.540 Y-24.267 E6.15462
G1 X21.706 Y-23.834 E6.17110
G1 X21.826 Y-23.387 E6.18759
G1 X21.898 Y-22.930 E6.20408
G1 X21.922 Y-22.468 E6.22056
G1 X21.898 Y-22.006 E6.23704
G1 X21.826 Y-21.548 E6.25353
G1 X21.706 Y-21.101 E6.27002
G1 X21.540 Y-20.669 E6.28650
G1 X21.330 Y-20.257 E6.30298
G1 X21.078 Y-19.869 E6.31947
G1 X20.786 Y-19.509 E6.33596
G1 X20.459 Y-19.182 E6.35244
G1 X20.099 Y-18.890 E6.36892
G1 X19.423 Y-18.451 E6.39764
G1 X19.423 Y-18.045 E6.41211
G1 X15.577 Y-18.045 E6.54908
G1 X15.577 Y-18.451 E6.56355
G1 X14.901 Y-18.890 E6.59226
G1 X14.541 Y-19.182 E6.60875
G1 X14.214 Y-19.509 E6.62523
G1 X13.922 Y-19.869 E6.64172
G1 X13.670 Y-20.257 E6.65820
G1 X13.460 Y-20.669 E6.67469
G1 X13.294 Y-21.101 E6.69117
G1 X13.174 Y-21.548 E6.70766
G1 X13.102 Y-22.006 E6.72415
G1 X13.078 Y-22.468 E6.74063
G1 X13.100 Y-22.893 E6.75580
G1 X12.858 Y-22.956 F7800.000
G1 X12.935 Y-23.438 E6.77321 F540.000
G1 X13.061 Y-23.910 E6.79060
G1 X13.236 Y-24.366 E6.80800
G1 X13.458 Y-24.802 E6.82540
G1 X13.724 Y-25.211 E6.84280
G1 X14.032 Y-25.591 E6.86020
G1 X14.377 Y-25.936 E6.87759
G1 X14.757 Y-26.244 E6.89500
G1 X15.332 Y-26.618 E6.91944
G1 X15.332 Y-27.136 E6.93789
G1 X19.668 Y-27.136 E7.09229
G1 X19.668 Y-26.618 E7.11074
G1 X20.243 Y-26.244 E7.13518
G1 X20.623 Y-25.936 E7.15258
G1 X20.968 Y-25.591 E7.16998
G1 X21.276 Y-25.211 E7.18738
G1 X21.542 Y-24.802 E7.20478
G1 X21.764 Y-24.366 E7.22217
G1 X21.939 Y-23.910 E7.23957
G1 X22.065 Y-23.438 E7.25697
G1 X22.142 Y-22.956 E7.27437
G1 X22.167 Y-22.468 E7.29177
G1 X22.142 Y-21.980 E7.30917
G1 X22.065 Y-21.497 E7.32657
G1 X21.939 Y-21.026 E7.34397
G1 X21.764 Y-20.570 E7.36136
G1 X21.542 Y-20.134 E7.37876
G1 X21.276 Y-19.725 E7.39616
G1 X20.968 Y-19.345 E7.41356
G1 X20.623 Y-18.999 E7.43096
G1 X20.243 Y-18.692 E7.44836
G1 X19.668 Y-18.318 E7.47280
G1 X19.668 Y-17.800 E7.49125
G1 X15.332 Y-17.800 E7.64565
G1 X15.332 Y-18.318 E7.66410
G1 X14.757 Y-18.692 E7.68854
G1 X14.377 Y-18.999 E7.70595
G1 X14.032 Y-19.345 E7.72334
G1 X13.724 Y-19.725 E7.74074
G1 X13.458 Y-20.134 E7.75814
G1 X13.236 Y-20.570 E7.77554
G1 X13.061 Y-21.026 E7.79294
G1 X12.935 Y-21.497 E7.81033
G1 X12.858 Y-21.980 E7.82774
G1 X12.833 Y-22.468 E7.84513
G1 X12.856 Y-22.919 E7.86122
G1 X12.615 Y-22.981 F7800.000
G1 X12.695 Y-23.489 E7.87954 F540.000
G1 X12.828 Y-23.986 E7.89785
G1 X13.012 Y-24.466 E7.91616
G1 X13.246 Y-24.924 E7.93447
G1 X13.526 Y-25.355 E7.95278
G1 X13.849 Y-25.755 E7.97110
G1 X14.213 Y-26.118 E7.98941
G1 X14.613 Y-26.442 E8.00772
G1 X15.087 Y-26.750 E8.02789
G1 X15.087 Y-27.380 E8.05032
G1 X19.913 Y-27.380 E8.22216
G1 X19.913 Y-26.750 E8.24459
G1 X20.387 Y-26.442 E8.26476
G1 X20.787 Y-26.118 E8.28307
G1 X21.151 Y-25.755 E8.30138
G1 X21.474 Y-25.355 E8.31969
G1 X21.754 Y-24.924 E8.33800
G1 X21.988 Y-24.466 E8.35632
G1 X22.172 Y-23.986 E8.37463
G1 X22.305 Y-23.489 E8.39294
G1 X22.385 Y-22.981 E8.41125
G1 X22.412 Y-22.468 E8.42957
G1 X22.385 Y-21.954 E8.44788
G1 X22.305 Y-21.447 E8.46619
G1 X22.172 Y-20.950 E8.48450
G1 X21.988 Y-20.470 E8.50281
G1 X21.754 Y-20.012 E8.52113
G1 X21.474 Y-19.581 E8.53944
G1 X21.151 Y-19.181 E8.55775
G1 X20.787 Y-18.817 E8.57606
G1 X20.387 Y-18.494 E8.59438
G1 X19.913 Y-18.185 E8.61454
G1 X19.913 Y-17.555 E8.63698
G1 X15.087 Y-17.555 E8.80881
G1 X15.087 Y-18.185 E8.83124
G1 X14.613 Y-18.494 E8.85141
G1 X14.213 Y-18.817 E8.86973
G1 X13.849 Y-19.181 E8.88803
G1 X13.526 Y-19.580 E8.90635
G1 X13.246 Y-20.012 E8.92466
G1 X13.012 Y-20.470 E8.94297
G1 X12.828 Y-20.950 E8.96128
G1 X12.695 Y-21.447 E8.97959
G1 X12.615 Y-21.954 E8.99791
G1 X12.588 Y-22.468 E9.01622
G1 X12.613 Y-22.945 E9.03322
G1 X12.840 Y-23.077 F7800.000
G1 X14.253 Y-21.113 F7800.000
G1 X16.334 Y-19.031 E9.14045 F1080.000
G1 X16.776 Y-18.944 E9.15684
G1 X14.081 Y-21.639 E9.29565
G1 X14.002 Y-22.072 E9.31169
G1 X17.130 Y-18.944 E9.47282
G1 X17.484 Y-18.944 E9.48571
G1 X13.979 Y-22.449 E9.66624
G1 X13.995 Y-22.787 E9.67858
G1 X17.838 Y-18.944 E9.87654
G1 X18.192 Y-18.944 E9.88944
G1 X14.039 Y-23.097 E10.10337
G1 X14.105 Y-23.385 E10.11414
G1 X18.540 Y-18.950 E10.34261
G1 X18.755 Y-19.089 E10.35193
G1 X14.189 Y-23.655 E10.58715
G1 X14.288 Y-23.910 E10.59711
G1 X18.969 Y-19.229 E10.83828
G1 X19.184 Y-19.368 E10.84760
G1 X14.407 Y-24.145 E11.09367
G1 X14.539 Y-24.366 E11.10307
G1 X19.399 Y-19.507 E11.35338
G1 X19.609 Y-19.650 E11.36267
G1 X14.683 Y-24.577 E11.61646
G1 X14.845 Y-24.769 E11.62561
G1 X19.801 Y-19.813 E11.88092
G1 X19.978 Y-19.990 E11.89004
G1 X15.022 Y-24.946 E12.14534
G1 X15.199 Y-25.123 E12.15446
G1 X20.155 Y-20.167 E12.40977
G1 X20.317 Y-20.359 E12.41892
G1 X15.391 Y-25.285 E12.67271
G1 X15.601 Y-25.429 E12.68199
G1 X20.461 Y-20.569 E12.93231
G1 X20.593 Y-20.791 E12.94171
G1 X15.816 Y-25.568 E13.18778
G1 X16.031 Y-25.707 E13.19710
G1 X20.712 Y-21.026 E13.43827
G1 X20.811 Y-21.281 E13.44823
G1 X16.245 Y-25.847 E13.68344
G1 X16.460 Y-25.986 E13.69277
G1 X20.895 Y-21.551 E13.92124
G1 X20.961 Y-21.839 E13.93201
G1 X16.808 Y-25.992 E14.14594
G1 X17.162 Y-25.992 E14.15884
G1 X21.005 Y-22.149 E14.35680
G1 X21.021 Y-22.487 E14.36913
G1 X17.516 Y-25.992 E14.54966
G1 X17.870 Y-25.992 E14.56256
