; generated by Slic3r 1.0.0RC2 on 2014-07-29 at 23:55:41

; removing support 
; do each object first, then proceed to next one
; 
; set resolution to 0.01 to improve rendering speed on large meshes.
; 
; removed skirt

; layer_height = 0.2
; perimeters = 6
; top_solid_layers = 4
; bottom_solid_layers = 4
; fill_density = 1
; perimeter_speed = 30
; infill_speed = 60
; travel_speed = 130
; nozzle_diameter = 0.5
; filament_diameter = 1.75
; extrusion_multiplier = 1
; perimeters extrusion width = 0.50mm
; infill extrusion width = 1.02mm
; solid infill extrusion width = 0.85mm
; top infill extrusion width = 0.10mm
; first layer extrusion width = 0.17mm

G21 ; set units to millimeters
G28
;M140 S110;
;M104 S180;
;M190 S110;
;M109 S215;
G90;
G92 E0;
G1 E5 S15;
G92 E0;
;G4 P5000;
G90 ; use absolute coordinates
G92 E0
M82 ; use absolute distances for extrusion
G1 F1800.000 E-3.00000
G92 E0
G1 Z0.350 F7800.000
G1 X-16.592 Y-9.456 F7800.000
G1 E3.00000 F1800.000
G1 X-16.992 Y-10.426 E3.03737 F540.000
G1 X-17.202 Y-11.056 E3.06102
G1 X-17.342 Y-11.566 E3.07985
G1 X-17.492 Y-12.276 E3.10570
G1 X-17.572 Y-12.786 E3.12408
G1 X-17.642 Y-13.546 E3.15126
G1 X-17.662 Y-14.556 E3.18724
G1 X-17.642 Y-15.086 E3.20613
G1 X-17.572 Y-15.856 E3.23366
G1 X-17.492 Y-16.366 E3.25205
G1 X-17.342 Y-17.076 E3.27789
G1 X-17.202 Y-17.586 E3.29673
G1 X-16.992 Y-18.216 E3.32038
G1 X-16.802 Y-18.706 E3.33909
G1 X-16.552 Y-19.256 E3.36061
G1 X-16.322 Y-19.716 E3.37893
G1 X-15.942 Y-20.386 E3.40636
G1 X-15.422 Y-21.156 E3.43945
G1 X-13.872 Y-23.216 E3.53126
G1 X-12.832 Y-24.306 E3.58491
G1 X-11.582 Y-25.126 E3.63816
G1 X-10.172 Y-25.636 E3.69155
G1 X-8.682 Y-25.806 E3.74496
G1 X-3.682 Y-25.806 E3.92303
G1 X-2.302 Y-25.656 E3.97247
G1 X-0.982 Y-25.216 E4.02202
G1 X23.828 Y-13.856 E4.99382
G1 X25.098 Y-13.096 E5.04652
G1 X26.158 Y-12.056 E5.09941
G1 X26.948 Y-10.816 E5.15177
G1 X27.448 Y-9.426 E5.20438
G1 X27.618 Y-7.956 E5.25708
G1 X27.618 Y19.314 E6.22827
G1 X27.488 Y20.584 E6.27373
G1 X27.128 Y21.794 E6.31869
G1 X26.528 Y22.924 E6.36426
G1 X25.718 Y23.904 E6.40954
G1 X24.738 Y24.714 E6.45482
G1 X23.608 Y25.314 E6.50038
G1 X22.398 Y25.674 E6.54534
G1 X21.128 Y25.804 E6.59081
G1 X4.538 Y25.804 E7.18164
G1 X3.098 Y25.644 E7.23324
G1 X1.728 Y25.164 E7.28494
G1 X0.498 Y24.394 E7.33662
G1 X-0.532 Y23.364 E7.38849
G1 X-1.302 Y22.144 E7.43987
G1 X-16.577 Y-9.423 E8.68877
G1 X-16.372 Y-9.566 F7800.000
G1 X-16.762 Y-10.516 E8.72535 F540.000
G1 X-16.962 Y-11.126 E8.74821
G1 X-17.102 Y-11.636 E8.76704
G1 X-17.252 Y-12.316 E8.79184
G1 X-17.332 Y-12.826 E8.81023
G1 X-17.402 Y-13.556 E8.83635
G1 X-17.422 Y-14.556 E8.87197
G1 X-17.402 Y-15.086 E8.89085
G1 X-17.332 Y-15.816 E8.91697
G1 X-17.252 Y-16.326 E8.93536
G1 X-17.102 Y-17.006 E8.96016
G1 X-16.962 Y-17.516 E8.97899
G1 X-16.762 Y-18.126 E9.00185
G1 X-16.342 Y-19.146 E9.04114
G1 X-16.112 Y-19.606 E9.05945
G1 X-15.732 Y-20.256 E9.08627
G1 X-15.222 Y-21.006 E9.11857
G1 X-13.672 Y-23.066 E9.21038
G1 X-12.682 Y-24.116 E9.26178
G1 X-11.472 Y-24.906 E9.31324
G1 X-10.112 Y-25.396 E9.36472
G1 X-8.682 Y-25.556 E9.41597
G1 X-3.682 Y-25.556 E9.59404
G1 X-2.352 Y-25.416 E9.64167
G1 X-1.082 Y-24.996 E9.68930
G1 X23.728 Y-13.636 E10.66110
G1 X24.948 Y-12.896 E10.71191
G1 X25.968 Y-11.906 E10.76254
G1 X26.738 Y-10.706 E10.81332
G1 X27.208 Y-9.366 E10.86389
G1 X27.368 Y-7.956 E10.91443
G1 X27.368 Y19.314 E11.88561
G1 X27.248 Y20.534 E11.92927
G1 X26.898 Y21.704 E11.97276
G1 X26.318 Y22.784 E12.01642
G1 X25.548 Y23.734 E12.05997
G1 X24.598 Y24.504 E12.10352
G1 X23.518 Y25.084 E12.14718
G1 X22.348 Y25.434 E12.19067
G1 X21.128 Y25.554 E12.23433
G1 X4.538 Y25.554 E12.82516
G1 X3.148 Y25.404 E12.87495
G1 X1.828 Y24.944 E12.92473
G1 X0.648 Y24.204 E12.97434
G1 X-0.342 Y23.214 E13.02420
G1 X-1.082 Y22.034 E13.07380
G1 X-16.357 Y-9.533 E14.32271
G1 F1800.000 E11.32271
G92 E0
G1 X20.002 Y17.646 F7800.000
G1 E3.00000 F1800.000
G1 X20.309 Y17.646 E3.01092 F540.000
G1 X20.309 Y18.493 E3.04109
G1 X20.002 Y18.493 E3.05201
G1 X20.002 Y17.683 E3.08088
G1 X19.758 Y17.401 F7800.000
G1 X20.554 Y17.401 E3.10923 F540.000
G1 X20.554 Y18.738 E3.15684
G1 X19.758 Y18.738 E3.18519
G1 X19.758 Y17.438 E3.23149
G1 X19.513 Y17.157 F7800.000
G1 X20.798 Y17.157 E3.27728 F540.000
G1 X20.798 Y18.983 E3.34232
G1 X19.513 Y18.983 E3.38810
G1 X19.513 Y17.193 E3.45184
G1 X19.268 Y16.912 F7800.000
G1 X21.043 Y16.912 E3.51505 F540.000
G1 X21.043 Y19.228 E3.59753
G1 X19.268 Y19.228 E3.66074
G1 X19.268 Y16.949 E3.74191
G1 X19.480 Y17.034 F7800.000
G1 F1800.000 E0.74191
G92 E0
G1 X5.968 Y17.646 F7800.000
G1 E3.00000 F1800.000
G1 X5.968 Y18.494 E3.03018 F540.000
G1 X5.362 Y18.494 E3.05174
G1 X5.362 Y17.646 E3.08191
G1 X5.931 Y17.646 E3.10216
G1 X6.212 Y17.401 F7800.000
G1 X6.212 Y18.738 E3.14977 F540.000
G1 X5.118 Y18.738 E3.18876
G1 X5.118 Y17.401 E3.23637
G1 X6.176 Y17.401 E3.27406
G1 X6.457 Y17.157 F7800.000
G1 X6.457 Y18.983 E3.33910 F540.000
G1 X4.873 Y18.983 E3.39552
G1 X4.873 Y17.157 E3.46056
G1 X6.420 Y17.157 E3.51568
G1 X6.702 Y16.912 F7800.000
G1 X6.702 Y19.228 E3.59815 F540.000
G1 X4.628 Y19.228 E3.67201
G1 X4.628 Y16.912 E3.75448
G1 X6.665 Y16.912 E3.82703
G1 X6.580 Y17.124 F7800.000
G1 X5.779 Y17.878 F7800.000
G1 X5.736 Y17.834 E3.83090 F360.000
G1 X5.779 Y17.878 F7800.000
G1 X5.550 Y18.262 E3.85912 F360.000
G1 X5.594 Y18.305 E3.86299 F360.000
G1 F1800.000 E0.86299
G92 E0
G1 X5.594 Y-6.467 F7800.000
G1 E3.00000 F1800.000
G1 X5.550 Y-6.511 E3.00387 F360.000
G1 X5.779 Y-6.895 E3.03209 F360.000
G1 X5.736 Y-6.938 E3.03596 F360.000
G1 F1800.000 E0.03596
G92 E0
G1 X20.002 Y-7.126 F7800.000
G1 E3.00000 F1800.000
G1 X20.309 Y-7.126 E3.01092 F540.000
G1 X20.309 Y-6.279 E3.04109
G1 X20.002 Y-6.279 E3.05201
G1 X20.002 Y-7.090 E3.08088
G1 X19.758 Y-7.371 F7800.000
G1 X20.554 Y-7.371 E3.10923 F540.000
G1 X20.554 Y-6.034 E3.15684
G1 X19.758 Y-6.034 E3.18519
G1 X19.758 Y-7.334 E3.23149
G1 X19.513 Y-7.616 F7800.000
G1 X20.798 Y-7.616 E3.27728 F540.000
G1 X20.798 Y-5.790 E3.34232
G1 X19.513 Y-5.789 E3.38810
G1 X19.513 Y-7.579 E3.45184
G1 X19.268 Y-7.860 F7800.000
G1 X21.043 Y-7.861 E3.51505 F540.000
G1 X21.043 Y-5.545 E3.59753
G1 X19.268 Y-5.545 E3.66074
G1 X19.268 Y-7.824 E3.74191
G1 X19.480 Y-7.738 F7800.000
G1 F1800.000 E0.74191
G92 E0
G1 X5.968 Y-7.126 F7800.000
G1 E3.00000 F1800.000
G1 X5.968 Y-6.279 E3.03018 F540.000
G1 X5.362 Y-6.279 E3.05174
G1 X5.362 Y-7.126 E3.08191
G1 X5.931 Y-7.126 E3.10216
G1 X6.212 Y-7.371 F7800.000
G1 X6.212 Y-6.034 E3.14977 F540.000
G1 X5.118 Y-6.034 E3.18876
G1 X5.118 Y-7.371 E3.23637
G1 X6.176 Y-7.371 E3.27406
G1 X6.457 Y-7.616 F7800.000
G1 X6.457 Y-5.790 E3.33910 F540.000
G1 X4.873 Y-5.790 E3.39552
G1 X4.873 Y-7.616 E3.46056
G1 X6.420 Y-7.616 E3.51568
G1 X6.702 Y-7.861 F7800.000
G1 X6.702 Y-5.545 E3.59815 F540.000
G1 X4.628 Y-5.545 E3.67201
G1 X4.628 Y-7.861 E3.75449
G1 X6.665 Y-7.861 E3.82704
G1 X6.580 Y-7.649 F7800.000
G1 F1800.000 E0.82704
G92 E0
G1 X-2.989 Y-12.473 F7800.000
G1 E3.00000 F1800.000
G1 X-3.200 Y-12.149 E3.01375 F540.000
G1 X-3.443 Y-11.849 E3.02749
G1 X-3.715 Y-11.576 E3.04123
G1 X-4.015 Y-11.334 E3.05498
G1 X-4.994 Y-10.698 E3.09652
G1 X-4.994 Y-10.628 E3.09904
G1 X-7.371 Y-10.628 E3.18371
G1 X-7.371 Y-10.698 E3.18623
G1 X-8.350 Y-11.334 E3.22777
G1 X-8.650 Y-11.576 E3.24152
G1 X-8.922 Y-11.849 E3.25526
G1 X-9.165 Y-12.149 E3.26901
G1 X-9.375 Y-12.473 E3.28275
G1 X-9.551 Y-12.817 E3.29650
G1 X-9.689 Y-13.177 E3.31024
G1 X-9.789 Y-13.550 E3.32398
G1 X-9.849 Y-13.931 E3.33773
G1 X-9.869 Y-14.316 E3.35147
G1 X-9.849 Y-14.702 E3.36521
G1 X-9.789 Y-15.083 E3.37896
G1 X-9.689 Y-15.456 E3.39270
G1 X-9.551 Y-15.816 E3.40645
G1 X-9.375 Y-16.160 E3.42019
G1 X-9.165 Y-16.484 E3.43394
G1 X-8.922 Y-16.784 E3.44768
G1 X-8.650 Y-17.056 E3.46142
G1 X-8.350 Y-17.299 E3.47517
G1 X-7.371 Y-17.935 E3.51671
G1 X-7.371 Y-18.005 E3.51923
G1 X-4.994 Y-18.005 E3.60390
G1 X-4.994 Y-17.935 E3.60642
G1 X-4.015 Y-17.299 E3.64796
G1 X-3.715 Y-17.056 E3.66171
G1 X-3.443 Y-16.784 E3.67545
G1 X-3.200 Y-16.484 E3.68919
G1 X-2.989 Y-16.160 E3.70294
G1 X-2.814 Y-15.816 E3.71668
G1 X-2.676 Y-15.456 E3.73043
G1 X-2.576 Y-15.083 E3.74417
G1 X-2.516 Y-14.702 E3.75792
G1 X-2.496 Y-14.316 E3.77166
G1 X-2.516 Y-13.931 E3.78540
G1 X-2.576 Y-13.550 E3.79915
G1 X-2.676 Y-13.177 E3.81289
G1 X-2.814 Y-12.817 E3.82664
G1 X-2.973 Y-12.506 E3.83907
G1 X-2.777 Y-12.350 F7800.000
G1 X-3.001 Y-12.005 E3.85373 F540.000
G1 X-3.260 Y-11.685 E3.86839
G1 X-3.551 Y-11.394 E3.88305
G1 X-3.871 Y-11.135 E3.89770
G1 X-4.749 Y-10.565 E3.93497
G1 X-4.749 Y-10.383 E3.94147
G1 X-7.616 Y-10.383 E4.04358
G1 X-7.616 Y-10.565 E4.05008
G1 X-8.494 Y-11.135 E4.08735
G1 X-8.814 Y-11.394 E4.10201
G1 X-9.105 Y-11.685 E4.11666
G1 X-9.364 Y-12.005 E4.13132
G1 X-9.588 Y-12.350 E4.14598
G1 X-9.775 Y-12.717 E4.16064
G1 X-9.922 Y-13.101 E4.17529
G1 X-10.029 Y-13.499 E4.18995
G1 X-10.093 Y-13.905 E4.20461
G1 X-10.115 Y-14.316 E4.21927
G1 X-10.093 Y-14.727 E4.23392
G1 X-10.029 Y-15.134 E4.24859
G1 X-9.922 Y-15.531 E4.26324
G1 X-9.775 Y-15.916 E4.27790
G1 X-9.588 Y-16.282 E4.29256
G1 X-9.364 Y-16.628 E4.30721
G1 X-9.105 Y-16.948 E4.32187
G1 X-8.814 Y-17.238 E4.33653
G1 X-8.494 Y-17.497 E4.35119
G1 X-7.616 Y-18.067 E4.38846
G1 X-7.616 Y-18.250 E4.39496
G1 X-4.749 Y-18.250 E4.49706
G1 X-4.749 Y-18.067 E4.50356
G1 X-3.871 Y-17.498 E4.54083
G1 X-3.551 Y-17.238 E4.55549
G1 X-3.260 Y-16.948 E4.57014
G1 X-3.001 Y-16.628 E4.58480
G1 X-2.777 Y-16.282 E4.59946
G1 X-2.590 Y-15.916 E4.61412
G1 X-2.443 Y-15.531 E4.62878
G1 X-2.336 Y-15.134 E4.64343
G1 X-2.272 Y-14.727 E4.65809
G1 X-2.250 Y-14.316 E4.67275
G1 X-2.272 Y-13.905 E4.68741
G1 X-2.336 Y-13.499 E4.70207
G1 X-2.443 Y-13.101 E4.71672
G1 X-2.590 Y-12.717 E4.73138
G1 X-2.761 Y-12.383 E4.74473
G1 X-2.565 Y-12.228 F7800.000
G1 X-2.803 Y-11.861 E4.76030 F540.000
G1 X-3.078 Y-11.521 E4.77587
G1 X-3.387 Y-11.212 E4.79144
G1 X-3.727 Y-10.937 E4.80702
G1 X-4.504 Y-10.433 E4.84001
G1 X-4.504 Y-10.138 E4.85049
G1 X-7.861 Y-10.138 E4.97003
G1 X-7.861 Y-10.432 E4.98051
G1 X-8.638 Y-10.937 E5.01351
G1 X-8.978 Y-11.212 E5.02908
G1 X-9.287 Y-11.521 E5.04465
G1 X-9.562 Y-11.861 E5.06022
G1 X-9.800 Y-12.228 E5.07579
G1 X-9.998 Y-12.617 E5.09136
G1 X-10.155 Y-13.026 E5.10694
G1 X-10.268 Y-13.448 E5.12250
G1 X-10.337 Y-13.880 E5.13808
G1 X-10.360 Y-14.316 E5.15365
G1 X-10.337 Y-14.753 E5.16922
G1 X-10.268 Y-15.185 E5.18479
G1 X-10.155 Y-15.607 E5.20036
G1 X-9.998 Y-16.015 E5.21593
G1 X-9.800 Y-16.405 E5.23151
G1 X-9.562 Y-16.772 E5.24708
G1 X-9.287 Y-17.112 E5.26265
G1 X-8.978 Y-17.421 E5.27822
G1 X-8.638 Y-17.696 E5.29379
G1 X-7.861 Y-18.200 E5.32679
G1 X-7.861 Y-18.495 E5.33727
G1 X-4.504 Y-18.495 E5.45681
G1 X-4.504 Y-18.200 E5.46729
G1 X-3.727 Y-17.696 E5.50028
G1 X-3.387 Y-17.421 E5.51586
G1 X-3.078 Y-17.111 E5.53142
G1 X-2.803 Y-16.772 E5.54700
G1 X-2.565 Y-16.405 E5.56257
G1 X-2.366 Y-16.015 E5.57814
G1 X-2.210 Y-15.607 E5.59371
G1 X-2.097 Y-15.185 E5.60928
G1 X-2.028 Y-14.753 E5.62486
G1 X-2.005 Y-14.316 E5.64043
G1 X-2.028 Y-13.880 E5.65600
G1 X-2.097 Y-13.448 E5.67157
G1 X-2.210 Y-13.026 E5.68714
G1 X-2.366 Y-12.617 E5.70271
G1 X-2.548 Y-12.261 E5.71697
G1 X-2.353 Y-12.105 F7800.000
G1 X-2.605 Y-11.717 E5.73346 F540.000
G1 X-2.896 Y-11.357 E5.74995
G1 X-3.223 Y-11.030 E5.76643
G1 X-3.583 Y-10.739 E5.78291
G1 X-4.259 Y-10.300 E5.81163
G1 X-4.259 Y-9.893 E5.82610
G1 X-8.106 Y-9.893 E5.96307
G1 X-8.106 Y-10.300 E5.97754
G1 X-8.782 Y-10.739 E6.00625
G1 X-9.142 Y-11.030 E6.02274
G1 X-9.469 Y-11.357 E6.03922
G1 X-9.760 Y-11.717 E6.05571
G1 X-10.012 Y-12.105 E6.07219
G1 X-10.222 Y-12.518 E6.08868
G1 X-10.388 Y-12.950 E6.10516
G1 X-10.508 Y-13.397 E6.12165
G1 X-10.580 Y-13.854 E6.13814
G1 X-10.605 Y-14.316 E6.15462
G1 X-10.580 Y-14.779 E6.17110
G1 X-10.508 Y-15.236 E6.18759
G1 X-10.388 Y-15.683 E6.20407
G1 X-10.222 Y-16.115 E6.22056
G1 X-10.012 Y-16.528 E6.23704
G1 X-9.760 Y-16.916 E6.25353
G1 X-9.469 Y-17.275 E6.27002
G1 X-9.142 Y-17.603 E6.28650
G1 X-8.782 Y-17.894 E6.30298
G1 X-8.106 Y-18.333 E6.33170
G1 X-8.106 Y-18.739 E6.34617
G1 X-4.259 Y-18.739 E6.48314
G1 X-4.259 Y-18.333 E6.49761
G1 X-3.583 Y-17.894 E6.52632
G1 X-3.223 Y-17.603 E6.54281
G1 X-2.896 Y-17.275 E6.55929
G1 X-2.605 Y-16.916 E6.57578
G1 X-2.353 Y-16.527 E6.59226
G1 X-2.143 Y-16.115 E6.60875
G1 X-1.977 Y-15.683 E6.62523
G1 X-1.857 Y-15.236 E6.64172
G1 X-1.785 Y-14.779 E6.65820
G1 X-1.760 Y-14.316 E6.67469
G1 X-1.785 Y-13.854 E6.69117
G1 X-1.857 Y-13.397 E6.70766
G1 X-1.977 Y-12.950 E6.72414
G1 X-2.143 Y-12.518 E6.74063
G1 X-2.336 Y-12.138 E6.75580
G1 X-2.140 Y-11.983 F7800.000
G1 X-2.407 Y-11.573 E6.77320 F540.000
G1 X-2.714 Y-11.193 E6.79060
G1 X-3.059 Y-10.848 E6.80800
G1 X-3.439 Y-10.540 E6.82540
G1 X-4.015 Y-10.167 E6.84984
G1 X-4.015 Y-9.649 E6.86829
G1 X-8.350 Y-9.649 E7.02269
G1 X-8.350 Y-10.167 E7.04114
G1 X-8.926 Y-10.540 E7.06559
G1 X-9.306 Y-10.848 E7.08299
G1 X-9.651 Y-11.193 E7.10038
G1 X-9.958 Y-11.573 E7.11778
G1 X-10.224 Y-11.983 E7.13518
G1 X-10.446 Y-12.418 E7.15258
G1 X-10.621 Y-12.874 E7.16998
G1 X-10.748 Y-13.346 E7.18737
G1 X-10.824 Y-13.829 E7.20478
G1 X-10.850 Y-14.316 E7.22217
G1 X-10.824 Y-14.804 E7.23957
G1 X-10.748 Y-15.287 E7.25697
G1 X-10.621 Y-15.759 E7.27437
G1 X-10.446 Y-16.215 E7.29177
G1 X-10.224 Y-16.650 E7.30917
G1 X-9.958 Y-17.060 E7.32656
G1 X-9.651 Y-17.439 E7.34397
G1 X-9.306 Y-17.785 E7.36136
G1 X-8.926 Y-18.092 E7.37876
G1 X-8.350 Y-18.466 E7.40320
G1 X-8.350 Y-18.984 E7.42165
G1 X-4.015 Y-18.984 E7.57606
G1 X-4.015 Y-18.466 E7.59451
G1 X-3.439 Y-18.092 E7.61895
G1 X-3.059 Y-17.785 E7.63635
G1 X-2.714 Y-17.439 E7.65374
G1 X-2.407 Y-17.060 E7.67114
G1 X-2.140 Y-16.650 E7.68854
G1 X-1.919 Y-16.215 E7.70594
G1 X-1.744 Y-15.759 E7.72334
G1 X-1.617 Y-15.287 E7.74074
G1 X-1.541 Y-14.804 E7.75814
G1 X-1.515 Y-14.316 E7.77554
G1 X-1.541 Y-13.829 E7.79293
G1 X-1.617 Y-13.346 E7.81033
G1 X-1.744 Y-12.874 E7.82773
G1 X-1.919 Y-12.418 E7.84513
G1 X-2.124 Y-12.015 E7.86122
G1 X-1.928 Y-11.860 F7800.000
G1 X-2.208 Y-11.429 E7.87953 F540.000
G1 X-2.532 Y-11.029 E7.89785
G1 X-2.895 Y-10.666 E7.91616
G1 X-3.295 Y-10.342 E7.93447
G1 X-3.770 Y-10.034 E7.95464
G1 X-3.770 Y-9.404 E7.97707
G1 X-8.595 Y-9.404 E8.14891
G1 X-8.595 Y-10.034 E8.17134
G1 X-9.070 Y-10.342 E8.19151
G1 X-9.470 Y-10.666 E8.20982
G1 X-9.833 Y-11.029 E8.22813
G1 X-10.157 Y-11.429 E8.24644
G1 X-10.437 Y-11.860 E8.26475
G1 X-10.670 Y-12.318 E8.28307
G1 X-10.854 Y-12.798 E8.30138
G1 X-10.987 Y-13.295 E8.31969
G1 X-11.068 Y-13.803 E8.33800
G1 X-11.095 Y-14.316 E8.35632
G1 X-11.068 Y-14.830 E8.37463
G1 X-10.987 Y-15.338 E8.39294
G1 X-10.854 Y-15.834 E8.41125
G1 X-10.670 Y-16.314 E8.42956
G1 X-10.437 Y-16.773 E8.44788
G1 X-10.157 Y-17.204 E8.46619
G1 X-9.833 Y-17.603 E8.48450
G1 X-9.470 Y-17.967 E8.50281
G1 X-9.070 Y-18.291 E8.52113
G1 X-8.595 Y-18.599 E8.54129
G1 X-8.595 Y-19.229 E8.56372
G1 X-3.770 Y-19.229 E8.73556
G1 X-3.770 Y-18.599 E8.75799
G1 X-3.295 Y-18.291 E8.77816
G1 X-2.895 Y-17.967 E8.79647
G1 X-2.532 Y-17.603 E8.81478
G1 X-2.208 Y-17.204 E8.83310
G1 X-1.928 Y-16.773 E8.85141
G1 X-1.695 Y-16.314 E8.86972
G1 X-1.511 Y-15.834 E8.88803
G1 X-1.377 Y-15.338 E8.90634
G1 X-1.297 Y-14.830 E8.92466
G1 X-1.270 Y-14.316 E8.94297
G1 X-1.297 Y-13.803 E8.96128
G1 X-1.377 Y-13.295 E8.97960
G1 X-1.511 Y-12.798 E8.99791
G1 X-1.695 Y-12.318 E9.01622
G1 X-1.912 Y-11.893 E9.03322
G1 X-2.173 Y-11.864 F7800.000
G1 X-2.935 Y-15.671 F7800.000
G1 X-5.017 Y-17.753 E9.14044 F1080.000
G1 X-5.458 Y-17.840 E9.15683
G1 X-2.764 Y-15.146 E9.29564
G1 X-2.684 Y-14.712 E9.31168
G1 X-5.812 Y-17.840 E9.47281
G1 X-6.166 Y-17.840 E9.48571
G1 X-2.662 Y-14.336 E9.66624
G1 X-2.677 Y-13.997 E9.67857
G1 X-6.520 Y-17.840 E9.87653
G1 X-6.874 Y-17.840 E9.88943
G1 X-2.721 Y-13.687 E10.10336
G1 X-2.787 Y-13.399 E10.11412
G1 X-7.223 Y-17.835 E10.34260
G1 X-7.437 Y-17.695 E10.35192
G1 X-2.871 Y-13.129 E10.58714
G1 X-2.970 Y-12.874 E10.59710
G1 X-7.652 Y-17.556 E10.83827
G1 X-7.866 Y-17.416 E10.84759
G1 X-3.090 Y-12.640 E11.09366
G1 X-3.222 Y-12.418 E11.10306
G1 X-8.081 Y-17.277 E11.35337
G1 X-8.292 Y-17.134 E11.36266
G1 X-3.365 Y-12.207 E11.61645
G1 X-3.527 Y-12.015 E11.62560
G1 X-8.484 Y-16.971 E11.88091
G1 X-8.661 Y-16.794 E11.89002
