; generated by Slic3r 1.0.0RC2 on 2014-07-30 at 00:33:30

; removing support 
; do each object first, then proceed to next one
; 
; set resolution to 0.01 to improve rendering speed on large meshes.
; 
; removed skirt

; layer_height = 0.2
; perimeters = 6
; top_solid_layers = 4
; bottom_solid_layers = 4
; fill_density = 1
; perimeter_speed = 30
; infill_speed = 60
; travel_speed = 130
; nozzle_diameter = 0.5
; filament_diameter = 1.75
; extrusion_multiplier = 1
; perimeters extrusion width = 0.50mm
; infill extrusion width = 1.02mm
; solid infill extrusion width = 0.85mm
; top infill extrusion width = 0.10mm
; first layer extrusion width = 0.17mm

G21 ; set units to millimeters
G28
;M140 S110;
;M104 S180;
;M190 S110;
;M109 S215;
G90;
G92 E0;
G1 E5 S15;
G92 E0;
;G4 P5000;
G90 ; use absolute coordinates
G92 E0
M82 ; use absolute distances for extrusion
G1 F1800.000 E-3.00000
G1 Z1.350 F7800.000
G92 E0
G1 X-9.490 Y-7.500 F7800.000
G1 Z0.350 F7800.000
G1 E3.00000 F1800.000
G1 X-9.360 Y-8.770 E3.04547 F540.000
G1 X-9.000 Y-9.980 E3.09043
G1 X-8.400 Y-11.110 E3.13599
G1 X-7.590 Y-12.090 E3.18127
G1 X-6.610 Y-12.900 E3.22655
G1 X-5.480 Y-13.500 E3.27211
G1 X-4.270 Y-13.860 E3.31707
G1 X-3.000 Y-13.990 E3.36254
G1 X3.000 Y-13.990 E3.57622
G1 X4.270 Y-13.860 E3.62169
G1 X5.480 Y-13.500 E3.66665
G1 X6.610 Y-12.900 E3.71221
G1 X7.590 Y-12.090 E3.75749
G1 X8.400 Y-11.110 E3.80277
G1 X9.000 Y-9.980 E3.84834
G1 X9.360 Y-8.770 E3.89329
G1 X9.490 Y-7.500 E3.93876
G1 X9.490 Y7.500 E4.47297
G1 X9.360 Y8.770 E4.51843
G1 X9.000 Y9.980 E4.56339
G1 X8.400 Y11.110 E4.60896
G1 X7.590 Y12.090 E4.65424
G1 X6.610 Y12.900 E4.69952
G1 X5.480 Y13.500 E4.74508
G1 X4.270 Y13.860 E4.79004
G1 X3.000 Y13.990 E4.83550
G1 X-3.000 Y13.990 E5.04919
G1 X-4.270 Y13.860 E5.09465
G1 X-5.480 Y13.500 E5.13961
G1 X-6.610 Y12.900 E5.18518
G1 X-7.590 Y12.090 E5.23046
G1 X-8.400 Y11.110 E5.27574
G1 X-9.000 Y9.980 E5.32130
G1 X-9.360 Y8.770 E5.36626
G1 X-9.490 Y7.500 E5.41173
G1 X-9.490 Y-7.463 E5.94462
G1 X-9.240 Y-7.500 F7800.000
G1 X-9.120 Y-8.720 E5.98828 F540.000
G1 X-8.770 Y-9.890 E6.03177
G1 X-8.190 Y-10.970 E6.07543
G1 X-7.420 Y-11.920 E6.11898
G1 X-6.470 Y-12.690 E6.16253
G1 X-5.390 Y-13.270 E6.20619
G1 X-4.220 Y-13.620 E6.24969
G1 X-3.000 Y-13.740 E6.29334
G1 X3.000 Y-13.740 E6.50703
G1 X4.220 Y-13.620 E6.55068
G1 X5.390 Y-13.270 E6.59418
G1 X6.470 Y-12.690 E6.63784
G1 X7.420 Y-11.920 E6.68139
G1 X8.190 Y-10.970 E6.72494
G1 X8.770 Y-9.890 E6.76860
G1 X9.120 Y-8.720 E6.81209
G1 X9.240 Y-7.500 E6.85575
G1 X9.240 Y7.500 E7.38995
G1 X9.120 Y8.720 E7.43361
G1 X8.770 Y9.890 E7.47710
G1 X8.190 Y10.970 E7.52076
G1 X7.420 Y11.920 E7.56431
G1 X6.470 Y12.690 E7.60786
G1 X5.390 Y13.270 E7.65152
G1 X4.220 Y13.620 E7.69501
G1 X3.000 Y13.740 E7.73867
G1 X-3.000 Y13.740 E7.95235
G1 X-4.220 Y13.620 E7.99601
G1 X-5.390 Y13.270 E8.03950
G1 X-6.470 Y12.690 E8.08316
G1 X-7.420 Y11.920 E8.12671
G1 X-8.190 Y10.970 E8.17026
G1 X-8.770 Y9.890 E8.21392
G1 X-9.120 Y8.720 E8.25742
G1 X-9.240 Y7.500 E8.30107
G1 X-9.240 Y-7.463 E8.83397
G1 F1800.000 E5.83397
G1 Z1.350 F7800.000
G92 E0
G1 X-2.913 Y7.132 F7800.000
G1 Z0.350 F7800.000
G1 E3.00000 F1800.000
G1 X2.912 Y7.132 E3.20745 F540.000
G1 X2.912 Y7.412 E3.21745
G1 X-2.913 Y7.412 E3.42490
G1 X-2.913 Y7.168 E3.43360
G1 X-2.701 Y7.254 F7800.000
G1 F1800.000 E0.43360
G1 Z1.350 F7800.000
G92 E0
G1 X-2.913 Y-7.132 F7800.000
G1 Z0.350 F7800.000
G1 E3.00000 F1800.000
G1 X-2.913 Y-7.412 E3.01000 F540.000
G1 X2.912 Y-7.412 E3.21745
G1 X2.912 Y-7.132 E3.22746
G1 X-2.876 Y-7.132 E3.43360
G1 X-2.790 Y-7.344 F7800.000
G1 F1800.000 E0.43360
G1 Z1.550 F7800.000
G92 E0
G1 X-3.000 Y-13.990 F7800.000
G1 Z0.550 F7800.000
G1 E3.00000 F1800.000
G1 X3.000 Y-13.990 E3.12210 F1800
G1 X4.270 Y-13.860 E3.14808
G1 X5.480 Y-13.500 E3.17378
G1 X6.610 Y-12.900 E3.19981
G1 X7.590 Y-12.090 E3.22569
G1 X8.400 Y-11.110 E3.25156
G1 X9.000 Y-9.980 E3.27760
G1 X9.360 Y-8.770 E3.30329
G1 X9.490 Y-7.500 E3.32927
G1 X9.490 Y7.500 E3.63453
G1 X9.360 Y8.770 E3.66051
G1 X9.000 Y9.980 E3.68620
G1 X8.400 Y11.110 E3.71224
G1 X7.590 Y12.090 E3.73811
G1 X6.610 Y12.900 E3.76399
G1 X5.480 Y13.500 E3.79002
G1 X4.270 Y13.860 E3.81571
G1 X3.000 Y13.990 E3.84169
G1 X-3.000 Y13.990 E3.96380
G1 X-4.270 Y13.860 E3.98978
G1 X-5.480 Y13.500 E4.01547
G1 X-6.610 Y12.900 E4.04151
G1 X-7.590 Y12.090 E4.06738
G1 X-8.400 Y11.110 E4.09326
G1 X-9.000 Y9.980 E4.11929
G1 X-9.360 Y8.770 E4.14498
G1 X-9.490 Y7.500 E4.17096
G1 X-9.490 Y-7.500 E4.47622
G1 X-9.360 Y-8.770 E4.50220
G1 X-9.000 Y-9.980 E4.52790
G1 X-8.400 Y-11.110 E4.55393
G1 X-7.590 Y-12.090 E4.57981
G1 X-6.610 Y-12.900 E4.60568
G1 X-5.480 Y-13.500 E4.63172
G1 X-4.270 Y-13.860 E4.65741
G1 X-3.037 Y-13.986 E4.68264
G1 X-3.000 Y-13.740 F7800.000
G1 X3.000 Y-13.740 E4.80475 F1800
G1 X4.220 Y-13.620 E4.82969
G1 X5.390 Y-13.270 E4.85455
G1 X6.470 Y-12.690 E4.87949
G1 X7.420 Y-11.920 E4.90438
G1 X8.190 Y-10.970 E4.92927
G1 X8.770 Y-9.890 E4.95421
G1 X9.120 Y-8.720 E4.97907
G1 X9.240 Y-7.500 E5.00401
G1 X9.240 Y7.500 E5.30928
G1 X9.120 Y8.720 E5.33422
G1 X8.770 Y9.890 E5.35908
G1 X8.190 Y10.970 E5.38402
G1 X7.420 Y11.920 E5.40891
G1 X6.470 Y12.690 E5.43380
G1 X5.390 Y13.270 E5.45874
G1 X4.220 Y13.620 E5.48360
G1 X3.000 Y13.740 E5.50854
G1 X-3.000 Y13.740 E5.63065
G1 X-4.220 Y13.620 E5.65560
G1 X-5.390 Y13.270 E5.68045
G1 X-6.470 Y12.690 E5.70540
G1 X-7.420 Y11.920 E5.73028
G1 X-8.190 Y10.970 E5.75517
G1 X-8.770 Y9.890 E5.78012
G1 X-9.120 Y8.720 E5.80497
G1 X-9.240 Y7.500 E5.82992
G1 X-9.240 Y-7.500 E6.13518
G1 X-9.120 Y-8.720 E6.16012
G1 X-8.770 Y-9.890 E6.18498
G1 X-8.190 Y-10.970 E6.20992
G1 X-7.420 Y-11.920 E6.23481
G1 X-6.470 Y-12.690 E6.25970
G1 X-5.390 Y-13.270 E6.28464
G1 X-4.220 Y-13.620 E6.30950
G1 X-3.037 Y-13.736 E6.33370
G1 F1800.000 E3.33370
G1 Z1.550 F7800.000
G92 E0
G1 X-2.750 Y7.250 F7800.000
G1 Z0.550 F7800.000
G1 E3.00000 F1800.000
G1 X-2.750 Y7.044 E3.00856 F1800
G1 X-2.750 Y6.575 E3.04689 F1800
G1 X2.750 Y6.575 E3.49586
G1 X2.750 Y7.044 E3.53419
G1 X2.750 Y7.250 E3.54275 F1800
G1 X-2.675 Y7.250 E3.76830
G1 X-2.500 Y6.817 F7800.000
G1 F1800.000 E0.76830
G1 Z1.550 F7800.000
G92 E0
G1 X-2.750 Y-7.250 F7800.000
G1 Z0.550 F7800.000
G1 E3.00000 F1800.000
G1 X2.750 Y-7.250 E3.22866 F1800
G1 X2.750 Y-7.044 E3.23722
G1 X2.750 Y-6.575 E3.27555 F1800
G1 X-2.750 Y-6.575 E3.72453
G1 X-2.750 Y-7.044 E3.76285
G1 X-2.750 Y-7.175 E3.76830 F1800
G1 X-2.317 Y-7.000 F7800.000
G1 F1800.000 E0.76830
G1 Z1.750 F7800.000
G92 E0
G1 X-2.750 Y7.250 F7800.000
G1 Z0.750 F7800.000
G1 E3.00000 F1800.000
G1 X-2.750 Y6.325 E3.03847 F1800
G1 X-2.750 Y5.828 E3.07900 F1800
G1 X2.750 Y5.828 E3.52798
G1 X2.750 Y6.325 E3.56850
G1 X2.750 Y7.250 E3.60697 F1800
G1 X-2.675 Y7.250 E3.83252
G1 X-2.500 Y6.817 F7800.000
G1 X-2.279 Y6.721 F7800.000
G1 X-1.880 Y6.299 E3.86050 F1200
G1 X-1.401 Y6.779 E3.89323 F1200
G1 X-1.060 Y6.299 E3.92160 F1200
G1 X-0.580 Y6.779 E3.95433 F1200
G1 X-0.240 Y6.299 E3.98271 F1200
G1 X0.240 Y6.779 E4.01543 F1200
G1 X0.580 Y6.299 E4.04381 F1200
G1 X1.060 Y6.779 E4.07653 F1200
G1 X1.401 Y6.299 E4.10491 F1200
G1 X1.880 Y6.779 E4.13763 F1200
G1 X2.279 Y6.357 E4.16562 F1200
G1 X2.221 Y6.299 E4.16958 F1200
G1 X-2.221 Y6.779 F7800.000
G1 X-2.279 Y6.721 E4.17353 F1200
G1 F1800.000 E1.17353
G1 Z1.750 F7800.000
G92 E0
G1 X-2.221 Y-6.299 F7800.000
G1 Z0.750 F7800.000
G1 E3.00000 F1800.000
G1 X-2.279 Y-6.357 E3.00396 F1200
G1 X-1.880 Y-6.779 E3.03194 F1200
G1 X-1.401 Y-6.299 E3.06467 F1200
G1 X-1.060 Y-6.779 E3.09304 F1200
G1 X-0.580 Y-6.299 E3.12577 F1200
G1 X-0.240 Y-6.779 E3.15415 F1200
G1 X0.240 Y-6.299 E3.18687 F1200
G1 X0.580 Y-6.779 E3.21525 F1200
G1 X1.060 Y-6.299 E3.24797 F1200
G1 X1.401 Y-6.779 E3.27635 F1200
G1 X1.880 Y-6.299 E3.30907 F1200
G1 X2.279 Y-6.721 E3.33706 F1200
G1 X2.221 Y-6.779 E3.34102 F1200
G1 X2.750 Y-7.250 F7800.000
G1 X2.750 Y-6.325 E3.37949 F1800
G1 X2.750 Y-5.828 E3.42001 F1800
G1 X-2.750 Y-5.828 E3.86899
G1 X-2.750 Y-6.325 E3.90951
G1 X-2.750 Y-7.250 E3.94799 F1800
G1 X2.675 Y-7.250 E4.17353
G1 X2.500 Y-6.817 F7800.000
G1 F1800.000 E1.17353
G1 Z1.950 F7800.000
G92 E0
G1 X2.250 Y5.582 F7800.000
G1 Z0.950 F7800.000
G1 E3.00000 F1800.000
G1 X2.250 Y6.750 E3.04857 F1800
G1 X-2.250 Y6.750 E3.23566
G1 X-2.250 Y5.582 E3.28422
G1 X2.175 Y5.582 E3.46819
G1 X2.750 Y7.250 F7800.000
G1 X-2.750 Y7.250 E3.69686 F1800
G1 X-2.750 Y5.578 E3.76636
G1 X-2.750 Y5.082 E3.80688 F1800
G1 X2.750 Y5.082 E4.25586
G1 X2.750 Y5.578 E4.29639
G1 X2.750 Y7.175 E4.36277 F1800
G1 X2.317 Y7.000 F7800.000
G1 X1.724 Y6.276 F7800.000
G1 X1.210 Y6.056 E4.38688 F1200
G1 X0.990 Y6.276 E4.40030 F1200
G1 X0.477 Y6.056 E4.42440 F1200
G1 X0.257 Y6.276 E4.43783 F1200
G1 X-0.257 Y6.056 E4.46193 F1200
G1 X-0.477 Y6.276 E4.47535 F1200
G1 X-0.990 Y6.056 E4.49945 F1200
G1 X-1.210 Y6.276 E4.51288 F1200
G1 X-1.724 Y6.056 E4.53698 F1200
G1 X-1.776 Y6.108 E4.54014 F1200
G1 X1.724 Y6.276 F7800.000
G1 X1.776 Y6.224 E4.54331 F1200
G1 F1800.000 E1.54331
G1 Z1.950 F7800.000
G92 E0
G1 X1.724 Y-6.056 F7800.000
G1 Z0.950 F7800.000
G1 E3.00000 F1800.000
G1 X1.210 Y-6.276 E3.02410 F1200
G1 X0.990 Y-6.056 E3.03753 F1200
G1 X0.477 Y-6.276 E3.06163 F1200
G1 X0.257 Y-6.056 E3.07505 F1200
G1 X-0.257 Y-6.276 E3.09915 F1200
G1 X-0.477 Y-6.056 E3.11258 F1200
G1 X-0.990 Y-6.276 E3.13668 F1200
G1 X-1.210 Y-6.056 E3.15010 F1200
G1 X-1.724 Y-6.276 E3.17420 F1200
G1 X-1.776 Y-6.224 E3.17737 F1200
G1 X1.724 Y-6.056 F7800.000
G1 X1.776 Y-6.108 E3.18053 F1200
G1 X2.250 Y-5.582 F7800.000
G1 X-2.250 Y-5.582 E3.36762 F1800
G1 X-2.250 Y-6.750 E3.41619
G1 X2.250 Y-6.750 E3.60328
G1 X2.250 Y-5.657 E3.64873
G1 X2.750 Y-7.250 F7800.000
G1 X2.750 Y-5.578 E3.71823 F1800
G1 X2.750 Y-5.082 E3.75875 F1800
G1 X-2.750 Y-5.082 E4.20773
G1 X-2.750 Y-5.578 E4.24826
G1 X-2.750 Y-7.250 E4.31776 F1800
G1 X2.675 Y-7.250 E4.54331
G1 X2.500 Y-6.817 F7800.000
G1 F1800.000 E1.54331
G1 Z2.150 F7800.000
G92 E0
G1 X1.750 Y5.213 F7800.000
G1 Z1.150 F7800.000
G1 E3.00000 F1800.000
G1 X1.750 Y6.250 E3.04311 F1800
G1 X-1.750 Y6.250 E3.18862
G1 X-1.750 Y5.213 E3.23173
G1 X1.675 Y5.213 E3.37413
G1 X2.250 Y6.750 F7800.000
G1 X-2.250 Y6.750 E3.56121 F1800
G1 X-2.250 Y4.832 E3.64096
G1 X-2.250 Y4.713 E3.65065 F1800
G1 X2.250 Y4.713 E4.01800
G1 X2.250 Y4.832 E4.02769
G1 X2.250 Y6.675 E4.10432 F1800
G1 X2.750 Y7.250 F7800.000
G1 X-2.750 Y7.250 E4.33299 F1800
G1 X-2.750 Y4.832 E4.43352
G1 X-2.750 Y4.213 E4.48403 F1800
G1 X-2.393 Y4.213 E4.51320
G1 X2.750 Y4.213 E4.93301
G1 X2.750 Y4.832 E4.98352
G1 X2.750 Y7.175 E5.08093 F1800
G1 X2.317 Y7.000 F7800.000
G1 X1.268 Y5.732 F7800.000
G1 X1.220 Y5.683 E5.08433 F1200
G1 X0.471 Y5.780 E5.12188 F1200
G1 X0.374 Y5.683 E5.12868 F1200
G1 X-0.374 Y5.780 E5.16623 F1200
G1 X-0.471 Y5.683 E5.17302 F1200
G1 X-1.268 Y5.732 E5.21274 F1200
G1 X-1.220 Y5.780 E5.21614 F1200
G1 F1800.000 E2.21614
G1 Z2.150 F7800.000
G92 E0
G1 X-1.220 Y-5.683 F7800.000
G1 Z1.150 F7800.000
G1 E3.00000 F1800.000
G1 X-1.268 Y-5.732 E3.00340 F1200
G1 X-0.471 Y-5.780 E3.04311 F1200
G1 X-0.374 Y-5.683 E3.04991 F1200
G1 X0.374 Y-5.780 E3.08746 F1200
G1 X0.471 Y-5.683 E3.09426 F1200
G1 X1.220 Y-5.780 E3.13180 F1200
G1 X1.268 Y-5.732 E3.13520 F1200
G1 X1.750 Y-5.213 F7800.000
G1 X-1.750 Y-5.213 E3.28072 F1800
G1 X-1.750 Y-6.250 E3.32383
G1 X1.750 Y-6.250 E3.46934
G1 X1.750 Y-5.288 E3.50933
G1 X2.250 Y-6.750 F7800.000
G1 X2.250 Y-4.832 E3.58908 F1800
G1 X2.250 Y-4.713 E3.59877 F1800
G1 X-2.250 Y-4.713 E3.96612
G1 X-2.250 Y-4.832 E3.97581
G1 X-2.250 Y-6.750 E4.05556 F1800
G1 X2.175 Y-6.750 E4.23953
G1 X2.750 Y-7.250 F7800.000
G1 X2.750 Y-4.832 E4.34006 F1800
G1 X2.750 Y-4.213 E4.39057 F1800
G1 X-2.750 Y-4.213 E4.83955
G1 X-2.750 Y-4.832 E4.89005
G1 X-2.750 Y-7.250 E4.99059 F1800
G1 X2.675 Y-7.250 E5.21614
G1 X2.500 Y-6.817 F7800.000
G1 F1800.000 E2.21614
G1 Z2.350 F7800.000
G92 E0
G1 X1.250 Y4.450 F7800.000
G1 Z1.350 F7800.000
G1 E3.00000 F1800.000
G1 X1.250 Y5.750 E3.05403 F1800
G1 X-1.250 Y5.750 E3.15797
G1 X-1.250 Y4.450 E3.21201
G1 X1.175 Y4.450 E3.31283
G1 X1.750 Y6.250 F7800.000
G1 X-1.750 Y6.250 E3.45834 F1800
G1 X-1.750 Y3.963 E3.55342
G1 X-1.750 Y3.950 E3.55446 F1800
G1 X0.171 Y3.950 E3.71131
G1 X1.750 Y3.950 E3.84017
G1 X1.750 Y3.963 E3.84122
G1 X1.750 Y6.175 E3.93318 F1800
G1 X2.250 Y6.750 F7800.000
G1 X-2.250 Y6.750 E4.12026 F1800
G1 X-2.250 Y3.963 E4.23613
G1 X-2.250 Y3.450 E4.27799 F1800
G1 X0.171 Y3.450 E4.47565
G1 X2.250 Y3.450 E4.64533
G1 X2.250 Y3.963 E4.68719
G1 X2.250 Y6.675 E4.79994 F1800
G1 X2.750 Y7.250 F7800.000
G1 X-2.750 Y7.250 E5.02860 F1800
G1 X-2.750 Y3.963 E5.16526
G1 X-2.750 Y2.950 E5.24793 F1800
G1 X0.171 Y2.950 E5.48640
G1 X2.750 Y2.950 E5.69691
G1 X2.750 Y3.963 E5.77959
G1 X2.750 Y7.175 E5.91312 F1800
G1 X2.317 Y7.000 F7800.000
G1 X0.718 Y5.282 F7800.000
G1 X0.182 Y4.919 E5.94740 F1200
G1 X-0.182 Y5.282 E5.97459 F1200
G1 X-0.718 Y4.919 E6.00887 F1200
G1 X-0.782 Y4.982 E6.01363 F1200
G1 X0.718 Y5.282 F7800.000
G1 X0.782 Y5.218 E6.01839 F1200
G1 F1800.000 E3.01839
G1 Z2.350 F7800.000
G92 E0
G1 X0.718 Y-4.919 F7800.000
G1 Z1.350 F7800.000
G1 E3.00000 F1800.000
G1 X0.182 Y-5.282 E3.03428 F1200
G1 X-0.182 Y-4.919 E3.06146 F1200
G1 X-0.718 Y-5.282 E3.09575 F1200
G1 X-0.782 Y-5.218 E3.10051 F1200
G1 X0.718 Y-4.919 F7800.000
G1 X0.782 Y-4.982 E3.10527 F1200
G1 X0.341 Y-4.450 F7800.000
G1 X-1.250 Y-4.450 E3.17141 F1800
G1 X-1.250 Y-5.750 E3.22545
G1 X1.250 Y-5.750 E3.32939
G1 X1.250 Y-4.450 E3.38342
G1 X0.416 Y-4.450 E3.41809
G1 X1.750 Y-6.250 F7800.000
G1 X1.750 Y-3.963 E3.51317 F1800
G1 X1.750 Y-3.950 E3.51421 F1800
G1 X0.341 Y-3.950 E3.62923
G1 X-1.750 Y-3.950 E3.79993
G1 X-1.750 Y-3.963 E3.80097
G1 X-1.750 Y-6.250 E3.89605 F1800
G1 X1.675 Y-6.250 E4.03844
G1 X2.250 Y-6.750 F7800.000
G1 X2.250 Y-3.963 E4.15431 F1800
G1 X2.250 Y-3.450 E4.19616 F1800
G1 X0.341 Y-3.450 E4.35200
G1 X-2.250 Y-3.450 E4.56351
G1 X-2.250 Y-3.963 E4.60537
G1 X-2.250 Y-6.750 E4.72124 F1800
G1 X2.175 Y-6.750 E4.90521
G1 X2.750 Y-7.250 F7800.000
G1 X2.750 Y-3.963 E5.04186 F1800
G1 X2.750 Y-2.950 E5.12453 F1800
G1 X0.341 Y-2.950 E5.32118
G1 X-2.750 Y-2.950 E5.57351
G1 X-2.750 Y-3.963 E5.65619
G1 X-2.750 Y-7.250 E5.79284 F1800
G1 X2.675 Y-7.250 E6.01839
G1 X2.500 Y-6.817 F7800.000
G1 F1800.000 E3.01839
G1 Z2.550 F7800.000
G92 E0
G1 X2.000 Y-6.500 F7800.000
G1 X5.000 Y-9.500 F7800.000
G1 X5.000 Y0.500 F7800.000
G1 X2.000 Y2.870 F7800.000
G1 X0.750 Y4.714 F7800.000
G1 Z1.550 F7800.000
G1 E3.00000 F1800.000
G1 X0.750 Y5.250 E3.02229 F1800
G1 X-0.750 Y5.250 E3.08466
G1 X-0.750 Y4.714 E3.10695
G1 X-0.000 Y4.753 E3.13817
G1 X0.675 Y4.718 E3.16628
G1 X0.444 Y4.229 F7800.000
G1 X0.884 Y4.159 E3.18479 F1800
G1 X1.250 Y4.061 E3.20053
G1 X1.250 Y5.750 E3.27074
G1 X-1.250 Y5.750 E3.37467
G1 X-1.250 Y4.053 E3.44524
G1 X-0.912 Y4.155 E3.45992
G1 X-0.444 Y4.229 E3.47960
G1 X-0.000 Y4.252 E3.49810
G1 X0.370 Y4.233 E3.51349
G1 X0.392 Y3.731 F7800.000
G1 X0.780 Y3.670 E3.52982 F1800
G1 X1.159 Y3.568 E3.54615
G1 X1.750 Y3.341 E3.57245
G1 X1.750 Y6.250 E3.69338
G1 X-1.750 Y6.250 E3.83889
G1 X-1.750 Y3.379 E3.95825
G1 X-0.800 Y3.667 E3.99952
G1 X-0.392 Y3.731 E4.01669
G1 X-0.000 Y3.752 E4.03301
G1 X0.317 Y3.735 E4.04622
G1 X0.340 Y3.233 F7800.000
G1 X0.676 Y3.180 E4.06037 F1800
G1 X1.005 Y3.092 E4.07452
G1 X1.322 Y2.970 E4.08866
G1 X1.626 Y2.815 E4.10281
G1 X1.803 Y2.700 E4.11160
G1 X2.250 Y2.410 E4.15513 F1800
G1 X2.250 Y2.700 E4.17884
G1 X2.250 Y6.750 E4.34720 F1800
G1 X-2.250 Y6.750 E4.53429
G1 X-2.250 Y2.700 E4.70265
G1 X-2.250 Y2.410 E4.72636 F1800
G1 X-1.803 Y2.700 E4.76989
G1 X-1.626 Y2.815 E4.77868 F1800
G1 X-1.245 Y3.010 E4.79646
G1 X-0.688 Y3.178 E4.82064
G1 X-0.340 Y3.233 E4.83529
G1 X-0.000 Y3.251 E4.84943
G1 X0.265 Y3.237 E4.86046
G1 X0.287 Y2.735 F7800.000
G1 X0.508 Y2.700 E4.86975 F1800
G1 X0.850 Y2.616 E4.89849 F1800
G1 X1.119 Y2.513 E4.92199
G1 X1.375 Y2.382 E4.94549
G1 X1.617 Y2.225 E4.96899
G1 X1.840 Y2.044 E4.99250
G1 X2.044 Y1.840 E5.01600
G1 X2.225 Y1.617 E5.03949
G1 X2.595 Y1.046 E5.09500
G1 X2.750 Y1.092 E5.10815
G1 X2.750 Y2.700 E5.23942
G1 X2.750 Y7.250 E5.42858 F1800
G1 X-2.750 Y7.250 E5.65724
G1 X-2.750 Y2.700 E5.84639
G1 X-2.750 Y1.092 E5.97767 F1800
G1 X-2.595 Y1.046 E5.99083
G1 X-2.225 Y1.617 E6.04633
