; generated by Slic3r 1.0.0RC2 on 2014-07-30 at 00:32:50

; removing support 
; do each object first, then proceed to next one
; 
; set resolution to 0.01 to improve rendering speed on large meshes.
; 
; removed skirt

; layer_height = 0.2
; perimeters = 6
; top_solid_layers = 4
; bottom_solid_layers = 4
; fill_density = 1
; perimeter_speed = 30
; infill_speed = 60
; travel_speed = 130
; nozzle_diameter = 0.5
; filament_diameter = 1.75
; extrusion_multiplier = 1
; perimeters extrusion width = 0.50mm
; infill extrusion width = 1.02mm
; solid infill extrusion width = 0.85mm
; top infill extrusion width = 0.10mm
; first layer extrusion width = 0.17mm

G21 ; set units to millimeters
G28
;M140 S110;
;M104 S180;
;M190 S110;
;M109 S215;
G90;
G92 E0;
G1 E5 S15;
G92 E0;
;G4 P5000;
G90 ; use absolute coordinates
G92 E0
M82 ; use absolute distances for extrusion
G1 F1800.000 E-3.00000
G1 Z1.350 F7800.000
G92 E0
G1 X14.759 Y13.607 F7800.000
G1 Z0.350 F7800.000
G1 E3.00000 F1800.000
G1 X14.629 Y14.877 E3.04547 F540.000
G1 X14.269 Y16.087 E3.09043
G1 X13.669 Y17.217 E3.13599
G1 X12.859 Y18.197 E3.18127
G1 X11.879 Y19.007 E3.22655
G1 X10.749 Y19.607 E3.27211
G1 X9.539 Y19.967 E3.31707
G1 X8.269 Y20.097 E3.36254
G1 X-8.321 Y20.097 E3.95337
G1 X-9.591 Y19.967 E3.99884
G1 X-10.801 Y19.607 E4.04380
G1 X-11.931 Y19.007 E4.08936
G1 X-12.911 Y18.197 E4.13464
G1 X-13.721 Y17.217 E4.17992
G1 X-14.321 Y16.087 E4.22548
G1 X-14.681 Y14.877 E4.27044
G1 X-14.811 Y13.607 E4.31591
G1 X-14.811 Y-13.623 E5.28567
G1 X-14.681 Y-14.893 E5.33114
G1 X-14.321 Y-16.103 E5.37610
G1 X-13.721 Y-17.233 E5.42166
G1 X-12.911 Y-18.213 E5.46694
G1 X-11.931 Y-19.023 E5.51222
G1 X-10.801 Y-19.623 E5.55778
G1 X-9.591 Y-19.983 E5.60274
G1 X-8.321 Y-20.113 E5.64821
G1 X8.269 Y-20.113 E6.23904
G1 X9.539 Y-19.983 E6.28451
G1 X10.749 Y-19.623 E6.32947
G1 X11.879 Y-19.023 E6.37503
G1 X12.859 Y-18.213 E6.42031
G1 X13.669 Y-17.233 E6.46559
G1 X14.269 Y-16.103 E6.51115
G1 X14.629 Y-14.893 E6.55611
G1 X14.759 Y-13.623 E6.60158
G1 X14.759 Y13.570 E7.57003
G1 X14.509 Y13.607 F7800.000
G1 X14.389 Y14.827 E7.61369 F540.000
G1 X14.039 Y15.997 E7.65718
G1 X13.459 Y17.077 E7.70084
G1 X12.689 Y18.027 E7.74439
G1 X11.739 Y18.797 E7.78794
G1 X10.659 Y19.377 E7.83160
G1 X9.489 Y19.727 E7.87509
G1 X8.269 Y19.847 E7.91875
G1 X-8.321 Y19.847 E8.50958
G1 X-9.541 Y19.727 E8.55324
G1 X-10.711 Y19.377 E8.59673
G1 X-11.791 Y18.797 E8.64039
G1 X-12.741 Y18.027 E8.68394
G1 X-13.511 Y17.077 E8.72749
G1 X-14.091 Y15.997 E8.77115
G1 X-14.441 Y14.827 E8.81465
G1 X-14.561 Y13.607 E8.85830
G1 X-14.561 Y-13.623 E9.82806
G1 X-14.441 Y-14.843 E9.87172
G1 X-14.091 Y-16.013 E9.91522
G1 X-13.511 Y-17.093 E9.95887
G1 X-12.741 Y-18.043 E10.00242
G1 X-11.791 Y-18.813 E10.04598
G1 X-10.711 Y-19.393 E10.08963
G1 X-9.541 Y-19.743 E10.13313
G1 X-8.321 Y-19.863 E10.17678
G1 X8.269 Y-19.863 E10.76762
G1 X9.489 Y-19.743 E10.81127
G1 X10.659 Y-19.393 E10.85477
G1 X11.739 Y-18.813 E10.89842
G1 X12.689 Y-18.043 E10.94198
G1 X13.459 Y-17.093 E10.98553
G1 X14.039 Y-16.013 E11.02918
G1 X14.389 Y-14.843 E11.07268
G1 X14.509 Y-13.623 E11.11634
G1 X14.509 Y13.570 E12.08479
G1 F1800.000 E9.08479
G1 Z1.350 F7800.000
G92 E0
G1 X7.449 Y12.793 F7800.000
G1 Z0.350 F7800.000
G1 E3.00000 F1800.000
G1 X7.144 Y12.793 E3.01086 F540.000
G1 X7.144 Y11.710 E3.04942
G1 X7.449 Y11.710 E3.06028
G1 X7.449 Y12.756 E3.09753
G1 X7.694 Y13.037 F7800.000
G1 X6.899 Y13.037 E3.12583 F540.000
G1 X6.899 Y11.465 E3.18182
G1 X7.694 Y11.465 E3.21011
G1 X7.694 Y13.001 E3.26479
G1 X7.939 Y13.282 F7800.000
G1 X6.655 Y13.282 E3.31052 F540.000
G1 X6.655 Y11.221 E3.38394
G1 X7.939 Y11.221 E3.42967
G1 X7.939 Y13.245 E3.50178
G1 X8.183 Y13.527 F7800.000
G1 X6.410 Y13.527 E3.56495 F540.000
G1 X6.410 Y10.976 E3.65580
G1 X8.183 Y10.976 E3.71896
G1 X8.183 Y13.490 E3.80851
G1 X7.971 Y13.405 F7800.000
G1 F1800.000 E0.80851
G1 Z1.350 F7800.000
G92 E0
G1 X-6.895 Y12.793 F7800.000
G1 Z0.350 F7800.000
G1 E3.00000 F1800.000
G1 X-7.498 Y12.793 E3.02148 F540.000
G1 X-7.498 Y11.710 E3.06003
G1 X-6.895 Y11.710 E3.08151
G1 X-6.895 Y12.756 E3.11876
G1 X-6.651 Y13.037 F7800.000
G1 X-7.743 Y13.037 E3.15767 F540.000
G1 X-7.743 Y11.465 E3.21366
G1 X-6.651 Y11.465 E3.25257
G1 X-6.651 Y13.001 E3.30726
G1 X-6.406 Y13.282 F7800.000
G1 X-7.988 Y13.282 E3.36360 F540.000
G1 X-7.988 Y11.221 E3.43702
G1 X-6.406 Y11.221 E3.49336
G1 X-6.406 Y13.245 E3.56548
G1 X-6.161 Y13.527 F7800.000
G1 X-8.233 Y13.527 E3.63926 F540.000
G1 X-8.233 Y10.976 E3.73011
G1 X-6.161 Y10.976 E3.80389
G1 X-6.161 Y13.490 E3.89343
G1 X-6.373 Y13.405 F7800.000
G1 X-7.274 Y12.598 F7800.000
G1 X-7.303 Y12.568 E3.89527 F360.000
G1 X-7.090 Y12.358 E3.90830 F360.000
G1 X-7.303 Y12.145 E3.92143 F360.000
G1 X-7.090 Y11.935 E3.93446 F360.000
G1 X-7.120 Y11.905 E3.93630 F360.000
G1 F1800.000 E0.93630
G1 Z1.350 F7800.000
G92 E0
G1 X-7.274 Y-11.905 F7800.000
G1 Z0.350 F7800.000
G1 E3.00000 F1800.000
G1 X-7.303 Y-11.935 E3.00184 F360.000
G1 X-7.090 Y-12.145 E3.01487 F360.000
G1 X-7.303 Y-12.358 E3.02800 F360.000
G1 X-7.090 Y-12.568 E3.04103 F360.000
G1 X-7.120 Y-12.598 E3.04287 F360.000
G1 F1800.000 E0.04287
G1 Z1.350 F7800.000
G92 E0
G1 X7.144 Y-12.793 F7800.000
G1 Z0.350 F7800.000
G1 E3.00000 F1800.000
G1 X7.449 Y-12.793 E3.01086 F540.000
G1 X7.449 Y-11.710 E3.04942
G1 X7.144 Y-11.710 E3.06028
G1 X7.144 Y-12.756 E3.09753
G1 X6.899 Y-13.037 F7800.000
G1 X7.694 Y-13.037 E3.12583 F540.000
G1 X7.694 Y-11.465 E3.18182
G1 X6.899 Y-11.465 E3.21011
G1 X6.899 Y-13.001 E3.26479
G1 X6.655 Y-13.282 F7800.000
G1 X7.939 Y-13.282 E3.31052 F540.000
G1 X7.939 Y-11.221 E3.38394
G1 X6.655 Y-11.221 E3.42967
G1 X6.655 Y-13.245 E3.50178
G1 X6.410 Y-13.527 F7800.000
G1 X8.183 Y-13.527 E3.56495 F540.000
G1 X8.183 Y-10.976 E3.65580
G1 X6.410 Y-10.976 E3.71896
G1 X6.410 Y-13.490 E3.80851
G1 X6.622 Y-13.404 F7800.000
G1 F1800.000 E0.80851
G1 Z1.350 F7800.000
G92 E0
G1 X-6.895 Y-12.793 F7800.000
G1 Z0.350 F7800.000
G1 E3.00000 F1800.000
G1 X-6.895 Y-11.710 E3.03856 F540.000
G1 X-7.498 Y-11.710 E3.06003
G1 X-7.498 Y-12.793 E3.09859
G1 X-6.932 Y-12.793 E3.11876
G1 X-6.651 Y-13.037 F7800.000
G1 X-6.651 Y-11.465 E3.17475 F540.000
G1 X-7.743 Y-11.465 E3.21366
G1 X-7.743 Y-13.037 E3.26965
G1 X-6.687 Y-13.037 E3.30726
G1 X-6.406 Y-13.282 F7800.000
G1 X-6.406 Y-11.221 E3.38068 F540.000
G1 X-7.988 Y-11.221 E3.43702
G1 X-7.988 Y-13.282 E3.51044
G1 X-6.443 Y-13.282 E3.56548
G1 X-6.161 Y-13.527 F7800.000
G1 X-6.161 Y-10.976 E3.65633 F540.000
G1 X-8.233 Y-10.976 E3.73011
G1 X-8.233 Y-13.527 E3.82096
G1 X-6.198 Y-13.527 E3.89343
G1 X-6.283 Y-13.315 F7800.000
G1 F1800.000 E0.89343
G1 Z1.550 F7800.000
G92 E0
G1 X-7.076 Y-12.586 F7800.000
G1 X-6.140 Y-15.586 F7800.000
G1 X-8.321 Y-20.113 F7800.000
G1 Z0.550 F7800.000
G1 E3.00000 F1800.000
G1 X8.269 Y-20.113 E3.33762 F1800
G1 X9.539 Y-19.983 E3.36360
G1 X10.749 Y-19.623 E3.38929
G1 X11.879 Y-19.023 E3.41533
G1 X12.859 Y-18.213 E3.44120
G1 X13.669 Y-17.233 E3.46707
G1 X14.269 Y-16.103 E3.49311
G1 X14.629 Y-14.893 E3.51880
G1 X14.759 Y-13.623 E3.54478
G1 X14.759 Y13.607 E4.09893
G1 X14.629 Y14.877 E4.12491
G1 X14.269 Y16.087 E4.15060
G1 X13.669 Y17.217 E4.17664
G1 X12.859 Y18.197 E4.20251
G1 X11.879 Y19.007 E4.22839
G1 X10.749 Y19.607 E4.25443
G1 X9.539 Y19.967 E4.28012
G1 X8.269 Y20.097 E4.30610
G1 X-8.321 Y20.097 E4.64371
G1 X-9.591 Y19.967 E4.66970
G1 X-10.801 Y19.607 E4.69539
G1 X-11.931 Y19.007 E4.72142
G1 X-12.911 Y18.197 E4.74730
G1 X-13.721 Y17.217 E4.77317
G1 X-14.321 Y16.087 E4.79921
G1 X-14.681 Y14.877 E4.82490
G1 X-14.811 Y13.607 E4.85088
G1 X-14.811 Y-13.623 E5.40503
G1 X-14.681 Y-14.893 E5.43101
G1 X-14.321 Y-16.103 E5.45670
G1 X-13.721 Y-17.233 E5.48274
G1 X-12.911 Y-18.213 E5.50861
G1 X-11.931 Y-19.023 E5.53449
G1 X-10.801 Y-19.623 E5.56052
G1 X-9.591 Y-19.983 E5.58621
G1 X-8.358 Y-20.109 E5.61145
G1 X-8.321 Y-19.863 F7800.000
G1 X8.269 Y-19.863 E5.94907 F1800
G1 X9.489 Y-19.743 E5.97401
G1 X10.659 Y-19.393 E5.99887
G1 X11.739 Y-18.813 E6.02381
G1 X12.689 Y-18.043 E6.04870
G1 X13.459 Y-17.093 E6.07359
G1 X14.039 Y-16.013 E6.09853
G1 X14.389 Y-14.843 E6.12339
G1 X14.509 Y-13.623 E6.14833
G1 X14.509 Y13.607 E6.70248
G1 X14.389 Y14.827 E6.72743
G1 X14.039 Y15.997 E6.75228
G1 X13.459 Y17.077 E6.77723
G1 X12.689 Y18.027 E6.80212
G1 X11.739 Y18.797 E6.82700
G1 X10.659 Y19.377 E6.85195
G1 X9.489 Y19.727 E6.87680
G1 X8.269 Y19.847 E6.90175
G1 X-8.321 Y19.847 E7.23937
G1 X-9.541 Y19.727 E7.26432
G1 X-10.711 Y19.377 E7.28917
G1 X-11.791 Y18.797 E7.31412
G1 X-12.741 Y18.027 E7.33900
G1 X-13.511 Y17.077 E7.36389
G1 X-14.091 Y15.997 E7.38884
G1 X-14.441 Y14.827 E7.41369
G1 X-14.561 Y13.607 E7.43864
G1 X-14.561 Y-13.623 E7.99279
G1 X-14.441 Y-14.843 E8.01773
G1 X-14.091 Y-16.013 E8.04259
G1 X-13.511 Y-17.093 E8.06753
G1 X-12.741 Y-18.043 E8.09242
G1 X-11.791 Y-18.813 E8.11731
G1 X-10.711 Y-19.393 E8.14225
G1 X-9.541 Y-19.743 E8.16711
G1 X-8.358 Y-19.859 E8.19131
G1 F1800.000 E5.19131
G1 Z1.550 F7800.000
G92 E0
G1 X-7.569 Y11.215 F7800.000
G1 Z0.550 F7800.000
G1 E3.00000 F1800.000
G1 X-6.826 Y11.215 E3.03088 F1800
G1 X-6.826 Y12.836 E3.09826
G1 X-7.569 Y12.836 E3.12914
G1 X-7.569 Y11.290 E3.19340
G1 X-8.069 Y13.336 F7800.000
G1 X-8.069 Y10.888 E3.29515 F1800
G1 X-8.069 Y10.715 E3.30931 F1800
G1 X-6.326 Y10.715 E3.45157
G1 X-6.326 Y10.888 E3.46574
G1 X-6.326 Y13.336 E3.56748 F1800
G1 X-7.994 Y13.336 E3.63682
G1 X-7.819 Y12.902 F7800.000
G1 F1800.000 E0.63682
G1 Z1.550 F7800.000
G92 E0
G1 X6.578 Y13.335 F7800.000
G1 Z0.550 F7800.000
G1 E3.00000 F1800.000
G1 X6.578 Y10.888 E3.10174 F1800
G1 X6.578 Y10.715 E3.11590 F1800
G1 X8.024 Y10.715 E3.23393
G1 X8.024 Y10.888 E3.24810
G1 X8.024 Y13.335 E3.34984 F1800
G1 X6.653 Y13.335 E3.40683
G1 X6.828 Y12.902 F7800.000
G1 X7.041 Y12.285 F7800.000
G1 X7.560 Y11.766 E3.45142 F1200
G1 X7.041 Y11.251 E3.49581 F1200
G1 X7.114 Y11.178 E3.50209 F1200
G1 X7.041 Y12.285 F7800.000
G1 X7.487 Y12.872 E3.54689 F1200
G1 X7.560 Y12.799 E3.55317 F1200
G1 F1800.000 E0.55317
G1 Z1.550 F7800.000
G92 E0
G1 X-7.159 Y12.468 F7800.000
G1 Z0.550 F7800.000
G1 E3.00000 F1800.000
G1 X-7.193 Y12.503 E3.00136 F1200
G1 X-7.236 Y12.064 E3.01386 F1200
G1 X-7.159 Y11.987 E3.01693 F1200
G1 X-7.236 Y11.582 E3.02861 F1200
G1 X-7.202 Y11.548 E3.02997 F1200
G1 F1800.000 E0.02997
G1 Z1.550 F7800.000
G92 E0
G1 X-7.193 Y-11.548 F7800.000
G1 Z0.550 F7800.000
G1 E3.00000 F1800.000
G1 X-7.236 Y-11.987 E3.01249 F1200
G1 X-7.159 Y-12.064 E3.01557 F1200
G1 X-7.236 Y-12.468 E3.02724 F1200
G1 X-7.202 Y-12.503 E3.02861 F1200
G1 X-7.159 Y-11.582 F7800.000
G1 X-7.193 Y-11.548 E3.02997 F1200
G1 F1800.000 E0.02997
G1 Z1.550 F7800.000
G92 E0
G1 X7.041 Y-11.766 F7800.000
G1 Z0.550 F7800.000
G1 E3.00000 F1800.000
G1 X7.560 Y-12.285 E3.04459 F1200
G1 X7.041 Y-12.799 E3.08898 F1200
G1 X7.114 Y-12.872 E3.09525 F1200
G1 X7.041 Y-11.766 F7800.000
G1 X7.487 Y-11.178 E3.14006 F1200
G1 X7.560 Y-11.251 E3.14633 F1200
G1 X8.024 Y-13.335 F7800.000
G1 X8.024 Y-10.888 E3.24808 F1800
G1 X8.024 Y-10.715 E3.26224 F1800
G1 X6.578 Y-10.715 E3.38027
G1 X6.578 Y-10.888 E3.39443
G1 X6.578 Y-13.335 E3.49617 F1800
G1 X7.949 Y-13.335 E3.55317
G1 X7.774 Y-12.902 F7800.000
G1 F1800.000 E0.55317
G1 Z1.550 F7800.000
G92 E0
G1 X-6.826 Y-12.836 F7800.000
G1 Z0.550 F7800.000
G1 E3.00000 F1800.000
G1 X-6.826 Y-11.215 E3.06738 F1800
G1 X-7.569 Y-11.215 E3.09826
G1 X-7.569 Y-12.836 E3.16564
G1 X-6.901 Y-12.836 E3.19340
G1 X-6.326 Y-13.336 F7800.000
G1 X-6.326 Y-10.888 E3.29515 F1800
G1 X-6.326 Y-10.715 E3.30931 F1800
G1 X-8.069 Y-10.715 E3.45157
G1 X-8.069 Y-10.888 E3.46574
G1 X-8.069 Y-13.336 E3.56748 F1800
G1 X-6.401 Y-13.336 E3.63682
G1 X-6.576 Y-12.902 F7800.000
G1 F1800.000 E0.63682
G1 Z1.750 F7800.000
G92 E0
G1 X-6.828 Y10.881 F7800.000
G1 Z0.750 F7800.000
G1 E3.00000 F1800.000
G1 X-6.828 Y12.814 E3.08037 F1800
G1 X-7.568 Y12.814 E3.11114
G1 X-7.568 Y10.881 E3.19151
G1 X-6.903 Y10.881 E3.21916
G1 X-6.328 Y13.314 F7800.000
G1 X-8.068 Y13.314 E3.29150 F1800
G1 X-8.068 Y10.465 E3.40998
G1 X-8.068 Y10.381 E3.41680 F1800
G1 X-6.328 Y10.381 E3.55884
G1 X-6.328 Y10.465 E3.56566
G1 X-6.328 Y13.239 E3.68102 F1800
G1 X-6.761 Y13.064 F7800.000
G1 F1800.000 E0.68102
G1 Z1.750 F7800.000
G92 E0
G1 X6.582 Y13.314 F7800.000
G1 Z0.750 F7800.000
G1 E3.00000 F1800.000
G1 X6.582 Y10.465 E3.11847 F1800
G1 X6.582 Y10.381 E3.12529 F1800
G1 X8.026 Y10.381 E3.24317
G1 X8.026 Y10.465 E3.24999
G1 X8.026 Y13.314 E3.36846 F1800
G1 X6.657 Y13.314 E3.42538
G1 X6.832 Y12.881 F7800.000
G1 X7.054 Y12.786 F7800.000
G1 X7.554 Y12.494 E3.45237 F1200
G1 X7.054 Y11.994 E3.48532 F1200
G1 X7.554 Y11.702 E3.51230 F1200
G1 X7.054 Y11.202 E3.54525 F1200
G1 X7.498 Y10.853 E3.57154 F1200
G1 X7.554 Y10.909 E3.57523 F1200
G1 X7.054 Y12.786 F7800.000
G1 X7.110 Y12.842 E3.57893 F1200
G1 F1800.000 E0.57893
G1 Z1.750 F7800.000
G92 E0
G1 X-7.163 Y12.095 F7800.000
G1 Z0.750 F7800.000
G1 E3.00000 F1800.000
G1 X-7.233 Y12.025 E3.00247 F1200
G1 X-7.163 Y11.671 E3.01149 F1200
G1 X-7.233 Y11.601 E3.01396 F1200
G1 X-7.163 Y11.246 E3.02297 F1200
G1 X-7.193 Y11.216 E3.02403 F1200
G1 X-7.163 Y12.095 F7800.000
G1 X-7.233 Y12.449 E3.03304 F1200
G1 X-7.203 Y12.479 E3.03410 F1200
G1 F1800.000 E0.03410
G1 Z1.750 F7800.000
G92 E0
G1 X-7.203 Y-11.216 F7800.000
G1 Z0.750 F7800.000
G1 E3.00000 F1800.000
G1 X-7.233 Y-11.246 E3.00106 F1200
G1 X-7.163 Y-11.601 E3.01007 F1200
G1 X-7.233 Y-11.671 E3.01254 F1200
G1 X-7.163 Y-12.025 E3.02156 F1200
G1 X-7.233 Y-12.095 E3.02403 F1200
G1 X-7.163 Y-12.449 E3.03304 F1200
G1 X-7.193 Y-12.479 E3.03410 F1200
G1 F1800.000 E0.03410
G1 Z1.750 F7800.000
G92 E0
G1 X7.054 Y-12.494 F7800.000
G1 Z0.750 F7800.000
G1 E3.00000 F1800.000
G1 X7.498 Y-12.842 E3.02629 F1200
G1 X7.554 Y-12.786 E3.02999 F1200
G1 X7.054 Y-12.494 F7800.000
G1 X7.554 Y-11.994 E3.06293 F1200
G1 X7.054 Y-11.702 E3.08992 F1200
G1 X7.554 Y-11.202 E3.12287 F1200
G1 X7.054 Y-10.909 E3.14986 F1200
G1 X7.110 Y-10.853 E3.15355 F1200
G1 X6.582 Y-13.314 F7800.000
G1 X8.026 Y-13.314 E3.21358 F1800
G1 X8.026 Y-10.465 E3.33206
G1 X8.026 Y-10.381 E3.33888 F1800
G1 X6.582 Y-10.381 E3.45676
G1 X6.582 Y-10.465 E3.46358
G1 X6.582 Y-13.239 E3.57893 F1800
G1 X7.015 Y-13.064 F7800.000
G1 F1800.000 E0.57893
G1 Z1.750 F7800.000
G92 E0
G1 X-6.828 Y-12.814 F7800.000
G1 Z0.750 F7800.000
G1 E3.00000 F1800.000
G1 X-6.828 Y-10.881 E3.08037 F1800
G1 X-7.568 Y-10.881 E3.11114
G1 X-7.568 Y-12.814 E3.19151
G1 X-6.903 Y-12.814 E3.21916
G1 X-6.328 Y-13.314 F7800.000
G1 X-6.328 Y-10.465 E3.33763 F1800
G1 X-6.328 Y-10.381 E3.34445 F1800
G1 X-8.068 Y-10.381 E3.48650
G1 X-8.068 Y-10.465 E3.49332
G1 X-8.068 Y-13.314 E3.61179 F1800
G1 X-6.403 Y-13.314 E3.68102
G1 X-6.578 Y-12.881 F7800.000
G1 F1800.000 E0.68102
G1 Z1.950 F7800.000
G92 E0
G1 X-6.830 Y10.489 F7800.000
G1 Z0.950 F7800.000
G1 E3.00000 F1800.000
G1 X-6.830 Y12.793 E3.09582 F1800
G1 X-7.567 Y12.793 E3.12647
G1 X-7.567 Y10.489 E3.22229
G1 X-6.905 Y10.489 E3.24982
G1 X-6.330 Y13.293 F7800.000
G1 X-8.067 Y13.293 E3.32205 F1800
G1 X-8.067 Y10.131 E3.45352
G1 X-8.067 Y9.989 E3.46515 F1800
G1 X-6.330 Y9.989 E3.60697
G1 X-6.330 Y10.131 E3.61860
G1 X-6.330 Y13.218 E3.74695 F1800
G1 X-6.763 Y13.043 F7800.000
G1 F1800.000 E0.74695
G1 Z1.950 F7800.000
G92 E0
G1 X6.586 Y13.293 F7800.000
G1 Z0.950 F7800.000
G1 E3.00000 F1800.000
G1 X6.586 Y10.131 E3.13147 F1800
G1 X6.586 Y9.989 E3.14310 F1800
G1 X8.028 Y9.989 E3.26083
G1 X8.028 Y10.131 E3.27246
G1 X8.028 Y13.293 E3.40393 F1800
G1 X6.661 Y13.293 E3.46076
G1 X6.836 Y12.860 F7800.000
G1 X7.053 Y12.352 F7800.000
G1 X7.560 Y11.845 E3.49935 F1200
G1 X7.053 Y11.437 E3.53441 F1200
G1 X7.560 Y10.930 E3.57300 F1200
G1 X7.118 Y10.456 E3.60787 F1200
G1 X7.053 Y10.521 E3.61280 F1200
G1 X7.053 Y12.352 F7800.000
G1 X7.496 Y12.826 E3.64767 F1200
G1 X7.560 Y12.761 E3.65260 F1200
G1 F1800.000 E0.65260
G1 Z1.950 F7800.000
G92 E0
G1 X-7.165 Y12.429 F7800.000
G1 Z0.950 F7800.000
G1 E3.00000 F1800.000
G1 X-7.194 Y12.458 E3.00099 F1200
G1 X-7.231 Y12.085 E3.01004 F1200
G1 X-7.165 Y12.018 E3.01231 F1200
G1 X-7.231 Y11.674 E3.02077 F1200
G1 X-7.165 Y11.608 E3.02303 F1200
G1 X-7.231 Y11.264 E3.03149 F1200
G1 X-7.165 Y11.197 E3.03375 F1200
G1 X-7.231 Y10.853 E3.04221 F1200
