; generated by Slic3r 1.0.0RC2 on 2014-07-29 at 19:38:35

; removing support 
; do each object first, then proceed to next one
; 
; set resolution to 0.01 to improve rendering speed on large meshes.
; 
; removed skirt

; layer_height = 0.2
; perimeters = 6
; top_solid_layers = 4
; bottom_solid_layers = 4
; fill_density = 1
; perimeter_speed = 30
; infill_speed = 60
; travel_speed = 130
; nozzle_diameter = 0.5
; filament_diameter = 1.75
; extrusion_multiplier = 1
; perimeters extrusion width = 0.50mm
; infill extrusion width = 1.02mm
; solid infill extrusion width = 0.85mm
; top infill extrusion width = 0.10mm
; first layer extrusion width = 0.17mm

G21 ; set units to millimeters
G28
;M140 S110;
;M104 S180;
;M190 S110;
;M109 S215;
G90;
G92 E0;
G1 E5 S15;
G92 E0;
;G4 P5000;
G90 ; use absolute coordinates
G92 E0
M82 ; use absolute distances for extrusion
G1 F1800.000 E-3.00000
G92 E0
G1 Z0.350 F7800.000
G1 X1.100 Y26.930 F7800.000
G1 E3.00000 F1800.000
G1 X-1.480 Y26.920 E3.09188 F540.000
G1 X-2.520 Y26.860 E3.12898
G1 X-3.150 Y26.790 E3.15156
G1 X-5.270 Y26.460 E3.22797
G1 X-5.960 Y26.310 E3.25312
G1 X-8.030 Y25.750 E3.32949
G1 X-8.670 Y25.550 E3.35337
G1 X-10.670 Y24.780 E3.42969
G1 X-11.280 Y24.510 E3.45345
G1 X-13.190 Y23.540 E3.52974
G1 X-13.790 Y23.190 E3.55448
G1 X-15.590 Y22.020 E3.63093
G1 X-16.130 Y21.630 E3.65466
G1 X-17.800 Y20.280 E3.73113
G1 X-18.310 Y19.820 E3.75559
G1 X-19.830 Y18.300 E3.83215
G1 X-20.260 Y17.820 E3.85510
G1 X-21.630 Y16.130 E3.93258
G1 X-22.020 Y15.590 E3.95630
G1 X-23.190 Y13.800 E4.03246
G1 X-23.550 Y13.180 E4.05799
G1 X-24.520 Y11.260 E4.13460
G1 X-24.790 Y10.660 E4.15803
G1 X-25.560 Y8.660 E4.23436
G1 X-25.760 Y8.020 E4.25824
G1 X-26.320 Y5.950 E4.33461
G1 X-26.470 Y5.260 E4.35976
G1 X-26.800 Y3.140 E4.43617
G1 X-26.870 Y2.510 E4.45874
G1 X-26.930 Y1.470 E4.49584
G1 X-26.930 Y-1.480 E4.60090
G1 X-26.870 Y-2.520 E4.63800
G1 X-26.800 Y-3.150 E4.66057
G1 X-26.470 Y-5.270 E4.73699
G1 X-26.320 Y-5.960 E4.76213
G1 X-25.760 Y-8.030 E4.83850
G1 X-25.560 Y-8.670 E4.86238
G1 X-24.790 Y-10.670 E4.93871
G1 X-24.520 Y-11.270 E4.96214
G1 X-23.550 Y-13.190 E5.03875
G1 X-23.190 Y-13.810 E5.06428
G1 X-22.020 Y-15.600 E5.14044
G1 X-21.640 Y-16.130 E5.16366
G1 X-20.290 Y-17.800 E5.24014
G1 X-19.830 Y-18.310 E5.26460
G1 X-18.310 Y-19.830 E5.34116
G1 X-17.800 Y-20.290 E5.36562
G1 X-16.130 Y-21.640 E5.44209
G1 X-15.590 Y-22.030 E5.46582
G1 X-13.790 Y-23.200 E5.54227
G1 X-13.190 Y-23.550 E5.56701
G1 X-11.280 Y-24.520 E5.64330
G1 X-10.670 Y-24.790 E5.66706
G1 X-8.670 Y-25.560 E5.74338
G1 X-8.030 Y-25.760 E5.76726
G1 X-5.960 Y-26.320 E5.84363
G1 X-5.270 Y-26.470 E5.86878
G1 X-3.150 Y-26.800 E5.94519
G1 X-2.520 Y-26.870 E5.96777
G1 X-1.480 Y-26.930 E6.00487
G1 X1.470 Y-26.930 E6.10993
G1 X2.510 Y-26.870 E6.14703
G1 X3.140 Y-26.800 E6.16960
G1 X5.260 Y-26.470 E6.24601
G1 X5.950 Y-26.320 E6.27116
G1 X8.020 Y-25.760 E6.34753
G1 X8.660 Y-25.560 E6.37141
G1 X10.660 Y-24.790 E6.44773
G1 X11.260 Y-24.520 E6.47116
G1 X13.180 Y-23.550 E6.54777
G1 X13.800 Y-23.190 E6.57331
G1 X15.590 Y-22.020 E6.64947
G1 X16.120 Y-21.640 E6.67269
G1 X17.790 Y-20.290 E6.74917
G1 X18.300 Y-19.830 E6.77363
G1 X19.820 Y-18.310 E6.85018
G1 X20.280 Y-17.800 E6.87464
G1 X21.630 Y-16.130 E6.95112
G1 X22.020 Y-15.590 E6.97484
G1 X23.190 Y-13.790 E7.05130
G1 X23.540 Y-13.190 E7.07604
G1 X24.510 Y-11.280 E7.15233
G1 X24.780 Y-10.670 E7.17609
G1 X25.550 Y-8.670 E7.25241
G1 X25.750 Y-8.030 E7.27629
G1 X26.310 Y-5.960 E7.35266
G1 X26.460 Y-5.270 E7.37781
G1 X26.790 Y-3.150 E7.45422
G1 X26.860 Y-2.520 E7.47679
G1 X26.920 Y-1.480 E7.51389
G1 X26.920 Y1.470 E7.61895
G1 X26.860 Y2.510 E7.65605
G1 X26.790 Y3.140 E7.67863
G1 X26.460 Y5.260 E7.75504
G1 X26.310 Y5.950 E7.78019
G1 X25.750 Y8.020 E7.85656
G1 X25.550 Y8.660 E7.88044
G1 X24.780 Y10.660 E7.95676
G1 X24.510 Y11.270 E7.98052
G1 X23.540 Y13.180 E8.05681
G1 X23.190 Y13.780 E8.08155
G1 X22.020 Y15.580 E8.15800
G1 X21.630 Y16.120 E8.18173
G1 X20.280 Y17.790 E8.25820
G1 X19.820 Y18.300 E8.28266
G1 X18.300 Y19.820 E8.35922
G1 X17.790 Y20.280 E8.38368
G1 X16.120 Y21.630 E8.46015
G1 X15.590 Y22.010 E8.48338
G1 X13.800 Y23.180 E8.55954
G1 X13.180 Y23.540 E8.58507
G1 X11.260 Y24.510 E8.66168
G1 X10.660 Y24.780 E8.68511
G1 X8.660 Y25.550 E8.76144
G1 X8.020 Y25.750 E8.78532
G1 X5.950 Y26.310 E8.86169
G1 X5.260 Y26.460 E8.88683
G1 X3.140 Y26.790 E8.96324
G1 X2.510 Y26.860 E8.98582
G1 X1.137 Y26.929 E9.03479
G1 X1.100 Y26.680 F7800.000
G1 X-1.470 Y26.670 E9.12632 F540.000
G1 X-2.510 Y26.610 E9.16342
G1 X-3.110 Y26.550 E9.18489
G1 X-5.230 Y26.220 E9.26130
G1 X-5.900 Y26.080 E9.28568
G1 X-7.970 Y25.520 E9.36205
G1 X-8.580 Y25.320 E9.38491
G1 X-10.580 Y24.550 E9.46123
G1 X-11.170 Y24.290 E9.48420
G1 X-13.080 Y23.320 E9.56049
G1 X-13.650 Y22.990 E9.58394
G1 X-15.450 Y21.820 E9.66040
G1 X-15.980 Y21.440 E9.68363
G1 X-17.650 Y20.090 E9.76010
G1 X-18.140 Y19.650 E9.78356
G1 X-19.660 Y18.130 E9.86011
G1 X-20.070 Y17.670 E9.88206
G1 X-21.440 Y15.970 E9.95981
G1 X-21.820 Y15.460 E9.98246
G1 X-22.990 Y13.670 E10.05862
G1 X-23.330 Y13.070 E10.08318
G1 X-24.300 Y11.150 E10.15979
G1 X-24.560 Y10.570 E10.18243
G1 X-25.330 Y8.570 E10.25875
G1 X-25.530 Y7.960 E10.28162
G1 X-26.090 Y5.890 E10.35799
G1 X-26.230 Y5.220 E10.38236
G1 X-26.560 Y3.100 E10.45877
G1 X-26.620 Y2.500 E10.48025
G1 X-26.690 Y1.100 E10.53017
G1 X-26.690 Y-1.110 E10.60888
G1 X-26.620 Y-2.510 E10.65880
G1 X-26.560 Y-3.110 E10.68027
G1 X-26.230 Y-5.230 E10.75668
G1 X-26.090 Y-5.900 E10.78106
G1 X-25.530 Y-7.970 E10.85743
G1 X-25.330 Y-8.580 E10.88029
G1 X-24.560 Y-10.580 E10.95661
G1 X-24.300 Y-11.160 E10.97925
G1 X-23.330 Y-13.080 E11.05586
G1 X-22.990 Y-13.680 E11.08042
G1 X-21.820 Y-15.470 E11.15658
G1 X-21.450 Y-15.980 E11.17902
G1 X-20.100 Y-17.650 E11.25550
G1 X-19.660 Y-18.140 E11.27895
G1 X-18.140 Y-19.660 E11.35551
G1 X-17.650 Y-20.100 E11.37896
G1 X-15.980 Y-21.450 E11.45544
G1 X-15.450 Y-21.830 E11.47866
G1 X-13.650 Y-23.000 E11.55512
G1 X-13.080 Y-23.330 E11.57857
G1 X-11.170 Y-24.300 E11.65487
G1 X-10.580 Y-24.560 E11.67783
G1 X-8.580 Y-25.330 E11.75415
G1 X-7.970 Y-25.530 E11.77701
G1 X-5.900 Y-26.090 E11.85338
G1 X-5.230 Y-26.230 E11.87776
G1 X-3.110 Y-26.560 E11.95417
G1 X-2.510 Y-26.620 E11.97565
G1 X-1.110 Y-26.690 E12.02557
G1 X1.100 Y-26.690 E12.10427
G1 X2.500 Y-26.620 E12.15420
G1 X3.100 Y-26.560 E12.17567
G1 X5.220 Y-26.230 E12.25208
G1 X5.890 Y-26.090 E12.27646
G1 X7.960 Y-25.530 E12.35283
G1 X8.570 Y-25.330 E12.37569
G1 X10.570 Y-24.560 E12.45201
G1 X11.150 Y-24.300 E12.47465
G1 X13.070 Y-23.330 E12.55126
G1 X13.670 Y-22.990 E12.57582
G1 X15.460 Y-21.820 E12.65198
G1 X15.970 Y-21.450 E12.67442
G1 X17.640 Y-20.100 E12.75089
G1 X18.130 Y-19.660 E12.77435
G1 X19.650 Y-18.140 E12.85090
G1 X20.090 Y-17.650 E12.87436
G1 X21.440 Y-15.980 E12.95083
G1 X21.820 Y-15.450 E12.97406
G1 X22.990 Y-13.650 E13.05052
G1 X23.320 Y-13.080 E13.07397
G1 X24.290 Y-11.170 E13.15027
G1 X24.550 Y-10.580 E13.17323
G1 X25.320 Y-8.580 E13.24955
G1 X25.520 Y-7.970 E13.27241
G1 X26.080 Y-5.900 E13.34878
G1 X26.220 Y-5.230 E13.37316
G1 X26.550 Y-3.110 E13.44957
G1 X26.610 Y-2.510 E13.47104
G1 X26.680 Y-1.110 E13.52097
G1 X26.680 Y1.100 E13.59967
G1 X26.610 Y2.500 E13.64959
G1 X26.550 Y3.100 E13.67107
G1 X26.220 Y5.220 E13.74748
G1 X26.080 Y5.890 E13.77186
G1 X25.520 Y7.960 E13.84823
G1 X25.320 Y8.570 E13.87109
G1 X24.550 Y10.570 E13.94741
G1 X24.290 Y11.160 E13.97037
G1 X23.320 Y13.070 E14.04667
G1 X22.990 Y13.640 E14.07012
G1 X21.820 Y15.440 E14.14658
G1 X21.440 Y15.970 E14.16980
G1 X20.090 Y17.640 E14.24628
G1 X19.650 Y18.130 E14.26974
G1 X18.130 Y19.650 E14.34629
G1 X17.640 Y20.090 E14.36974
G1 X15.970 Y21.440 E14.44622
G1 X15.460 Y21.810 E14.46866
G1 X13.670 Y22.980 E14.54482
G1 X13.070 Y23.320 E14.56938
G1 X11.150 Y24.290 E14.64599
G1 X10.570 Y24.550 E14.66863
G1 X8.570 Y25.320 E14.74495
G1 X7.960 Y25.520 E14.76781
G1 X5.890 Y26.080 E14.84418
G1 X5.220 Y26.220 E14.86856
G1 X3.100 Y26.550 E14.94497
G1 X2.500 Y26.610 E14.96644
G1 X1.137 Y26.679 E15.01506
G1 F1800.000 E12.01506
G92 E0
G1 X4.668 Y18.220 F7800.000
G1 E3.00000 F1800.000
G1 X4.668 Y15.630 E3.09222 F540.000
G1 X3.396 Y15.976 E3.13914
G1 X1.707 Y16.243 E3.20005
G1 X0.000 Y16.333 E3.26093
G1 X-1.707 Y16.243 E3.32182
G1 X-3.396 Y15.976 E3.38272
G1 X-4.668 Y15.630 E3.42965
G1 X-4.668 Y18.220 E3.52187
G1 X-5.820 Y17.911 E3.56434
G1 X-7.660 Y17.205 E3.63454
G1 X-9.416 Y16.310 E3.70474
G1 X-11.070 Y15.236 E3.77495
G1 X-12.602 Y13.995 E3.84515
G1 X-13.995 Y12.602 E3.91536
G1 X-15.236 Y11.070 E3.98556
G1 X-16.310 Y9.416 E4.05576
G1 X-17.205 Y7.660 E4.12597
G1 X-17.911 Y5.820 E4.19617
G1 X-18.421 Y3.916 E4.26637
G1 X-18.730 Y1.969 E4.33658
G1 X-18.833 Y-0.000 E4.40678
G1 X-18.730 Y-1.969 E4.47698
G1 X-18.421 Y-3.916 E4.54719
G1 X-17.911 Y-5.820 E4.61739
G1 X-17.209 Y-7.649 E4.68717
G1 X-16.310 Y-9.416 E4.75779
G1 X-15.236 Y-11.070 E4.82800
G1 X-13.995 Y-12.602 E4.89820
G1 X-12.602 Y-13.995 E4.96841
G1 X-11.070 Y-15.236 E5.03861
G1 X-9.416 Y-16.310 E5.10881
G1 X-7.660 Y-17.205 E5.17902
G1 X-5.819 Y-17.911 E5.24925
G1 X-3.418 Y-18.542 E5.33766
G1 X-3.418 Y-15.972 E5.42917
G1 X-1.707 Y-16.243 E5.49084
G1 X-0.000 Y-16.333 E5.55173
G1 X1.713 Y-16.243 E5.61281
G1 X2.918 Y-16.052 E5.65626
G1 X2.918 Y-18.579 E5.74628
G1 X3.901 Y-18.424 E5.78172
G1 X5.819 Y-17.911 E5.85245
G1 X7.660 Y-17.205 E5.92266
G1 X9.416 Y-16.310 E5.99286
G1 X11.070 Y-15.236 E6.06307
G1 X12.602 Y-13.995 E6.13327
G1 X13.995 Y-12.602 E6.20348
G1 X15.236 Y-11.070 E6.27368
G1 X16.310 Y-9.416 E6.34388
G1 X17.205 Y-7.660 E6.41409
G1 X17.911 Y-5.820 E6.48429
G1 X18.421 Y-3.916 E6.55449
G1 X18.730 Y-1.969 E6.62470
G1 X18.833 Y0.000 E6.69490
G1 X18.730 Y1.969 E6.76511
G1 X18.421 Y3.916 E6.83531
G1 X17.911 Y5.820 E6.90551
G1 X17.205 Y7.660 E6.97572
G1 X16.310 Y9.416 E7.04592
G1 X15.236 Y11.070 E7.11612
G1 X13.995 Y12.602 E7.18633
G1 X12.602 Y13.995 E7.25653
G1 X11.070 Y15.236 E7.32673
G1 X9.416 Y16.310 E7.39694
G1 X7.660 Y17.205 E7.46714
G1 X5.820 Y17.911 E7.53734
G1 X4.703 Y18.210 E7.57851
G1 X4.912 Y17.901 F7800.000
G1 X4.912 Y15.310 E7.67077 F540.000
G1 X3.345 Y15.736 E7.72862
G1 X1.682 Y15.999 E7.78860
G1 X0.000 Y16.088 E7.84857
G1 X-1.682 Y15.999 E7.90854
G1 X-3.345 Y15.736 E7.96852
G1 X-4.913 Y15.310 E8.02637
G1 X-4.913 Y17.901 E8.11863
G1 X-5.744 Y17.678 E8.14928
G1 X-7.560 Y16.981 E8.21857
G1 X-9.294 Y16.097 E8.28786
G1 X-10.926 Y15.038 E8.35715
G1 X-12.438 Y13.813 E8.42644
G1 X-13.813 Y12.438 E8.49574
G1 X-15.038 Y10.926 E8.56502
G1 X-16.097 Y9.294 E8.63432
G1 X-16.981 Y7.560 E8.70360
G1 X-17.678 Y5.744 E8.77289
G1 X-18.181 Y3.865 E8.84218
G1 X-18.486 Y1.943 E8.91147
G1 X-18.588 Y-0.000 E8.98076
G1 X-18.486 Y-1.943 E9.05005
G1 X-18.181 Y-3.865 E9.11935
G1 X-17.678 Y-5.744 E9.18864
G1 X-16.985 Y-7.549 E9.25751
G1 X-16.097 Y-9.294 E9.32721
G1 X-15.038 Y-10.926 E9.39650
G1 X-13.813 Y-12.438 E9.46579
G1 X-12.438 Y-13.813 E9.53508
G1 X-10.926 Y-15.038 E9.60437
G1 X-9.294 Y-16.097 E9.67366
G1 X-7.560 Y-16.981 E9.74295
G1 X-5.744 Y-17.678 E9.81225
G1 X-3.663 Y-18.224 E9.88888
G1 X-3.663 Y-15.651 E9.98053
G1 X-3.345 Y-15.736 E9.99225
G1 X-1.682 Y-15.999 E10.05222
G1 X-0.000 Y-16.088 E10.11219
G1 X1.687 Y-15.999 E10.17236
G1 X3.162 Y-15.765 E10.22556
G1 X3.162 Y-18.293 E10.31558
G1 X3.850 Y-18.184 E10.34035
G1 X5.744 Y-17.678 E10.41018
G1 X7.560 Y-16.981 E10.47947
G1 X9.294 Y-16.097 E10.54876
G1 X10.926 Y-15.038 E10.61805
G1 X12.438 Y-13.813 E10.68734
G1 X13.813 Y-12.438 E10.75663
G1 X15.038 Y-10.926 E10.82592
G1 X16.097 Y-9.294 E10.89521
G1 X16.981 Y-7.560 E10.96450
G1 X17.678 Y-5.744 E11.03379
G1 X18.181 Y-3.865 E11.10308
G1 X18.486 Y-1.943 E11.17237
G1 X18.588 Y0.000 E11.24166
G1 X18.486 Y1.943 E11.31095
G1 X18.181 Y3.865 E11.38024
G1 X17.678 Y5.744 E11.44953
G1 X16.981 Y7.560 E11.51882
G1 X16.097 Y9.294 E11.58811
G1 X15.038 Y10.926 E11.65740
G1 X13.813 Y12.438 E11.72669
G1 X12.438 Y13.813 E11.79598
G1 X10.926 Y15.038 E11.86527
G1 X9.294 Y16.097 E11.93456
G1 X7.560 Y16.981 E12.00385
G1 X5.744 Y17.678 E12.07314
G1 X4.948 Y17.891 E12.10249
G1 F1800.000 E9.10249
G92 E0
G1 X2.729 Y8.400 F7800.000
G1 E3.00000 F1800.000
G1 X1.836 Y8.640 E3.03293 F540.000
G1 X0.923 Y8.784 E3.06585
G1 X0.000 Y8.833 E3.09878
G1 X-0.923 Y8.784 E3.13170
G1 X-1.836 Y8.640 E3.16463
G1 X-2.729 Y8.400 E3.19756
G1 X-3.593 Y8.069 E3.23048
G1 X-4.416 Y7.649 E3.26341
G1 X-5.192 Y7.146 E3.29634
G1 X-5.910 Y6.564 E3.32926
G1 X-6.564 Y5.910 E3.36219
G1 X-7.146 Y5.192 E3.39511
G1 X-7.649 Y4.416 E3.42804
G1 X-8.069 Y3.593 E3.46097
G1 X-8.400 Y2.729 E3.49389
G1 X-8.640 Y1.836 E3.52682
G1 X-8.784 Y0.923 E3.55974
G1 X-8.833 Y0.000 E3.59267
G1 X-8.784 Y-0.923 E3.62560
G1 X-8.640 Y-1.836 E3.65852
G1 X-8.400 Y-2.729 E3.69145
G1 X-8.069 Y-3.593 E3.72437
G1 X-7.649 Y-4.416 E3.75730
G1 X-7.146 Y-5.192 E3.79023
G1 X-6.564 Y-5.910 E3.82315
G1 X-5.914 Y-6.560 E3.85589
G1 X-5.192 Y-7.146 E3.88900
G1 X-4.416 Y-7.649 E3.92193
G1 X-3.593 Y-8.069 E3.95486
G1 X-2.729 Y-8.400 E3.98778
G1 X-1.836 Y-8.640 E4.02071
G1 X-0.923 Y-8.784 E4.05363
G1 X-0.000 Y-8.833 E4.08656
G1 X0.918 Y-8.785 E4.11930
G1 X1.836 Y-8.640 E4.15241
G1 X2.729 Y-8.400 E4.18534
G1 X3.593 Y-8.069 E4.21826
G1 X4.416 Y-7.649 E4.25119
G1 X5.192 Y-7.146 E4.28412
G1 X5.910 Y-6.564 E4.31704
G1 X6.564 Y-5.910 E4.34997
G1 X7.146 Y-5.192 E4.38290
G1 X7.649 Y-4.416 E4.41582
G1 X8.069 Y-3.593 E4.44875
G1 X8.400 Y-2.729 E4.48167
G1 X8.640 Y-1.836 E4.51460
G1 X8.784 Y-0.923 E4.54753
G1 X8.833 Y0.000 E4.58045
G1 X8.784 Y0.923 E4.61338
G1 X8.640 Y1.836 E4.64630
G1 X8.400 Y2.729 E4.67923
G1 X8.069 Y3.593 E4.71216
G1 X7.649 Y4.416 E4.74508
G1 X7.146 Y5.192 E4.77801
G1 X6.564 Y5.910 E4.81094
G1 X5.910 Y6.564 E4.84386
G1 X5.192 Y7.146 E4.87679
G1 X4.416 Y7.649 E4.90971
G1 X3.593 Y8.069 E4.94264
G1 X2.764 Y8.387 E4.97426
G1 X2.654 Y8.167 F7800.000
G1 X1.785 Y8.400 E5.00627 F378.000
G1 X0.898 Y8.541 E5.03828
G1 X0.000 Y8.588 E5.07030
G1 X-0.898 Y8.541 E5.10231
G1 X-1.785 Y8.400 E5.13432
G1 X-2.654 Y8.167 E5.16633
G1 X-3.493 Y7.845 E5.19835
G1 X-4.294 Y7.437 E5.23036
G1 X-5.048 Y6.948 E5.26237
G1 X-5.746 Y6.382 E5.29438
G1 X-6.382 Y5.746 E5.32640
G1 X-6.948 Y5.048 E5.35841
G1 X-7.437 Y4.294 E5.39042
G1 X-7.845 Y3.493 E5.42243
G1 X-8.167 Y2.654 E5.45445
G1 X-8.400 Y1.785 E5.48646
G1 X-8.541 Y0.898 E5.51847
G1 X-8.588 Y0.000 E5.55048
G1 X-8.541 Y-0.898 E5.58250
G1 X-8.400 Y-1.785 E5.61451
G1 X-8.167 Y-2.654 E5.64652
G1 X-7.845 Y-3.493 E5.67853
G1 X-7.437 Y-4.294 E5.71055
G1 X-6.948 Y-5.048 E5.74256
G1 X-6.382 Y-5.746 E5.77457
G1 X-5.750 Y-6.378 E5.80640
G1 X-5.048 Y-6.948 E5.83859
G1 X-4.294 Y-7.437 E5.87061
G1 X-3.493 Y-7.845 E5.90262
G1 X-2.654 Y-8.167 E5.93463
G1 X-1.785 Y-8.400 E5.96665
G1 X-0.898 Y-8.541 E5.99866
G1 X-0.000 Y-8.588 E6.03067
G1 X0.892 Y-8.541 E6.06250
G1 X1.785 Y-8.400 E6.09469
G1 X2.654 Y-8.167 E6.12671
G1 X3.493 Y-7.845 E6.15872
G1 X4.294 Y-7.437 E6.19073
G1 X5.048 Y-6.948 E6.22275
G1 X5.746 Y-6.382 E6.25476
G1 X6.382 Y-5.746 E6.28677
G1 X6.948 Y-5.048 E6.31878
G1 X7.437 Y-4.294 E6.35080
G1 X7.845 Y-3.493 E6.38281
G1 X8.167 Y-2.654 E6.41482
G1 X8.400 Y-1.785 E6.44683
G1 X8.541 Y-0.898 E6.47885
G1 X8.588 Y0.000 E6.51086
G1 X8.541 Y0.898 E6.54287
G1 X8.400 Y1.785 E6.57488
G1 X8.167 Y2.654 E6.60690
G1 X7.845 Y3.493 E6.63891
G1 X7.437 Y4.294 E6.67092
G1 X6.948 Y5.048 E6.70293
G1 X6.382 Y5.746 E6.73495
G1 X5.746 Y6.382 E6.76696
G1 X5.048 Y6.948 E6.79897
G1 X4.294 Y7.437 E6.83098
G1 X3.493 Y7.845 E6.86300
G1 X2.688 Y8.154 E6.89370
G1 X2.599 Y8.406 F7800.000
G1 F1800.000 E3.89370
G92 E0
G1 X3.689 Y16.921 F7800.000
G1 E3.00000 F1800.000
G1 X3.689 Y18.815 E3.06747 F540.000
G1 X2.416 Y19.017 E3.11336
G1 X2.416 Y18.060 E3.14743
G1 X-0.000 Y18.187 E3.23359
G1 X-2.416 Y18.060 E3.31976
G1 X-2.416 Y19.017 E3.35383
G1 X-3.689 Y18.815 E3.39971
G1 X-3.689 Y16.921 E3.46719
G1 X-1.810 Y17.218 E3.53494
G1 X0.000 Y17.313 E3.59948
G1 X1.810 Y17.218 E3.66402
G1 X3.653 Y16.926 E3.73047
G1 X3.551 Y16.695 F7800.000
G1 X3.934 Y16.591 E3.74460 F540.000
G1 X3.934 Y19.024 E3.83127
G1 X2.171 Y19.303 E3.89481
G1 X2.171 Y18.318 E3.92990
G1 X-0.000 Y18.432 E4.00734
G1 X-2.171 Y18.318 E4.08477
G1 X-2.171 Y19.303 E4.11986
G1 X-3.934 Y19.024 E4.18340
