; generated by Slic3r 1.0.0RC2 on 2014-07-30 at 00:35:35

; removing support 
; do each object first, then proceed to next one
; 
; set resolution to 0.01 to improve rendering speed on large meshes.
; 
; removed skirt

; layer_height = 0.2
; perimeters = 6
; top_solid_layers = 4
; bottom_solid_layers = 4
; fill_density = 1
; perimeter_speed = 30
; infill_speed = 60
; travel_speed = 130
; nozzle_diameter = 0.5
; filament_diameter = 1.75
; extrusion_multiplier = 1
; perimeters extrusion width = 0.50mm
; infill extrusion width = 1.02mm
; solid infill extrusion width = 0.85mm
; top infill extrusion width = 0.10mm
; first layer extrusion width = 0.17mm

G21 ; set units to millimeters
G28
;M140 S110;
;M104 S180;
;M190 S110;
;M109 S215;
G90;
G92 E0;
G1 E5 S15;
G92 E0;
;G4 P5000;
G90 ; use absolute coordinates
G92 E0
M82 ; use absolute distances for extrusion
G1 F1800.000 E-3.00000
G1 Z1.350 F7800.000
G92 E0
G1 X10.360 Y-4.940 F7800.000
G1 Z0.350 F7800.000
G1 E3.00000 F1800.000
G1 X10.610 Y-4.390 E3.02152 F540.000
G1 X10.800 Y-3.900 E3.04023
G1 X11.010 Y-3.270 E3.06388
G1 X11.150 Y-2.760 E3.08272
G1 X11.300 Y-2.050 E3.10856
G1 X11.380 Y-1.540 E3.12695
G1 X11.450 Y-0.900 E3.14988
G1 X11.480 Y-0.370 E3.16878
G1 X11.480 Y0.370 E3.19514
G1 X11.450 Y0.890 E3.21369
G1 X11.380 Y1.530 E3.23661
G1 X11.300 Y2.040 E3.25500
G1 X11.150 Y2.750 E3.28084
G1 X11.010 Y3.260 E3.29968
G1 X10.800 Y3.890 E3.32333
G1 X10.610 Y4.380 E3.34204
G1 X10.160 Y5.350 E3.38013
G1 X9.710 Y6.130 E3.41220
G1 X9.250 Y6.800 E3.44114
G1 X7.710 Y8.870 E3.53302
G1 X6.670 Y9.970 E3.58694
G1 X5.410 Y10.800 E3.64067
G1 X4.000 Y11.310 E3.69407
G1 X2.500 Y11.490 E3.74787
G1 X-2.500 Y11.490 E3.92594
G1 X-3.990 Y11.320 E3.97935
G1 X-5.400 Y10.800 E4.03287
G1 X-6.660 Y9.980 E4.08641
G1 X-7.690 Y8.890 E4.13982
G1 X-9.430 Y6.560 E4.24338
G1 X-9.720 Y6.130 E4.26186
G1 X-10.170 Y5.350 E4.29393
G1 X-10.400 Y4.880 E4.31256
G1 X-10.810 Y3.890 E4.35072
G1 X-11.020 Y3.260 E4.37437
G1 X-11.160 Y2.750 E4.39321
G1 X-11.310 Y2.040 E4.41905
G1 X-11.390 Y1.530 E4.43744
G1 X-11.460 Y0.770 E4.46462
G1 X-11.480 Y-0.240 E4.50059
G1 X-11.460 Y-0.770 E4.51948
G1 X-11.390 Y-1.540 E4.54702
G1 X-11.310 Y-2.050 E4.56540
G1 X-11.160 Y-2.760 E4.59125
G1 X-11.020 Y-3.270 E4.61008
G1 X-10.810 Y-3.900 E4.63373
G1 X-10.620 Y-4.390 E4.65245
G1 X-10.370 Y-4.940 E4.67397
G1 X-10.140 Y-5.400 E4.69228
G1 X-9.760 Y-6.070 E4.71971
G1 X-9.240 Y-6.840 E4.75280
G1 X-7.690 Y-8.900 E4.84462
G1 X-6.650 Y-9.990 E4.89827
G1 X-5.400 Y-10.810 E4.95151
G1 X-3.990 Y-11.320 E5.00491
G1 X-2.500 Y-11.490 E5.05832
G1 X2.500 Y-11.490 E5.23639
G1 X3.990 Y-11.320 E5.28980
G1 X5.410 Y-10.800 E5.34365
G1 X6.660 Y-9.980 E5.39689
G1 X7.700 Y-8.890 E5.45055
G1 X9.240 Y-6.830 E5.54214
G1 X9.460 Y-6.510 E5.55597
G1 X9.750 Y-6.070 E5.57474
G1 X10.130 Y-5.400 E5.60217
G1 X10.344 Y-4.973 E5.61918
G1 X10.150 Y-4.830 F7800.000
G1 X10.570 Y-3.810 E5.65847 F540.000
G1 X10.770 Y-3.200 E5.68133
G1 X10.910 Y-2.690 E5.70016
G1 X11.060 Y-2.010 E5.72496
G1 X11.140 Y-1.500 E5.74335
G1 X11.200 Y-0.880 E5.76553
G1 X11.230 Y-0.350 E5.78444
G1 X11.230 Y0.360 E5.80972
G1 X11.140 Y1.490 E5.85009
G1 X11.060 Y2.000 E5.86848
G1 X10.910 Y2.680 E5.89328
G1 X10.770 Y3.190 E5.91211
G1 X10.570 Y3.800 E5.93498
G1 X10.380 Y4.290 E5.95369
G1 X9.940 Y5.240 E5.99098
G1 X9.510 Y5.990 E6.02177
G1 X9.050 Y6.660 E6.05071
G1 X7.510 Y8.730 E6.14259
G1 X6.520 Y9.780 E6.19399
G1 X5.300 Y10.580 E6.24595
G1 X3.940 Y11.080 E6.29755
G1 X2.500 Y11.240 E6.34915
G1 X-2.500 Y11.240 E6.52722
G1 X-3.940 Y11.080 E6.57882
G1 X-5.290 Y10.580 E6.63009
G1 X-6.500 Y9.790 E6.68155
G1 X-7.500 Y8.740 E6.73319
G1 X-9.230 Y6.420 E6.83626
G1 X-9.520 Y5.990 E6.85473
G1 X-9.950 Y5.240 E6.88552
G1 X-10.180 Y4.770 E6.90415
G1 X-10.580 Y3.800 E6.94152
G1 X-10.780 Y3.190 E6.96438
G1 X-10.920 Y2.680 E6.98322
G1 X-11.070 Y2.000 E7.00802
G1 X-11.150 Y1.490 E7.02640
G1 X-11.220 Y0.760 E7.05252
G1 X-11.240 Y-0.240 E7.08814
G1 X-11.220 Y-0.770 E7.10703
G1 X-11.150 Y-1.500 E7.13315
G1 X-11.070 Y-2.010 E7.15153
G1 X-10.920 Y-2.690 E7.17633
G1 X-10.780 Y-3.200 E7.19517
G1 X-10.580 Y-3.810 E7.21803
G1 X-10.160 Y-4.830 E7.25731
G1 X-9.930 Y-5.290 E7.27563
G1 X-9.550 Y-5.940 E7.30244
G1 X-9.040 Y-6.690 E7.33474
G1 X-7.490 Y-8.750 E7.42656
G1 X-6.500 Y-9.800 E7.47795
G1 X-5.290 Y-10.590 E7.52942
G1 X-3.930 Y-11.080 E7.58090
G1 X-2.500 Y-11.240 E7.63214
G1 X2.500 Y-11.240 E7.81021
G1 X3.940 Y-11.080 E7.86181
G1 X5.300 Y-10.580 E7.91341
G1 X6.510 Y-9.790 E7.96488
G1 X7.500 Y-8.740 E8.01627
G1 X9.250 Y-6.380 E8.12091
G1 X9.540 Y-5.940 E8.13968
G1 X9.920 Y-5.290 E8.16649
G1 X10.134 Y-4.863 E8.18350
G1 F1800.000 E5.18350
G1 Z1.350 F7800.000
G92 E0
G1 X3.368 Y-1.500 F7800.000
G1 Z0.350 F7800.000
G1 E3.00000 F1800.000
G1 X3.507 Y-1.139 E3.01374 F540.000
G1 X3.606 Y-0.767 E3.02749
G1 X3.667 Y-0.385 E3.04123
G1 X3.687 Y-0.000 E3.05498
G1 X3.667 Y0.385 E3.06872
G1 X3.606 Y0.767 E3.08247
G1 X3.507 Y1.139 E3.09621
G1 X3.368 Y1.500 E3.10995
G1 X3.193 Y1.843 E3.12370
G1 X2.983 Y2.167 E3.13744
G1 X2.740 Y2.467 E3.15119
G1 X2.467 Y2.740 E3.16493
G1 X2.167 Y2.983 E3.17867
G1 X1.189 Y3.618 E3.22022
G1 X1.189 Y3.689 E3.22274
G1 X-1.189 Y3.689 E3.30741
G1 X-1.189 Y3.618 E3.30992
G1 X-2.167 Y2.983 E3.35147
G1 X-2.467 Y2.740 E3.36522
G1 X-2.740 Y2.467 E3.37896
G1 X-2.983 Y2.167 E3.39270
G1 X-3.193 Y1.844 E3.40644
G1 X-3.368 Y1.500 E3.42019
G1 X-3.507 Y1.139 E3.43393
G1 X-3.606 Y0.767 E3.44768
G1 X-3.667 Y0.385 E3.46143
G1 X-3.687 Y-0.000 E3.47517
G1 X-3.667 Y-0.385 E3.48891
G1 X-3.606 Y-0.767 E3.50266
G1 X-3.507 Y-1.139 E3.51640
G1 X-3.368 Y-1.500 E3.53014
G1 X-3.193 Y-1.844 E3.54389
G1 X-2.983 Y-2.167 E3.55763
G1 X-2.740 Y-2.467 E3.57138
G1 X-2.467 Y-2.740 E3.58512
G1 X-2.167 Y-2.983 E3.59886
G1 X-1.189 Y-3.618 E3.64041
G1 X-1.189 Y-3.689 E3.64292
G1 X1.189 Y-3.689 E3.72760
G1 X1.189 Y-3.618 E3.73011
G1 X2.167 Y-2.983 E3.77166
G1 X2.467 Y-2.740 E3.78540
G1 X2.740 Y-2.467 E3.79915
G1 X2.983 Y-2.167 E3.81289
G1 X3.193 Y-1.843 E3.82664
G1 X3.352 Y-1.532 E3.83907
G1 X3.592 Y-1.599 F7800.000
G1 X3.740 Y-1.215 E3.85373 F540.000
G1 X3.846 Y-0.818 E3.86839
G1 X3.911 Y-0.411 E3.88305
G1 X3.932 Y-0.000 E3.89770
G1 X3.911 Y0.411 E3.91236
G1 X3.846 Y0.818 E3.92702
G1 X3.740 Y1.215 E3.94168
G1 X3.592 Y1.599 E3.95633
G1 X3.405 Y1.966 E3.97099
G1 X3.181 Y2.311 E3.98565
G1 X2.922 Y2.631 E4.00031
G1 X2.631 Y2.922 E4.01496
G1 X2.311 Y3.181 E4.02962
G1 X1.434 Y3.751 E4.06689
G1 X1.434 Y3.934 E4.07339
G1 X-1.434 Y3.934 E4.17550
G1 X-1.434 Y3.751 E4.18200
G1 X-2.311 Y3.181 E4.21927
G1 X-2.631 Y2.922 E4.23393
G1 X-2.922 Y2.631 E4.24858
G1 X-3.181 Y2.311 E4.26324
G1 X-3.405 Y1.966 E4.27790
G1 X-3.592 Y1.599 E4.29256
G1 X-3.740 Y1.215 E4.30721
G1 X-3.846 Y0.818 E4.32187
G1 X-3.911 Y0.411 E4.33653
G1 X-3.932 Y-0.000 E4.35119
G1 X-3.911 Y-0.411 E4.36584
G1 X-3.846 Y-0.818 E4.38050
G1 X-3.740 Y-1.215 E4.39516
G1 X-3.592 Y-1.599 E4.40982
G1 X-3.405 Y-1.966 E4.42448
G1 X-3.181 Y-2.311 E4.43913
G1 X-2.922 Y-2.631 E4.45379
G1 X-2.631 Y-2.922 E4.46845
G1 X-2.311 Y-3.181 E4.48311
G1 X-1.434 Y-3.751 E4.52037
G1 X-1.434 Y-3.934 E4.52687
G1 X1.434 Y-3.934 E4.62898
G1 X1.434 Y-3.751 E4.63548
G1 X2.311 Y-3.181 E4.67275
G1 X2.631 Y-2.922 E4.68741
G1 X2.922 Y-2.631 E4.70206
G1 X3.181 Y-2.311 E4.71672
G1 X3.405 Y-1.966 E4.73138
G1 X3.575 Y-1.632 E4.74473
G1 X3.816 Y-1.699 F7800.000
G1 X3.973 Y-1.291 E4.76030 F540.000
G1 X4.086 Y-0.869 E4.77587
G1 X4.154 Y-0.437 E4.79145
G1 X4.177 Y-0.000 E4.80702
G1 X4.154 Y0.437 E4.82259
G1 X4.086 Y0.869 E4.83816
G1 X3.973 Y1.291 E4.85373
G1 X3.816 Y1.699 E4.86930
G1 X3.618 Y2.089 E4.88487
G1 X3.379 Y2.455 E4.90044
G1 X3.104 Y2.795 E4.91602
G1 X2.795 Y3.104 E4.93159
G1 X2.455 Y3.379 E4.94716
G1 X1.678 Y3.884 E4.98015
G1 X1.678 Y4.178 E4.99063
G1 X-1.678 Y4.178 E5.11017
G1 X-1.678 Y3.884 E5.12066
G1 X-2.455 Y3.379 E5.15365
G1 X-2.795 Y3.104 E5.16922
G1 X-3.104 Y2.795 E5.18479
G1 X-3.379 Y2.455 E5.20036
G1 X-3.617 Y2.089 E5.21593
G1 X-3.816 Y1.699 E5.23151
G1 X-3.973 Y1.291 E5.24708
G1 X-4.086 Y0.869 E5.26265
G1 X-4.154 Y0.437 E5.27822
G1 X-4.177 Y-0.000 E5.29379
G1 X-4.154 Y-0.437 E5.30936
G1 X-4.086 Y-0.869 E5.32494
G1 X-3.973 Y-1.291 E5.34051
G1 X-3.816 Y-1.699 E5.35608
G1 X-3.617 Y-2.089 E5.37165
G1 X-3.379 Y-2.455 E5.38722
G1 X-3.104 Y-2.795 E5.40279
G1 X-2.795 Y-3.104 E5.41836
G1 X-2.455 Y-3.379 E5.43393
G1 X-1.678 Y-3.884 E5.46693
G1 X-1.678 Y-4.178 E5.47741
G1 X1.678 Y-4.178 E5.59695
G1 X1.678 Y-3.884 E5.60743
G1 X2.455 Y-3.379 E5.64042
G1 X2.795 Y-3.104 E5.65600
G1 X3.104 Y-2.795 E5.67157
G1 X3.379 Y-2.455 E5.68714
G1 X3.618 Y-2.089 E5.70271
G1 X3.799 Y-1.732 E5.71697
G1 X4.040 Y-1.799 F7800.000
G1 X4.206 Y-1.367 E5.73346 F540.000
G1 X4.326 Y-0.919 E5.74994
G1 X4.398 Y-0.462 E5.76643
G1 X4.422 Y-0.000 E5.78291
G1 X4.398 Y0.462 E5.79940
G1 X4.326 Y0.919 E5.81589
G1 X4.206 Y1.367 E5.83237
G1 X4.040 Y1.799 E5.84885
G1 X3.830 Y2.211 E5.86534
G1 X3.578 Y2.599 E5.88182
G1 X3.286 Y2.959 E5.89831
G1 X2.959 Y3.286 E5.91479
G1 X2.599 Y3.578 E5.93128
G1 X1.923 Y4.017 E5.96000
G1 X1.923 Y4.423 E5.97446
G1 X-1.923 Y4.423 E6.11143
G1 X-1.923 Y4.017 E6.12590
G1 X-2.599 Y3.578 E6.15462
G1 X-2.959 Y3.286 E6.17111
G1 X-3.286 Y2.959 E6.18759
G1 X-3.578 Y2.599 E6.20407
G1 X-3.830 Y2.211 E6.22056
G1 X-4.040 Y1.799 E6.23704
G1 X-4.206 Y1.367 E6.25353
G1 X-4.326 Y0.919 E6.27001
G1 X-4.398 Y0.462 E6.28650
G1 X-4.422 Y-0.000 E6.30298
G1 X-4.398 Y-0.462 E6.31947
G1 X-4.326 Y-0.919 E6.33596
G1 X-4.206 Y-1.367 E6.35244
G1 X-4.040 Y-1.799 E6.36892
G1 X-3.830 Y-2.211 E6.38541
G1 X-3.578 Y-2.599 E6.40189
G1 X-3.286 Y-2.959 E6.41838
G1 X-2.959 Y-3.286 E6.43486
G1 X-2.599 Y-3.578 E6.45135
G1 X-1.923 Y-4.017 E6.48007
G1 X-1.923 Y-4.423 E6.49453
G1 X1.923 Y-4.423 E6.63150
G1 X1.923 Y-4.017 E6.64597
G1 X2.599 Y-3.578 E6.67469
G1 X2.959 Y-3.286 E6.69117
G1 X3.286 Y-2.959 E6.70766
G1 X3.578 Y-2.599 E6.72414
G1 X3.830 Y-2.211 E6.74063
G1 X4.023 Y-1.831 E6.75580
G1 X4.264 Y-1.898 F7800.000
G1 X4.439 Y-1.442 E6.77320 F540.000
G1 X4.565 Y-0.970 E6.79060
G1 X4.642 Y-0.488 E6.80800
G1 X4.667 Y-0.000 E6.82540
G1 X4.642 Y0.488 E6.84280
G1 X4.565 Y0.970 E6.86020
G1 X4.439 Y1.442 E6.87759
G1 X4.264 Y1.898 E6.89499
G1 X4.042 Y2.334 E6.91239
G1 X3.776 Y2.743 E6.92979
G1 X3.468 Y3.123 E6.94719
G1 X3.123 Y3.468 E6.96459
G1 X2.743 Y3.776 E6.98199
G1 X2.168 Y4.150 E7.00643
G1 X2.168 Y4.668 E7.02488
G1 X-2.168 Y4.668 E7.17928
G1 X-2.168 Y4.150 E7.19773
G1 X-2.743 Y3.776 E7.22217
G1 X-3.123 Y3.468 E7.23957
G1 X-3.468 Y3.123 E7.25697
G1 X-3.776 Y2.743 E7.27437
G1 X-4.042 Y2.334 E7.29177
G1 X-4.264 Y1.898 E7.30917
G1 X-4.439 Y1.442 E7.32656
G1 X-4.565 Y0.970 E7.34396
G1 X-4.642 Y0.488 E7.36136
G1 X-4.667 Y-0.000 E7.37876
G1 X-4.642 Y-0.488 E7.39616
G1 X-4.565 Y-0.970 E7.41356
G1 X-4.439 Y-1.442 E7.43096
G1 X-4.264 Y-1.898 E7.44836
G1 X-4.042 Y-2.334 E7.46575
G1 X-3.776 Y-2.743 E7.48315
G1 X-3.468 Y-3.123 E7.50055
G1 X-3.123 Y-3.468 E7.51795
G1 X-2.743 Y-3.776 E7.53535
G1 X-2.168 Y-4.150 E7.55979
G1 X-2.168 Y-4.668 E7.57824
G1 X2.168 Y-4.668 E7.73264
G1 X2.168 Y-4.150 E7.75109
G1 X2.743 Y-3.776 E7.77554
G1 X3.123 Y-3.468 E7.79293
G1 X3.468 Y-3.123 E7.81033
G1 X3.776 Y-2.743 E7.82773
G1 X4.042 Y-2.334 E7.84513
G1 X4.247 Y-1.931 E7.86122
G1 X4.488 Y-1.998 F7800.000
G1 X4.672 Y-1.518 E7.87953 F540.000
G1 X4.805 Y-1.021 E7.89784
G1 X4.885 Y-0.513 E7.91616
G1 X4.912 Y0.000 E7.93447
G1 X4.885 Y0.513 E7.95278
G1 X4.805 Y1.021 E7.97110
G1 X4.672 Y1.518 E7.98941
G1 X4.488 Y1.998 E8.00772
G1 X4.254 Y2.456 E8.02603
G1 X3.974 Y2.887 E8.04434
G1 X3.651 Y3.287 E8.06266
G1 X3.287 Y3.651 E8.08097
G1 X2.887 Y3.974 E8.09928
G1 X2.412 Y4.283 E8.11945
G1 X2.412 Y4.912 E8.14188
G1 X-2.413 Y4.912 E8.31372
G1 X-2.413 Y4.283 E8.33615
G1 X-2.887 Y3.974 E8.35631
G1 X-3.287 Y3.651 E8.37463
G1 X-3.651 Y3.287 E8.39294
G1 X-3.974 Y2.887 E8.41125
G1 X-4.254 Y2.456 E8.42956
G1 X-4.488 Y1.998 E8.44788
G1 X-4.672 Y1.518 E8.46619
G1 X-4.805 Y1.021 E8.48450
G1 X-4.885 Y0.513 E8.50281
G1 X-4.912 Y-0.000 E8.52112
G1 X-4.885 Y-0.513 E8.53944
G1 X-4.805 Y-1.021 E8.55775
G1 X-4.672 Y-1.518 E8.57606
G1 X-4.488 Y-1.998 E8.59437
G1 X-4.254 Y-2.456 E8.61269
G1 X-3.974 Y-2.887 E8.63100
G1 X-3.651 Y-3.287 E8.64931
G1 X-3.287 Y-3.651 E8.66762
G1 X-2.887 Y-3.974 E8.68593
G1 X-2.413 Y-4.283 E8.70610
G1 X-2.413 Y-4.912 E8.72853
G1 X2.412 Y-4.912 E8.90037
G1 X2.412 Y-4.283 E8.92280
G1 X2.887 Y-3.974 E8.94297
G1 X3.287 Y-3.651 E8.96128
G1 X3.651 Y-3.287 E8.97959
G1 X3.974 Y-2.887 E8.99791
G1 X4.254 Y-2.456 E9.01622
G1 X4.471 Y-2.031 E9.03322
G1 X4.340 Y-1.803 F7800.000
G1 X3.247 Y-1.355 F7800.000
G1 X1.166 Y-3.436 E9.14044 F1080.000
G1 X0.724 Y-3.524 E9.15683
G1 X3.419 Y-0.829 E9.29564
G1 X3.498 Y-0.396 E9.31168
G1 X0.370 Y-3.524 E9.47281
G1 X0.016 Y-3.524 E9.48570
G1 X3.521 Y-0.019 E9.66624
G1 X3.505 Y0.319 E9.67857
G1 X-0.338 Y-3.524 E9.87653
G1 X-0.692 Y-3.524 E9.88943
G1 X3.461 Y0.629 E10.10336
G1 X3.395 Y0.917 E10.11412
G1 X-1.040 Y-3.518 E10.34260
G1 X-1.255 Y-3.379 E10.35192
G1 X3.311 Y1.187 E10.58714
G1 X3.212 Y1.442 E10.59710
G1 X-1.469 Y-3.239 E10.83827
G1 X-1.684 Y-3.100 E10.84759
G1 X3.093 Y1.677 E11.09366
G1 X2.961 Y1.899 E11.10306
G1 X-1.899 Y-2.961 E11.35337
G1 X-2.109 Y-2.817 E11.36266
G1 X2.817 Y2.109 E11.61645
G1 X2.655 Y2.301 E11.62560
G1 X-2.301 Y-2.655 E11.88091
G1 X-2.478 Y-2.478 E11.89003
G1 X2.478 Y2.478 E12.14533
G1 X2.301 Y2.655 E12.15445
G1 X-2.655 Y-2.301 E12.40976
G1 X-2.817 Y-2.109 E12.41891
G1 X2.109 Y2.817 E12.67270
G1 X1.899 Y2.961 E12.68198
G1 X-2.961 Y-1.899 E12.93230
G1 X-3.093 Y-1.677 E12.94170
G1 X1.684 Y3.100 E13.18777
G1 X1.469 Y3.239 E13.19709
G1 X-3.212 Y-1.442 E13.43826
G1 X-3.311 Y-1.187 E13.44822
G1 X1.255 Y3.379 E13.68343
G1 X1.040 Y3.518 E13.69275
G1 X-3.395 Y-0.917 E13.92123
G1 X-3.461 Y-0.629 E13.93200
G1 X0.692 Y3.524 E14.14593
G1 X0.338 Y3.524 E14.15883
G1 X-3.505 Y-0.319 E14.35679
G1 X-3.521 Y0.019 E14.36912
G1 X-0.016 Y3.524 E14.54966
G1 X-0.370 Y3.524 E14.56255
G1 X-3.498 Y0.396 E14.72368
G1 X-3.419 Y0.829 E14.73972
G1 X-0.724 Y3.524 E14.87853
G1 X-1.166 Y3.437 E14.89492
G1 X-3.247 Y1.355 E15.00214
G1 X-2.693 Y2.264 F7800.000
G1 X-2.264 Y2.693 E15.02424 F1080.000
G1 X2.692 Y-2.264 F7800.000
G1 X2.264 Y-2.692 E15.04632 F1080.000
G1 F1800.000 E12.04632
G1 Z1.550 F7800.000
G92 E0
G1 X9.240 Y-6.830 F7800.000
G1 Z0.550 F7800.000
G1 E3.00000 F1800.000
G1 X9.750 Y-6.070 E3.01863 F1800
G1 X10.130 Y-5.400 E3.03430
G1 X10.360 Y-4.940 E3.04477
G1 X10.610 Y-4.390 E3.05706
G1 X10.800 Y-3.900 E3.06776
G1 X11.010 Y-3.270 E3.08127
G1 X11.150 Y-2.760 E3.09204
G1 X11.300 Y-2.050 E3.10680
G1 X11.380 Y-1.540 E3.11731
G1 X11.450 Y-0.900 E3.13041
G1 X11.480 Y-0.370 E3.14121
G1 X11.480 Y0.370 E3.15627
G1 X11.450 Y0.890 E3.16687
G1 X11.380 Y1.530 E3.17998
G1 X11.300 Y2.040 E3.19048
G1 X11.150 Y2.750 E3.20525
G1 X11.010 Y3.260 E3.21601
G1 X10.800 Y3.890 E3.22953
G1 X10.610 Y4.380 E3.24022
G1 X10.160 Y5.350 E3.26198
G1 X9.710 Y6.130 E3.28031
G1 X9.420 Y6.560 E3.29086
G1 X7.710 Y8.870 E3.34935
G1 X6.670 Y9.970 E3.38016
G1 X5.410 Y10.800 E3.41086
G1 X4.000 Y11.310 E3.44138
G1 X2.500 Y11.490 E3.47212
G1 X-2.500 Y11.490 E3.57388
G1 X-3.990 Y11.320 E3.60440
G1 X-5.400 Y10.800 E3.63498
G1 X-6.660 Y9.980 E3.66557
G1 X-7.690 Y8.890 E3.69609
G1 X-9.430 Y6.560 E3.75527
G1 X-9.720 Y6.130 E3.76583
G1 X-10.170 Y5.350 E3.78415
G1 X-10.620 Y4.380 E3.80591
G1 X-10.810 Y3.890 E3.81661
G1 X-11.020 Y3.260 E3.83012
G1 X-11.160 Y2.750 E3.84089
G1 X-11.310 Y2.040 E3.85565
G1 X-11.390 Y1.530 E3.86616
G1 X-11.460 Y0.770 E3.88169
G1 X-11.480 Y0.250 E3.89228
G1 X-11.460 Y-0.770 E3.91304
G1 X-11.390 Y-1.540 E3.92878
G1 X-11.310 Y-2.050 E3.93928
G1 X-11.160 Y-2.760 E3.95405
G1 X-11.020 Y-3.270 E3.96482
G1 X-10.810 Y-3.900 E3.97833
G1 X-10.620 Y-4.390 E3.98903
G1 X-10.140 Y-5.400 E4.01178
G1 X-9.760 Y-6.070 E4.02746
G1 X-9.240 Y-6.840 E4.04637
G1 X-7.690 Y-8.900 E4.09883
G1 X-6.650 Y-9.990 E4.12949
G1 X-5.400 Y-10.810 E4.15991
G1 X-3.990 Y-11.320 E4.19043
G1 X-2.500 Y-11.490 E4.22095
G1 X2.500 Y-11.490 E4.32270
G1 X3.990 Y-11.320 E4.35322
G1 X5.410 Y-10.800 E4.38399
G1 X6.660 Y-9.980 E4.41442
G1 X7.700 Y-8.890 E4.44508
G1 X9.218 Y-6.859 E4.49667
G1 X9.040 Y-6.680 F7800.000
G1 X9.540 Y-5.940 E4.51485 F1800
