; generated by Slic3r 1.0.0RC2 on 2014-07-22 at 22:31:57

; removing support 
; do each object first, then proceed to next one
; 
; set resolution to 0.01 to improve rendering speed on large meshes.
; 
; removed skirt

; layer_height = 0.2
; perimeters = 6
; top_solid_layers = 4
; bottom_solid_layers = 4
; fill_density = 1
; perimeter_speed = 30
; infill_speed = 60
; travel_speed = 130
; nozzle_diameter = 0.5
; filament_diameter = 1.75
; extrusion_multiplier = 1
; perimeters extrusion width = 0.50mm
; infill extrusion width = 1.02mm
; solid infill extrusion width = 0.85mm
; top infill extrusion width = 0.10mm
; first layer extrusion width = 0.17mm

G21 ; set units to millimeters
G28
;M140 S110;
;M104 S180;
;M190 S110;
;M109 S215;
G90;
G92 E0;
G1 E5 S15;
G92 E0;
;G4 P5000;
G90 ; use absolute coordinates
G92 E0
M82 ; use absolute distances for extrusion
G1 F1800.000 E-3.00000
G92 E0
G1 Z0.350 F7800.000
G1 X11.150 Y24.442 F7800.000
G1 E3.00000 F1800.000
G1 X8.970 Y25.412 E3.08498 F540.000
G1 X8.330 Y25.652 E3.10932
G1 X7.680 Y25.832 E3.13334
G1 X3.490 Y26.722 E3.28589
G1 X2.820 Y26.822 E3.31002
G1 X2.140 Y26.862 E3.33427
G1 X-2.150 Y26.862 E3.48706
G1 X-2.830 Y26.822 E3.51132
G1 X-3.500 Y26.722 E3.53544
G1 X-7.690 Y25.832 E3.68799
G1 X-8.340 Y25.652 E3.71201
G1 X-8.980 Y25.412 E3.73636
G1 X-12.890 Y23.672 E3.88877
G1 X-13.490 Y23.362 E3.91282
G1 X-14.060 Y22.992 E3.93702
G1 X-17.530 Y20.472 E4.08975
G1 X-18.060 Y20.042 E4.11406
G1 X-18.550 Y19.562 E4.13849
G1 X-21.410 Y16.382 E4.29080
G1 X-21.830 Y15.852 E4.31489
G1 X-22.200 Y15.282 E4.33909
G1 X-24.340 Y11.572 E4.49162
G1 X-24.650 Y10.972 E4.51567
G1 X-24.890 Y10.342 E4.53968
G1 X-26.220 Y6.262 E4.69251
G1 X-26.400 Y5.612 E4.71653
G1 X-26.500 Y4.942 E4.74066
G1 X-26.700 Y3.062 E4.80799
G1 X-26.950 Y0.672 E4.89357
G1 X-26.990 Y-0.008 E4.91783
G1 X-26.950 Y-0.688 E4.94209
G1 X-26.500 Y-4.948 E5.09465
G1 X-26.400 Y-5.628 E5.11912
G1 X-26.220 Y-6.288 E5.14349
G1 X-24.890 Y-10.358 E5.29598
G1 X-24.650 Y-10.978 E5.31966
G1 X-24.340 Y-11.578 E5.34371
G1 X-22.200 Y-15.288 E5.49624
G1 X-21.830 Y-15.858 E5.52044
G1 X-21.410 Y-16.378 E5.54425
G1 X-18.550 Y-19.568 E5.69683
G1 X-18.060 Y-20.058 E5.72151
G1 X-17.520 Y-20.498 E5.74631
G1 X-14.050 Y-23.008 E5.89884
G1 X-13.490 Y-23.368 E5.92254
G1 X-12.900 Y-23.668 E5.94612
G1 X-8.990 Y-25.418 E6.09868
G1 X-8.350 Y-25.668 E6.12315
G1 X-7.690 Y-25.848 E6.14751
G1 X-3.500 Y-26.738 E6.30006
G1 X-2.830 Y-26.838 E6.32419
G1 X-2.150 Y-26.878 E6.34845
G1 X2.140 Y-26.878 E6.50123
G1 X2.820 Y-26.838 E6.52549
G1 X3.490 Y-26.738 E6.54961
G1 X7.680 Y-25.848 E6.70216
G1 X8.340 Y-25.668 E6.72653
G1 X8.980 Y-25.418 E6.75100
G1 X12.890 Y-23.668 E6.90356
G1 X13.480 Y-23.368 E6.92713
G1 X14.040 Y-23.008 E6.95084
G1 X17.510 Y-20.498 E7.10336
G1 X18.050 Y-20.058 E7.12817
G1 X18.540 Y-19.568 E7.15285
G1 X21.400 Y-16.378 E7.30543
G1 X21.820 Y-15.858 E7.32923
G1 X22.190 Y-15.288 E7.35343
G1 X24.330 Y-11.578 E7.50597
G1 X24.640 Y-10.978 E7.53002
G1 X24.880 Y-10.358 E7.55370
G1 X26.210 Y-6.288 E7.70619
G1 X26.390 Y-5.628 E7.73055
G1 X26.490 Y-4.948 E7.75503
G1 X26.940 Y-0.688 E7.90759
G1 X26.980 Y-0.008 E7.93184
G1 X26.940 Y0.672 E7.95610
G1 X26.490 Y4.932 E8.10866
G1 X26.390 Y5.602 E8.13279
G1 X26.210 Y6.262 E8.15715
G1 X24.880 Y10.342 E8.30998
G1 X24.640 Y10.972 E8.33399
G1 X24.330 Y11.572 E8.35804
G1 X22.190 Y15.282 E8.51057
G1 X21.820 Y15.852 E8.53478
G1 X21.400 Y16.382 E8.55886
G1 X18.540 Y19.562 E8.71118
G1 X18.050 Y20.042 E8.73560
G1 X17.520 Y20.472 E8.75991
G1 X14.050 Y22.992 E8.91264
G1 X13.480 Y23.362 E8.93684
G1 X12.880 Y23.672 E8.96089
G1 X11.184 Y24.427 E9.02702
G1 X11.050 Y24.222 F7800.000
G1 X8.870 Y25.192 E9.11200 F540.000
G1 X8.260 Y25.422 E9.13522
G1 X7.630 Y25.592 E9.15846
G1 X3.440 Y26.482 E9.31101
G1 X2.790 Y26.582 E9.33443
G1 X2.140 Y26.612 E9.35760
G1 X-2.150 Y26.612 E9.51039
G1 X-2.800 Y26.582 E9.53356
G1 X-3.450 Y26.482 E9.55698
G1 X-7.640 Y25.592 E9.70953
G1 X-8.270 Y25.422 E9.73277
G1 X-8.880 Y25.192 E9.75599
G1 X-12.790 Y23.452 E9.90840
G1 X-13.370 Y23.152 E9.93166
G1 X-13.920 Y22.792 E9.95507
G1 X-17.390 Y20.272 E10.10780
G1 X-17.900 Y19.862 E10.13110
G1 X-18.360 Y19.402 E10.15427
G1 X-21.220 Y16.222 E10.30659
G1 X-21.630 Y15.712 E10.32989
G1 X-21.990 Y15.162 E10.35330
G1 X-24.130 Y11.452 E10.50583
G1 X-24.420 Y10.872 E10.52893
G1 X-24.660 Y10.272 E10.55194
G1 X-25.990 Y6.192 E10.70477
G1 X-26.160 Y5.562 E10.72801
G1 X-26.260 Y4.912 E10.75143
G1 X-26.460 Y3.032 E10.81876
G1 X-26.710 Y0.642 E10.90434
G1 X-26.740 Y-0.008 E10.92752
G1 X-26.710 Y-0.668 E10.95105
G1 X-26.260 Y-4.928 E11.10361
G1 X-26.160 Y-5.578 E11.12703
G1 X-25.990 Y-6.208 E11.15027
G1 X-24.660 Y-10.278 E11.30276
G1 X-24.420 Y-10.878 E11.32577
G1 X-24.130 Y-11.458 E11.34887
G1 X-21.990 Y-15.168 E11.50140
G1 X-21.640 Y-15.708 E11.52431
G1 X-21.230 Y-16.218 E11.54762
G1 X-18.370 Y-19.408 E11.70020
G1 X-17.900 Y-19.878 E11.72387
G1 X-17.380 Y-20.298 E11.74768
G1 X-13.910 Y-22.808 E11.90020
G1 X-13.370 Y-23.158 E11.92312
G1 X-12.800 Y-23.448 E11.94589
G1 X-8.890 Y-25.198 E12.09845
G1 X-8.280 Y-25.438 E12.12180
G1 X-7.640 Y-25.608 E12.14538
G1 X-3.450 Y-26.498 E12.29793
G1 X-2.800 Y-26.598 E12.32135
G1 X-2.150 Y-26.628 E12.34453
G1 X2.140 Y-26.628 E12.49731
G1 X2.790 Y-26.598 E12.52048
G1 X3.440 Y-26.498 E12.54390
G1 X7.630 Y-25.608 E12.69645
G1 X8.270 Y-25.438 E12.72004
G1 X8.880 Y-25.198 E12.74338
G1 X12.790 Y-23.448 E12.89594
G1 X13.360 Y-23.158 E12.91872
G1 X13.900 Y-22.808 E12.94164
G1 X17.370 Y-20.298 E13.09416
G1 X17.890 Y-19.878 E13.11796
G1 X18.360 Y-19.408 E13.14163
G1 X21.220 Y-16.218 E13.29422
G1 X21.630 Y-15.708 E13.31752
G1 X21.980 Y-15.168 E13.34044
G1 X24.120 Y-11.458 E13.49297
G1 X24.410 Y-10.878 E13.51606
G1 X24.650 Y-10.278 E13.53908
G1 X25.980 Y-6.208 E13.69157
G1 X26.150 Y-5.578 E13.71481
G1 X26.250 Y-4.928 E13.73823
G1 X26.700 Y-0.668 E13.89079
G1 X26.730 Y-0.008 E13.91432
G1 X26.700 Y0.652 E13.93785
G1 X26.250 Y4.912 E14.09041
G1 X26.150 Y5.552 E14.11347
G1 X25.980 Y6.192 E14.13706
G1 X24.650 Y10.272 E14.28989
G1 X24.410 Y10.872 E14.31290
G1 X24.120 Y11.452 E14.33599
G1 X21.980 Y15.162 E14.48853
G1 X21.620 Y15.712 E14.51194
G1 X21.210 Y16.222 E14.53524
G1 X18.350 Y19.402 E14.68756
G1 X17.890 Y19.862 E14.71073
G1 X17.380 Y20.272 E14.73403
G1 X13.910 Y22.792 E14.88676
G1 X13.360 Y23.152 E14.91017
G1 X12.780 Y23.452 E14.93343
G1 X11.084 Y24.207 E14.99956
G1 F1800.000 E11.99956
G92 E0
G1 X3.991 Y8.965 F7800.000
G1 E3.00000 F1800.000
G1 X3.032 Y9.333 E3.03658 F540.000
G1 X2.040 Y9.599 E3.07316
G1 X1.026 Y9.759 E3.10974
G1 X-0.000 Y9.813 E3.14632
G1 X-1.026 Y9.759 E3.18290
G1 X-2.040 Y9.599 E3.21948
G1 X-3.032 Y9.333 E3.25606
G1 X-3.991 Y8.965 E3.29264
G1 X-4.907 Y8.498 E3.32922
G1 X-5.768 Y7.939 E3.36581
G1 X-6.566 Y7.292 E3.40239
G1 X-7.293 Y6.566 E3.43897
G1 X-7.939 Y5.768 E3.47555
G1 X-8.498 Y4.907 E3.51213
G1 X-8.965 Y3.991 E3.54871
G1 X-9.333 Y3.032 E3.58529
G1 X-9.599 Y2.040 E3.62187
G1 X-9.759 Y1.026 E3.65845
G1 X-9.813 Y-0.000 E3.69503
G1 X-9.759 Y-1.026 E3.73161
G1 X-9.599 Y-2.040 E3.76819
G1 X-9.333 Y-3.032 E3.80477
G1 X-8.965 Y-3.991 E3.84135
G1 X-8.498 Y-4.907 E3.87793
G1 X-7.939 Y-5.768 E3.91451
G1 X-7.293 Y-6.566 E3.95109
G1 X-6.573 Y-7.285 E3.98731
G1 X-5.769 Y-7.939 E4.02423
G1 X-4.907 Y-8.498 E4.06083
G1 X-3.991 Y-8.965 E4.09741
G1 X-3.032 Y-9.333 E4.13399
G1 X-2.040 Y-9.599 E4.17057
G1 X-1.026 Y-9.759 E4.20716
G1 X-0.000 Y-9.813 E4.24374
G1 X1.016 Y-9.760 E4.27996
G1 X2.040 Y-9.599 E4.31687
G1 X3.032 Y-9.333 E4.35348
G1 X3.991 Y-8.965 E4.39006
G1 X4.907 Y-8.498 E4.42664
G1 X5.768 Y-7.939 E4.46322
G1 X6.566 Y-7.293 E4.49980
G1 X7.292 Y-6.566 E4.53638
G1 X7.939 Y-5.768 E4.57296
G1 X8.498 Y-4.907 E4.60954
G1 X8.965 Y-3.991 E4.64612
G1 X9.333 Y-3.032 E4.68270
G1 X9.599 Y-2.040 E4.71928
G1 X9.759 Y-1.026 E4.75586
G1 X9.813 Y-0.000 E4.79244
G1 X9.759 Y1.026 E4.82902
G1 X9.599 Y2.040 E4.86560
G1 X9.333 Y3.032 E4.90218
G1 X8.965 Y3.991 E4.93876
G1 X8.498 Y4.907 E4.97535
G1 X7.939 Y5.768 E5.01193
G1 X7.292 Y6.566 E5.04851
G1 X6.566 Y7.292 E5.08509
G1 X5.768 Y7.939 E5.12167
G1 X4.907 Y8.498 E5.15825
G1 X4.024 Y8.948 E5.19352
G1 X3.892 Y8.741 F7800.000
G1 X2.957 Y9.100 E5.22919 F540.000
G1 X1.989 Y9.359 E5.26485
G1 X1.000 Y9.516 E5.30052
G1 X-0.000 Y9.568 E5.33619
G1 X-1.000 Y9.516 E5.37186
G1 X-1.989 Y9.359 E5.40752
G1 X-2.957 Y9.100 E5.44319
G1 X-3.892 Y8.741 E5.47886
G1 X-4.784 Y8.286 E5.51452
G1 X-5.624 Y7.741 E5.55019
G1 X-6.402 Y7.110 E5.58586
G1 X-7.110 Y6.402 E5.62152
G1 X-7.741 Y5.624 E5.65719
G1 X-8.286 Y4.784 E5.69286
G1 X-8.741 Y3.892 E5.72853
G1 X-9.100 Y2.957 E5.76419
G1 X-9.359 Y1.989 E5.79986
G1 X-9.516 Y1.000 E5.83553
G1 X-9.568 Y-0.000 E5.87119
G1 X-9.516 Y-1.000 E5.90686
G1 X-9.359 Y-1.989 E5.94253
G1 X-9.100 Y-2.957 E5.97819
G1 X-8.741 Y-3.892 E6.01386
G1 X-8.286 Y-4.784 E6.04953
G1 X-7.741 Y-5.624 E6.08519
G1 X-7.110 Y-6.402 E6.12086
G1 X-6.409 Y-7.103 E6.15617
G1 X-5.624 Y-7.740 E6.19217
G1 X-4.784 Y-8.286 E6.22786
G1 X-3.892 Y-8.741 E6.26353
G1 X-2.957 Y-9.100 E6.29919
G1 X-1.989 Y-9.359 E6.33486
G1 X-1.000 Y-9.516 E6.37053
G1 X-0.000 Y-9.568 E6.40620
G1 X0.990 Y-9.516 E6.44151
G1 X1.989 Y-9.359 E6.47751
G1 X2.957 Y-9.100 E6.51319
G1 X3.892 Y-8.741 E6.54886
G1 X4.784 Y-8.286 E6.58453
G1 X5.624 Y-7.741 E6.62020
G1 X6.402 Y-7.110 E6.65586
G1 X7.110 Y-6.402 E6.69153
G1 X7.741 Y-5.624 E6.72720
G1 X8.286 Y-4.784 E6.76286
G1 X8.741 Y-3.892 E6.79853
G1 X9.100 Y-2.957 E6.83420
G1 X9.359 Y-1.989 E6.86986
G1 X9.516 Y-1.000 E6.90553
G1 X9.568 Y-0.000 E6.94120
G1 X9.516 Y1.000 E6.97686
G1 X9.359 Y1.989 E7.01253
G1 X9.100 Y2.957 E7.04820
G1 X8.741 Y3.892 E7.08387
G1 X8.286 Y4.784 E7.11953
G1 X7.741 Y5.624 E7.15520
G1 X7.110 Y6.402 E7.19087
G1 X6.402 Y7.110 E7.22653
G1 X5.624 Y7.741 E7.26220
G1 X4.784 Y8.286 E7.29787
G1 X3.924 Y8.724 E7.33223
G1 X3.792 Y8.517 F7800.000
G1 X2.881 Y8.867 E7.36698 F540.000
G1 X1.938 Y9.119 E7.40173
G1 X0.975 Y9.272 E7.43649
G1 X-0.000 Y9.323 E7.47124
G1 X-0.975 Y9.272 E7.50599
G1 X-1.938 Y9.119 E7.54075
G1 X-2.881 Y8.867 E7.57550
G1 X-3.792 Y8.517 E7.61025
G1 X-4.661 Y8.074 E7.64501
G1 X-5.480 Y7.542 E7.67976
G1 X-6.238 Y6.928 E7.71451
G1 X-6.928 Y6.238 E7.74927
G1 X-7.542 Y5.480 E7.78402
G1 X-8.074 Y4.661 E7.81877
G1 X-8.517 Y3.792 E7.85353
G1 X-8.867 Y2.881 E7.88828
G1 X-9.119 Y1.938 E7.92303
G1 X-9.272 Y0.975 E7.95779
G1 X-9.323 Y-0.000 E7.99254
G1 X-9.272 Y-0.975 E8.02729
G1 X-9.119 Y-1.938 E8.06205
G1 X-8.867 Y-2.881 E8.09680
G1 X-8.517 Y-3.792 E8.13155
G1 X-8.074 Y-4.661 E8.16631
G1 X-7.542 Y-5.480 E8.20106
G1 X-6.928 Y-6.238 E8.23581
G1 X-6.245 Y-6.921 E8.27021
G1 X-5.480 Y-7.542 E8.30530
G1 X-4.661 Y-8.074 E8.34007
G1 X-3.792 Y-8.517 E8.37482
G1 X-2.881 Y-8.867 E8.40958
G1 X-1.938 Y-9.119 E8.44433
G1 X-0.975 Y-9.272 E8.47908
G1 X-0.000 Y-9.323 E8.51384
G1 X0.965 Y-9.272 E8.54824
G1 X1.938 Y-9.119 E8.58333
G1 X2.881 Y-8.867 E8.61810
G1 X3.792 Y-8.517 E8.65285
G1 X4.661 Y-8.074 E8.68760
G1 X5.480 Y-7.542 E8.72236
G1 X6.238 Y-6.928 E8.75711
G1 X6.928 Y-6.238 E8.79186
G1 X7.542 Y-5.480 E8.82662
G1 X8.074 Y-4.661 E8.86137
G1 X8.517 Y-3.792 E8.89612
G1 X8.867 Y-2.881 E8.93088
G1 X9.119 Y-1.938 E8.96563
G1 X9.272 Y-0.975 E9.00038
G1 X9.323 Y-0.000 E9.03514
G1 X9.272 Y0.975 E9.06989
G1 X9.119 Y1.938 E9.10464
G1 X8.867 Y2.881 E9.13940
G1 X8.517 Y3.792 E9.17415
G1 X8.074 Y4.661 E9.20890
G1 X7.542 Y5.480 E9.24366
G1 X6.928 Y6.238 E9.27841
G1 X6.238 Y6.928 E9.31316
G1 X5.480 Y7.542 E9.34792
G1 X4.661 Y8.074 E9.38267
G1 X3.825 Y8.500 E9.41612
G1 X3.692 Y8.293 F7800.000
G1 X2.805 Y8.633 E9.44996 F540.000
G1 X1.887 Y8.879 E9.48380
G1 X0.949 Y9.028 E9.51763
G1 X-0.000 Y9.078 E9.55147
G1 X-0.949 Y9.028 E9.58531
G1 X-1.887 Y8.879 E9.61915
G1 X-2.805 Y8.633 E9.65299
G1 X-3.692 Y8.293 E9.68683
G1 X-4.539 Y7.862 E9.72067
G1 X-5.336 Y7.344 E9.75451
G1 X-6.074 Y6.746 E9.78835
G1 X-6.746 Y6.074 E9.82219
G1 X-7.344 Y5.336 E9.85603
G1 X-7.862 Y4.539 E9.88987
G1 X-8.293 Y3.692 E9.92371
G1 X-8.633 Y2.805 E9.95755
G1 X-8.879 Y1.887 E9.99139
G1 X-9.028 Y0.949 E10.02523
G1 X-9.078 Y-0.000 E10.05907
G1 X-9.028 Y-0.949 E10.09291
G1 X-8.879 Y-1.887 E10.12675
G1 X-8.633 Y-2.805 E10.16059
G1 X-8.293 Y-3.692 E10.19443
G1 X-7.862 Y-4.539 E10.22827
G1 X-7.344 Y-5.336 E10.26211
G1 X-6.746 Y-6.074 E10.29595
G1 X-6.081 Y-6.739 E10.32944
G1 X-5.336 Y-7.344 E10.36361
G1 X-4.539 Y-7.862 E10.39747
G1 X-3.692 Y-8.293 E10.43131
G1 X-2.805 Y-8.633 E10.46515
G1 X-1.887 Y-8.879 E10.49899
G1 X-0.949 Y-9.028 E10.53282
G1 X-0.000 Y-9.078 E10.56666
G1 X0.939 Y-9.029 E10.60016
G1 X1.887 Y-8.879 E10.63433
G1 X2.805 Y-8.633 E10.66818
G1 X3.692 Y-8.293 E10.70202
G1 X4.539 Y-7.862 E10.73586
G1 X5.336 Y-7.344 E10.76970
G1 X6.074 Y-6.746 E10.80354
G1 X6.746 Y-6.074 E10.83738
G1 X7.344 Y-5.336 E10.87122
G1 X7.862 Y-4.539 E10.90506
G1 X8.293 Y-3.692 E10.93890
G1 X8.633 Y-2.805 E10.97274
G1 X8.879 Y-1.887 E11.00658
G1 X9.028 Y-0.949 E11.04042
G1 X9.078 Y-0.000 E11.07426
G1 X9.028 Y0.949 E11.10810
G1 X8.879 Y1.887 E11.14194
G1 X8.633 Y2.805 E11.17578
G1 X8.293 Y3.692 E11.20962
G1 X7.862 Y4.539 E11.24346
G1 X7.344 Y5.336 E11.27730
G1 X6.746 Y6.074 E11.31114
G1 X6.074 Y6.746 E11.34498
G1 X5.336 Y7.344 E11.37882
G1 X4.539 Y7.862 E11.41266
G1 X3.725 Y8.276 E11.44519
G1 X3.593 Y8.069 F7800.000
G1 X2.729 Y8.400 E11.47811 F540.000
G1 X1.836 Y8.640 E11.51104
G1 X0.923 Y8.784 E11.54397
G1 X-0.000 Y8.833 E11.57689
G1 X-0.923 Y8.784 E11.60982
G1 X-1.836 Y8.640 E11.64275
G1 X-2.729 Y8.400 E11.67567
G1 X-3.593 Y8.069 E11.70860
G1 X-4.416 Y7.649 E11.74152
G1 X-5.192 Y7.146 E11.77445
G1 X-5.910 Y6.564 E11.80738
G1 X-6.564 Y5.910 E11.84030
G1 X-7.146 Y5.192 E11.87323
G1 X-7.649 Y4.416 E11.90615
G1 X-8.069 Y3.593 E11.93908
G1 X-8.400 Y2.729 E11.97201
G1 X-8.640 Y1.836 E12.00493
G1 X-8.784 Y0.923 E12.03786
G1 X-8.833 Y-0.000 E12.07079
G1 X-8.784 Y-0.923 E12.10371
G1 X-8.640 Y-1.836 E12.13664
G1 X-8.400 Y-2.729 E12.16956
G1 X-8.069 Y-3.593 E12.20249
G1 X-7.649 Y-4.416 E12.23542
G1 X-7.146 Y-5.192 E12.26834
G1 X-6.564 Y-5.910 E12.30127
G1 X-5.917 Y-6.557 E12.33385
G1 X-5.192 Y-7.146 E12.36711
G1 X-4.416 Y-7.649 E12.40004
G1 X-3.593 Y-8.069 E12.43297
G1 X-2.729 Y-8.400 E12.46590
G1 X-1.836 Y-8.640 E12.49882
G1 X-0.923 Y-8.784 E12.53175
G1 X-0.000 Y-8.833 E12.56468
G1 X0.914 Y-8.785 E12.59726
G1 X1.836 Y-8.640 E12.63052
G1 X2.729 Y-8.400 E12.66345
G1 X3.593 Y-8.069 E12.69638
G1 X4.416 Y-7.649 E12.72930
G1 X5.192 Y-7.146 E12.76223
G1 X5.910 Y-6.564 E12.79516
G1 X6.564 Y-5.910 E12.82808
G1 X7.146 Y-5.192 E12.86101
G1 X7.649 Y-4.416 E12.89393
G1 X8.069 Y-3.593 E12.92686
G1 X8.400 Y-2.729 E12.95979
G1 X8.640 Y-1.836 E12.99271
G1 X8.784 Y-0.923 E13.02564
G1 X8.833 Y-0.000 E13.05857
G1 X8.784 Y0.923 E13.09149
G1 X8.640 Y1.836 E13.12442
G1 X8.400 Y2.729 E13.15734
G1 X8.069 Y3.593 E13.19027
G1 X7.649 Y4.416 E13.22320
G1 X7.146 Y5.192 E13.25612
G1 X6.564 Y5.910 E13.28905
G1 X5.910 Y6.564 E13.32197
G1 X5.192 Y7.146 E13.35490
G1 X4.416 Y7.649 E13.38783
G1 X3.625 Y8.052 E13.41945
G1 X3.493 Y7.845 F7800.000
G1 X2.654 Y8.167 E13.45146 F378.000
G1 X1.785 Y8.400 E13.48347
G1 X0.898 Y8.541 E13.51548
G1 X-0.000 Y8.588 E13.54750
G1 X-0.898 Y8.541 E13.57951
G1 X-1.785 Y8.400 E13.61152
G1 X-2.654 Y8.167 E13.64353
G1 X-3.493 Y7.845 E13.67555
G1 X-4.294 Y7.437 E13.70756
G1 X-5.048 Y6.948 E13.73957
G1 X-5.746 Y6.382 E13.77158
G1 X-6.382 Y5.746 E13.80360
G1 X-6.948 Y5.048 E13.83561
G1 X-7.437 Y4.294 E13.86762
G1 X-7.845 Y3.493 E13.89963
G1 X-8.167 Y2.654 E13.93165
G1 X-8.400 Y1.785 E13.96366
G1 X-8.541 Y0.898 E13.99567
G1 X-8.588 Y-0.000 E14.02768
G1 X-8.541 Y-0.898 E14.05970
G1 X-8.400 Y-1.785 E14.09171
G1 X-8.167 Y-2.654 E14.12372
G1 X-7.845 Y-3.493 E14.15573
G1 X-7.437 Y-4.294 E14.18775
G1 X-6.948 Y-5.048 E14.21976
G1 X-6.382 Y-5.746 E14.25177
G1 X-5.753 Y-6.375 E14.28345
G1 X-5.048 Y-6.948 E14.31579
G1 X-4.294 Y-7.437 E14.34781
G1 X-3.493 Y-7.845 E14.37982
G1 X-2.654 Y-8.167 E14.41183
G1 X-1.785 Y-8.400 E14.44384
G1 X-0.898 Y-8.541 E14.47586
G1 X-0.000 Y-8.588 E14.50787
G1 X0.888 Y-8.541 E14.53954
G1 X1.785 Y-8.400 E14.57189
G1 X2.654 Y-8.167 E14.60391
G1 X3.493 Y-7.845 E14.63592
G1 X4.294 Y-7.437 E14.66793
G1 X5.048 Y-6.948 E14.69994
G1 X5.746 Y-6.382 E14.73196
