; generated by Slic3r 1.0.0RC2 on 2014-07-22 at 21:06:44

; removing support 
; do each object first, then proceed to next one
; 
; set resolution to 0.01 to improve rendering speed on large meshes.
; 
; removed skirt

; layer_height = 0.2
; perimeters = 6
; top_solid_layers = 4
; bottom_solid_layers = 4
; fill_density = 1
; perimeter_speed = 30
; infill_speed = 60
; travel_speed = 130
; nozzle_diameter = 0.5
; filament_diameter = 1.75
; extrusion_multiplier = 1
; perimeters extrusion width = 0.50mm
; infill extrusion width = 1.02mm
; solid infill extrusion width = 0.85mm
; top infill extrusion width = 0.85mm
; first layer extrusion width = 0.70mm

G21 ; set units to millimeters
G28
;M140 S110;
;M104 S180;
;M190 S110;
;M109 S215;
G90;
G92 E0;
G1 E5 S15;
G92 E0;
;G4 P5000;
G90 ; use absolute coordinates
G92 E0
M82 ; use absolute distances for extrusion
G1 F1800.000 E-3.00000
G92 E0
G1 Z0.350 F7800.000
G1 X11.480 Y25.192 F7800.000
G1 E3.00000 F1800.000
G1 X9.300 Y26.162 E3.22814 F540.000
G1 X8.590 Y26.442 E3.30111
G1 X7.850 Y26.632 E3.37416
G1 X3.660 Y27.522 E3.78372
G1 X2.900 Y27.642 E3.85729
G1 X2.140 Y27.682 E3.93006
G1 X-2.150 Y27.682 E4.34024
G1 X-2.910 Y27.642 E4.41301
G1 X-3.670 Y27.522 E4.48657
G1 X-7.860 Y26.632 E4.89613
G1 X-8.600 Y26.442 E4.96918
G1 X-9.310 Y26.162 E5.04216
G1 X-13.220 Y24.422 E5.45135
G1 X-13.910 Y24.072 E5.52533
G1 X-14.550 Y23.662 E5.59800
G1 X-18.020 Y21.142 E6.00804
G1 X-18.620 Y20.652 E6.08211
G1 X-19.160 Y20.112 E6.15513
G1 X-22.020 Y16.932 E6.56406
G1 X-22.500 Y16.342 E6.63678
G1 X-22.920 Y15.692 E6.71077
G1 X-25.060 Y11.982 E7.12028
G1 X-25.400 Y11.312 E7.19212
G1 X-25.670 Y10.602 E7.26475
G1 X-27.000 Y6.522 E7.67506
G1 X-27.200 Y5.782 E7.74835
G1 X-27.320 Y5.022 E7.82192
G1 X-27.520 Y3.142 E8.00268
G1 X-27.770 Y0.752 E8.23245
G1 X-27.810 Y-0.008 E8.30522
G1 X-27.770 Y-0.778 E8.37894
G1 X-27.320 Y-5.038 E8.78852
G1 X-27.200 Y-5.798 E8.86208
G1 X-27.000 Y-6.538 E8.93538
G1 X-25.670 Y-10.608 E9.34478
G1 X-25.400 Y-11.318 E9.41740
G1 X-25.060 Y-11.988 E9.48924
G1 X-22.920 Y-15.698 E9.89875
G1 X-22.500 Y-16.338 E9.97194
G1 X-22.030 Y-16.928 E10.04407
G1 X-19.170 Y-20.118 E10.45371
G1 X-18.610 Y-20.678 E10.52943
G1 X-18.010 Y-21.168 E10.60350
G1 X-14.540 Y-23.678 E11.01298
G1 X-13.910 Y-24.078 E11.08433
G1 X-13.240 Y-24.428 E11.15661
G1 X-9.330 Y-26.178 E11.56619
G1 X-8.610 Y-26.448 E11.63972
G1 X-7.860 Y-26.648 E11.71393
G1 X-3.670 Y-27.538 E12.12349
G1 X-2.910 Y-27.658 E12.19706
G1 X-2.150 Y-27.698 E12.26983
G1 X2.140 Y-27.698 E12.68001
G1 X2.900 Y-27.658 E12.75278
G1 X3.660 Y-27.538 E12.82634
G1 X7.850 Y-26.648 E13.23590
G1 X8.600 Y-26.448 E13.31012
G1 X9.320 Y-26.178 E13.38364
G1 X13.230 Y-24.428 E13.79323
G1 X13.900 Y-24.078 E13.86550
G1 X14.530 Y-23.678 E13.93685
G1 X18.000 Y-21.168 E14.34633
G1 X18.600 Y-20.678 E14.42040
G1 X19.160 Y-20.118 E14.49612
G1 X22.020 Y-16.928 E14.90577
G1 X22.490 Y-16.338 E14.97789
G1 X22.910 Y-15.698 E15.05108
G1 X25.050 Y-11.988 E15.46059
G1 X25.390 Y-11.318 E15.53243
G1 X25.660 Y-10.608 E15.60506
G1 X26.990 Y-6.538 E16.01446
G1 X27.190 Y-5.798 E16.08775
G1 X27.310 Y-5.038 E16.16132
G1 X27.760 Y-0.778 E16.57090
G1 X27.800 Y-0.008 E16.64462
G1 X27.760 Y0.762 E16.71834
G1 X27.310 Y5.022 E17.12792
G1 X27.190 Y5.782 E17.20149
G1 X26.990 Y6.522 E17.27478
G1 X25.660 Y10.602 E17.68509
G1 X25.390 Y11.312 E17.75772
G1 X25.050 Y11.982 E17.82955
G1 X22.910 Y15.692 E18.23906
G1 X22.490 Y16.342 E18.31306
G1 X22.010 Y16.932 E18.38578
G1 X19.150 Y20.112 E18.79471
G1 X18.610 Y20.652 E18.86773
G1 X18.010 Y21.142 E18.94180
G1 X14.540 Y23.662 E19.35184
G1 X13.900 Y24.072 E19.42451
G1 X13.210 Y24.422 E19.49849
G1 X11.570 Y25.152 E19.67012
G1 X11.220 Y24.592 F7800.000
G1 X9.040 Y25.562 E19.89826 F540.000
G1 X8.390 Y25.812 E19.96485
G1 X7.710 Y25.992 E20.03210
G1 X3.520 Y26.882 E20.44166
G1 X2.840 Y26.992 E20.50752
G1 X2.140 Y27.032 E20.57456
G1 X-2.150 Y27.032 E20.98475
G1 X-2.850 Y26.992 E21.05179
G1 X-3.530 Y26.882 E21.11765
G1 X-7.720 Y25.992 E21.52721
G1 X-8.400 Y25.812 E21.59446
G1 X-9.050 Y25.562 E21.66105
G1 X-12.960 Y23.822 E22.07025
G1 X-13.580 Y23.512 E22.13652
G1 X-14.160 Y23.132 E22.20282
G1 X-17.630 Y20.612 E22.61286
G1 X-18.180 Y20.172 E22.68021
G1 X-18.670 Y19.672 E22.74714
G1 X-21.530 Y16.492 E23.15608
G1 X-21.970 Y15.952 E23.22268
G1 X-22.350 Y15.372 E23.28898
G1 X-24.490 Y11.662 E23.69848
G1 X-24.800 Y11.042 E23.76476
G1 X-25.050 Y10.392 E23.83135
G1 X-26.380 Y6.312 E24.24166
G1 X-26.560 Y5.642 E24.30799
G1 X-26.670 Y4.952 E24.37480
G1 X-26.870 Y3.072 E24.55556
G1 X-27.120 Y0.692 E24.78438
G1 X-27.160 Y-0.008 E24.85142
G1 X-27.120 Y-0.708 E24.91845
G1 X-26.670 Y-4.968 E25.32803
G1 X-26.560 Y-5.658 E25.39484
G1 X-26.380 Y-6.338 E25.46210
G1 X-25.050 Y-10.408 E25.87150
G1 X-24.800 Y-11.048 E25.93719
G1 X-24.490 Y-11.668 E26.00347
G1 X-22.350 Y-15.378 E26.41298
G1 X-21.970 Y-15.958 E26.47928
G1 X-21.540 Y-16.488 E26.54453
G1 X-18.680 Y-19.678 E26.95418
G1 X-18.170 Y-20.188 E27.02314
G1 X-17.620 Y-20.628 E27.09048
G1 X-14.150 Y-23.138 E27.49996
G1 X-13.580 Y-23.518 E27.56546
G1 X-12.970 Y-23.828 E27.63089
G1 X-9.060 Y-25.578 E28.04047
G1 X-8.400 Y-25.828 E28.10795
G1 X-7.720 Y-26.008 E28.17521
G1 X-3.530 Y-26.898 E28.58477
G1 X-2.850 Y-27.008 E28.65063
G1 X-2.150 Y-27.048 E28.71767
G1 X2.140 Y-27.048 E29.12785
G1 X2.840 Y-27.008 E29.19489
G1 X3.520 Y-26.898 E29.26075
G1 X7.710 Y-26.008 E29.67031
G1 X8.390 Y-25.828 E29.73757
G1 X9.050 Y-25.578 E29.80505
G1 X12.960 Y-23.828 E30.21464
G1 X13.570 Y-23.518 E30.28006
G1 X14.140 Y-23.138 E30.34556
G1 X17.610 Y-20.628 E30.75504
G1 X18.160 Y-20.188 E30.82238
G1 X18.670 Y-19.678 E30.89135
G1 X21.530 Y-16.488 E31.30099
G1 X21.960 Y-15.958 E31.36624
G1 X22.340 Y-15.378 E31.43254
G1 X24.480 Y-11.668 E31.84205
G1 X24.790 Y-11.048 E31.90833
G1 X25.040 Y-10.408 E31.97402
G1 X26.370 Y-6.338 E32.38342
G1 X26.550 Y-5.658 E32.45068
G1 X26.660 Y-4.968 E32.51749
G1 X27.110 Y-0.708 E32.92707
G1 X27.150 Y-0.008 E32.99411
G1 X27.110 Y0.692 E33.06114
G1 X26.660 Y4.952 E33.47073
G1 X26.550 Y5.642 E33.53753
G1 X26.370 Y6.312 E33.60386
G1 X25.040 Y10.392 E34.01417
G1 X24.790 Y11.042 E34.08076
G1 X24.480 Y11.662 E34.14704
G1 X22.340 Y15.372 E34.55655
G1 X21.960 Y15.952 E34.62284
G1 X21.520 Y16.492 E34.68945
G1 X18.660 Y19.672 E35.09838
G1 X18.170 Y20.172 E35.16531
G1 X17.620 Y20.612 E35.23266
G1 X14.150 Y23.132 E35.64270
G1 X13.570 Y23.512 E35.70900
G1 X12.950 Y23.822 E35.77527
G1 X11.310 Y24.552 E35.94691
G1 F1800.000 E32.94691
G92 E0
G1 X4.938 Y11.091 F7800.000
G1 E3.00000 F1800.000
G1 X3.752 Y11.546 E3.12150 F540.000
G1 X2.524 Y11.875 E3.24300
G1 X1.269 Y12.074 E3.36450
G1 X-0.000 Y12.140 E3.48601
G1 X-1.269 Y12.074 E3.60751
G1 X-2.524 Y11.875 E3.72901
G1 X-3.752 Y11.546 E3.85051
G1 X-4.938 Y11.091 E3.97201
G1 X-6.070 Y10.514 E4.09352
G1 X-7.136 Y9.822 E4.21502
G1 X-8.124 Y9.022 E4.33652
G1 X-9.022 Y8.123 E4.45802
G1 X-9.822 Y7.136 E4.57952
G1 X-10.514 Y6.070 E4.70102
G1 X-11.091 Y4.938 E4.82253
G1 X-11.546 Y3.752 E4.94403
G1 X-11.875 Y2.524 E5.06553
G1 X-12.074 Y1.269 E5.18703
G1 X-12.140 Y-0.000 E5.30853
G1 X-12.074 Y-1.269 E5.43004
G1 X-11.875 Y-2.524 E5.55154
G1 X-11.546 Y-3.752 E5.67304
G1 X-11.091 Y-4.938 E5.79454
G1 X-10.514 Y-6.070 E5.91604
G1 X-9.822 Y-7.136 E6.03755
G1 X-9.022 Y-8.124 E6.15905
G1 X-8.132 Y-9.014 E6.27945
G1 X-7.138 Y-9.821 E6.40185
G1 X-6.070 Y-10.514 E6.52355
G1 X-4.938 Y-11.091 E6.64505
G1 X-3.752 Y-11.546 E6.76655
G1 X-2.524 Y-11.875 E6.88805
G1 X-1.269 Y-12.074 E7.00955
G1 X-0.000 Y-12.140 E7.13106
G1 X1.258 Y-12.074 E7.25147
G1 X2.522 Y-11.876 E7.37386
G1 X3.752 Y-11.546 E7.49555
G1 X4.938 Y-11.091 E7.61706
G1 X6.070 Y-10.514 E7.73856
G1 X7.136 Y-9.822 E7.86006
G1 X8.124 Y-9.022 E7.98156
G1 X9.022 Y-8.124 E8.10307
G1 X9.822 Y-7.136 E8.22457
G1 X10.514 Y-6.070 E8.34607
G1 X11.091 Y-4.938 E8.46757
G1 X11.546 Y-3.752 E8.58907
G1 X11.875 Y-2.524 E8.71057
G1 X12.074 Y-1.269 E8.83208
G1 X12.140 Y-0.000 E8.95358
G1 X12.074 Y1.269 E9.07508
G1 X11.875 Y2.524 E9.19658
G1 X11.546 Y3.752 E9.31808
G1 X11.091 Y4.938 E9.43958
G1 X10.514 Y6.070 E9.56109
G1 X9.822 Y7.136 E9.68259
G1 X9.022 Y8.124 E9.80409
G1 X8.124 Y9.022 E9.92559
G1 X7.136 Y9.822 E10.04709
G1 X6.070 Y10.514 E10.16860
G1 X5.026 Y11.046 E10.28068
G1 X4.670 Y10.490 F7800.000
G1 X3.548 Y10.920 E10.39559 F540.000
G1 X2.387 Y11.231 E10.51051
G1 X1.200 Y11.420 E10.62542
G1 X-0.000 Y11.482 E10.74034
G1 X-1.200 Y11.420 E10.85526
G1 X-2.387 Y11.231 E10.97018
G1 X-3.548 Y10.920 E11.08509
G1 X-4.670 Y10.490 E11.20001
G1 X-5.741 Y9.944 E11.31493
G1 X-6.749 Y9.289 E11.42984
G1 X-7.683 Y8.533 E11.54476
G1 X-8.533 Y7.683 E11.65968
G1 X-9.289 Y6.749 E11.77459
G1 X-9.944 Y5.741 E11.88951
G1 X-10.490 Y4.670 E12.00443
G1 X-10.920 Y3.548 E12.11934
G1 X-11.231 Y2.387 E12.23426
G1 X-11.420 Y1.200 E12.34917
G1 X-11.482 Y-0.000 E12.46409
G1 X-11.420 Y-1.200 E12.57901
G1 X-11.231 Y-2.387 E12.69393
G1 X-10.920 Y-3.548 E12.80884
G1 X-10.490 Y-4.670 E12.92376
G1 X-9.944 Y-5.741 E13.03868
G1 X-9.289 Y-6.749 E13.15359
G1 X-8.533 Y-7.683 E13.26851
G1 X-7.691 Y-8.525 E13.38237
G1 X-6.751 Y-9.289 E13.49818
G1 X-5.741 Y-9.944 E13.61325
G1 X-4.670 Y-10.490 E13.72817
G1 X-3.548 Y-10.920 E13.84309
G1 X-2.387 Y-11.231 E13.95800
G1 X-1.200 Y-11.420 E14.07292
G1 X-0.000 Y-11.482 E14.18784
G1 X1.189 Y-11.420 E14.30170
G1 X2.386 Y-11.232 E14.41751
G1 X3.548 Y-10.920 E14.53258
G1 X4.670 Y-10.490 E14.64750
G1 X5.741 Y-9.944 E14.76242
G1 X6.749 Y-9.289 E14.87733
G1 X7.683 Y-8.533 E14.99225
G1 X8.533 Y-7.683 E15.10717
G1 X9.289 Y-6.749 E15.22208
G1 X9.944 Y-5.741 E15.33700
G1 X10.490 Y-4.670 E15.45192
G1 X10.920 Y-3.548 E15.56683
G1 X11.231 Y-2.387 E15.68175
G1 X11.420 Y-1.200 E15.79667
G1 X11.482 Y-0.000 E15.91158
G1 X11.420 Y1.200 E16.02650
G1 X11.231 Y2.387 E16.14142
G1 X10.920 Y3.548 E16.25633
G1 X10.490 Y4.670 E16.37125
G1 X9.944 Y5.741 E16.48617
G1 X9.289 Y6.749 E16.60108
G1 X8.533 Y7.683 E16.71600
G1 X7.683 Y8.533 E16.83092
G1 X6.749 Y9.289 E16.94583
G1 X5.741 Y9.944 E17.06075
G1 X4.758 Y10.445 E17.16624
G1 X4.403 Y9.889 F7800.000
G1 X3.345 Y10.295 E17.27458 F540.000
G1 X2.251 Y10.588 E17.38291
G1 X1.131 Y10.765 E17.49124
G1 X-0.000 Y10.824 E17.59957
G1 X-1.131 Y10.765 E17.70790
G1 X-2.251 Y10.588 E17.81623
G1 X-3.345 Y10.295 E17.92456
G1 X-4.403 Y9.889 E18.03289
G1 X-5.412 Y9.374 E18.14123
G1 X-6.362 Y8.757 E18.24956
G1 X-7.243 Y8.044 E18.35789
G1 X-8.044 Y7.243 E18.46622
G1 X-8.757 Y6.362 E18.57455
G1 X-9.374 Y5.412 E18.68288
G1 X-9.889 Y4.403 E18.79122
G1 X-10.295 Y3.345 E18.89955
G1 X-10.588 Y2.251 E19.00788
G1 X-10.765 Y1.131 E19.11621
G1 X-10.824 Y-0.000 E19.22454
G1 X-10.765 Y-1.131 E19.33288
G1 X-10.588 Y-2.251 E19.44121
G1 X-10.295 Y-3.345 E19.54954
G1 X-9.889 Y-4.403 E19.65787
G1 X-9.374 Y-5.412 E19.76620
G1 X-8.757 Y-6.362 E19.87453
G1 X-8.044 Y-7.243 E19.98286
G1 X-7.251 Y-8.037 E20.09017
G1 X-6.364 Y-8.756 E20.19940
G1 X-5.412 Y-9.374 E20.30785
G1 X-4.403 Y-9.889 E20.41619
G1 X-3.345 Y-10.295 E20.52452
G1 X-2.251 Y-10.588 E20.63285
G1 X-1.131 Y-10.765 E20.74118
G1 X-0.000 Y-10.824 E20.84951
G1 X1.121 Y-10.766 E20.95682
G1 X2.249 Y-10.588 E21.06605
G1 X3.345 Y-10.295 E21.17450
G1 X4.403 Y-9.889 E21.28283
G1 X5.412 Y-9.374 E21.39117
G1 X6.362 Y-8.757 E21.49950
G1 X7.243 Y-8.044 E21.60783
G1 X8.044 Y-7.243 E21.71616
G1 X8.757 Y-6.362 E21.82449
G1 X9.374 Y-5.412 E21.93282
G1 X9.889 Y-4.403 E22.04115
G1 X10.295 Y-3.345 E22.14949
G1 X10.588 Y-2.251 E22.25782
G1 X10.765 Y-1.131 E22.36615
G1 X10.824 Y-0.000 E22.47448
G1 X10.765 Y1.131 E22.58281
G1 X10.588 Y2.251 E22.69114
G1 X10.295 Y3.345 E22.79947
G1 X9.889 Y4.403 E22.90781
G1 X9.374 Y5.412 E23.01614
G1 X8.757 Y6.362 E23.12447
G1 X8.044 Y7.243 E23.23280
G1 X7.243 Y8.044 E23.34113
G1 X6.362 Y8.757 E23.44946
G1 X5.412 Y9.374 E23.55780
G1 X4.490 Y9.844 E23.65670
G1 X4.135 Y9.288 F7800.000
G1 X3.142 Y9.669 E23.75845 F540.000
G1 X2.114 Y9.944 E23.86020
G1 X1.063 Y10.111 E23.96194
G1 X-0.000 Y10.166 E24.06369
G1 X-1.063 Y10.111 E24.16544
G1 X-2.114 Y9.944 E24.26718
G1 X-3.142 Y9.669 E24.36893
G1 X-4.135 Y9.288 E24.47067
G1 X-5.083 Y8.804 E24.57242
G1 X-5.976 Y8.225 E24.67417
G1 X-6.803 Y7.555 E24.77592
G1 X-7.555 Y6.803 E24.87766
G1 X-8.225 Y5.976 E24.97941
G1 X-8.804 Y5.083 E25.08115
G1 X-9.288 Y4.135 E25.18290
G1 X-9.669 Y3.142 E25.28465
G1 X-9.944 Y2.114 E25.38639
G1 X-10.111 Y1.063 E25.48814
G1 X-10.166 Y-0.000 E25.58989
G1 X-10.111 Y-1.063 E25.69163
G1 X-9.944 Y-2.114 E25.79338
G1 X-9.669 Y-3.142 E25.89513
G1 X-9.288 Y-4.135 E25.99687
G1 X-8.804 Y-5.083 E26.09862
G1 X-8.225 Y-5.976 E26.20037
G1 X-7.555 Y-6.803 E26.30211
G1 X-6.810 Y-7.548 E26.40287
G1 X-5.976 Y-8.224 E26.50551
G1 X-5.083 Y-8.804 E26.60735
G1 X-4.135 Y-9.288 E26.70909
G1 X-3.142 Y-9.669 E26.81084
G1 X-2.114 Y-9.944 E26.91258
G1 X-1.063 Y-10.111 E27.01433
G1 X-0.000 Y-10.166 E27.11608
G1 X1.052 Y-10.111 E27.21684
G1 X2.113 Y-9.945 E27.31948
G1 X3.142 Y-9.669 E27.42131
G1 X4.135 Y-9.288 E27.52306
G1 X5.083 Y-8.804 E27.62481
G1 X5.976 Y-8.225 E27.72655
G1 X6.803 Y-7.555 E27.82830
G1 X7.555 Y-6.803 E27.93005
G1 X8.225 Y-5.976 E28.03179
G1 X8.804 Y-5.083 E28.13354
G1 X9.288 Y-4.135 E28.23529
G1 X9.669 Y-3.142 E28.33703
G1 X9.944 Y-2.114 E28.43878
G1 X10.111 Y-1.063 E28.54052
G1 X10.166 Y-0.000 E28.64227
G1 X10.111 Y1.063 E28.74402
G1 X9.944 Y2.114 E28.84576
G1 X9.669 Y3.142 E28.94751
G1 X9.288 Y4.135 E29.04926
G1 X8.804 Y5.083 E29.15100
G1 X8.225 Y5.976 E29.25275
G1 X7.555 Y6.803 E29.35450
G1 X6.803 Y7.555 E29.45624
G1 X5.976 Y8.225 E29.55799
G1 X5.083 Y8.804 E29.65973
G1 X4.223 Y9.243 E29.75206
G1 X3.867 Y8.686 F7800.000
G1 X2.938 Y9.043 E29.84722 F540.000
G1 X1.977 Y9.301 E29.94238
G1 X0.994 Y9.456 E30.03754
G1 X-0.000 Y9.508 E30.13270
G1 X-0.994 Y9.456 E30.22786
G1 X-1.977 Y9.301 E30.32303
G1 X-2.938 Y9.043 E30.41819
G1 X-3.867 Y8.686 E30.51335
G1 X-4.754 Y8.235 E30.60851
G1 X-5.589 Y7.693 E30.70367
G1 X-6.362 Y7.066 E30.79883
G1 X-7.066 Y6.362 E30.89399
G1 X-7.693 Y5.589 E30.98915
G1 X-8.235 Y4.754 E31.08432
G1 X-8.686 Y3.867 E31.17948
G1 X-9.043 Y2.938 E31.27464
G1 X-9.301 Y1.977 E31.36980
G1 X-9.456 Y0.994 E31.46496
G1 X-9.508 Y-0.000 E31.56012
G1 X-9.456 Y-0.994 E31.65528
G1 X-9.301 Y-1.977 E31.75045
G1 X-9.043 Y-2.938 E31.84561
G1 X-8.686 Y-3.867 E31.94077
G1 X-8.235 Y-4.754 E32.03593
G1 X-7.693 Y-5.589 E32.13109
G1 X-7.066 Y-6.362 E32.22625
G1 X-6.369 Y-7.059 E32.32046
G1 X-5.589 Y-7.692 E32.41652
G1 X-4.754 Y-8.235 E32.51173
G1 X-3.867 Y-8.686 E32.60689
G1 X-2.938 Y-9.043 E32.70206
G1 X-1.977 Y-9.301 E32.79722
G1 X-0.994 Y-9.456 E32.89238
G1 X-0.000 Y-9.508 E32.98754
G1 X0.984 Y-9.457 E33.08174
G1 X1.976 Y-9.301 E33.17780
G1 X2.938 Y-9.043 E33.27302
G1 X3.867 Y-8.686 E33.36818
G1 X4.754 Y-8.235 E33.46334
G1 X5.589 Y-7.693 E33.55850
G1 X6.362 Y-7.066 E33.65366
G1 X7.066 Y-6.362 E33.74882
G1 X7.692 Y-5.589 E33.84398
G1 X8.235 Y-4.754 E33.93915
G1 X8.686 Y-3.867 E34.03431
G1 X9.043 Y-2.938 E34.12947
G1 X9.301 Y-1.977 E34.22463
G1 X9.456 Y-0.994 E34.31979
G1 X9.508 Y-0.000 E34.41495
G1 X9.456 Y0.994 E34.51011
G1 X9.301 Y1.977 E34.60528
G1 X9.043 Y2.938 E34.70044
G1 X8.686 Y3.867 E34.79560
G1 X8.235 Y4.754 E34.89076
G1 X7.692 Y5.589 E34.98592
G1 X7.066 Y6.362 E35.08108
G1 X6.362 Y7.066 E35.17624
G1 X5.589 Y7.693 E35.27140
G1 X4.754 Y8.235 E35.36657
G1 X3.955 Y8.642 E35.45230
G1 X3.600 Y8.085 F7800.000
G1 X2.735 Y8.417 E35.54088 F378.000
G1 X1.840 Y8.657 E35.62946
G1 X0.925 Y8.802 E35.71803
G1 X-0.000 Y8.850 E35.80661
G1 X-0.925 Y8.802 E35.89519
G1 X-1.840 Y8.657 E35.98376
G1 X-2.735 Y8.417 E36.07234
G1 X-3.600 Y8.085 E36.16091
G1 X-4.425 Y7.665 E36.24949
G1 X-5.202 Y7.160 E36.33807
G1 X-5.922 Y6.577 E36.42664
G1 X-6.577 Y5.922 E36.51522
G1 X-7.160 Y5.202 E36.60379
G1 X-7.665 Y4.425 E36.69237
G1 X-8.085 Y3.600 E36.78095
G1 X-8.417 Y2.735 E36.86952
G1 X-8.657 Y1.840 E36.95810
G1 X-8.802 Y0.925 E37.04668
G1 X-8.850 Y-0.000 E37.13525
G1 X-8.802 Y-0.925 E37.22383
G1 X-8.657 Y-1.840 E37.31240
G1 X-8.417 Y-2.735 E37.40098
G1 X-8.085 Y-3.600 E37.48956
G1 X-7.665 Y-4.425 E37.57813
G1 X-7.160 Y-5.202 E37.66671
G1 X-6.577 Y-5.922 E37.75529
G1 X-5.929 Y-6.570 E37.84294
G1 X-5.202 Y-7.160 E37.93241
G1 X-4.425 Y-7.665 E38.02101
G1 X-3.600 Y-8.085 E38.10959
